( This gcode generated by /home/mattvenn/.eagle/ulp/pcb-gcode.ulp )
( Copyright 2005 by John Johnson. See readme.txt for licensing terms. )

( This file generated from the board /home/mattvenn/eagle-circuit-designs/energy plotter/polarplotter.brd )
( This file generated 19/12/2011 17:51 )

G21

G90
G00 Z10.0000 
G00 X0 Y0
M03
G04 P3.000000
G00 Z2.0000 
G00 X92.7949 Y19.7587 
G01 Z-0.1000 F254.00 
G01 X92.7949 Y20.8812 
G01 X92.0012 Y21.6749 
G01 X90.8787 Y21.6749 
G01 X90.0850 Y20.8812 
G01 X90.0850 Y19.7587 
G01 X90.8787 Y18.9650 
G01 X92.0012 Y18.9650 
G01 X92.7949 Y19.7587 
G00 Z2.0000 
G00 X85.1749 Y19.7587 
G01 Z-0.1000 F254.00 
G01 X85.1749 Y20.8812 
G01 X84.3812 Y21.6749 
G01 X83.2587 Y21.6749 
G01 X82.4650 Y20.8812 
G01 X82.4650 Y19.7587 
G01 X83.2587 Y18.9650 
G01 X84.3812 Y18.9650 
G01 X85.1749 Y19.7587 
G00 Z2.0000 
G00 X73.7449 Y12.1387 
G01 Z-0.1000 F254.00 
G01 X73.7449 Y13.2612 
G01 X72.9512 Y14.0549 
G01 X71.8287 Y14.0549 
G01 X71.0350 Y13.2612 
G01 X71.0350 Y12.1387 
G01 X71.8287 Y11.3450 
G01 X72.9512 Y11.3450 
G01 X73.7449 Y12.1387 
G00 Z2.0000 
G00 X81.3649 Y12.1387 
G01 Z-0.1000 F254.00 
G01 X81.3649 Y13.2612 
G01 X80.5712 Y14.0549 
G01 X79.4487 Y14.0549 
G01 X78.6550 Y13.2612 
G01 X78.6550 Y12.1387 
G01 X79.4487 Y11.3450 
G01 X80.5712 Y11.3450 
G01 X81.3649 Y12.1387 
G00 Z2.0000 
G00 X78.3931 Y15.5808 
G01 Z-0.1000 F254.00 
G01 X78.3931 Y17.4391 
G01 X78.3576 Y17.6175 
G01 X78.2880 Y17.7855 
G01 X78.1870 Y17.9366 
G01 X78.0584 Y18.0652 
G01 X77.9073 Y18.1662 
G01 X77.7393 Y18.2358 
G01 X77.5609 Y18.2713 
G01 X77.3790 Y18.2713 
G01 X77.2006 Y18.2358 
G01 X77.0326 Y18.1662 
G01 X76.8815 Y18.0652 
G01 X76.7529 Y17.9366 
G01 X76.6519 Y17.7855 
G01 X76.5823 Y17.6175 
G01 X76.5468 Y17.4391 
G01 X76.5468 Y15.5808 
G01 X76.5823 Y15.4024 
G01 X76.6519 Y15.2344 
G01 X76.7529 Y15.0833 
G01 X76.8815 Y14.9547 
G01 X77.0326 Y14.8537 
G01 X77.2006 Y14.7841 
G01 X77.3790 Y14.7486 
G01 X77.5609 Y14.7486 
G01 X77.7393 Y14.7841 
G01 X77.9073 Y14.8537 
G01 X78.0584 Y14.9547 
G01 X78.1870 Y15.0833 
G01 X78.2880 Y15.2344 
G01 X78.3576 Y15.4024 
G01 X78.3931 Y15.5808 
G00 Z2.0000 
G00 X75.8531 Y15.5808 
G01 Z-0.1000 F254.00 
G01 X75.8531 Y17.4391 
G01 X75.8176 Y17.6175 
G01 X75.7480 Y17.7855 
G01 X75.6470 Y17.9366 
G01 X75.5184 Y18.0652 
G01 X75.3673 Y18.1662 
G01 X75.1993 Y18.2358 
G01 X75.0209 Y18.2713 
G01 X74.8390 Y18.2713 
G01 X74.6606 Y18.2358 
G01 X74.4926 Y18.1662 
G01 X74.3415 Y18.0652 
G01 X74.2129 Y17.9366 
G01 X74.1119 Y17.7855 
G01 X74.0423 Y17.6175 
G01 X74.0068 Y17.4391 
G01 X74.0068 Y15.5808 
G01 X74.0423 Y15.4024 
G01 X74.1119 Y15.2344 
G01 X74.2129 Y15.0833 
G01 X74.3415 Y14.9547 
G01 X74.4926 Y14.8537 
G01 X74.6606 Y14.7841 
G01 X74.8390 Y14.7486 
G01 X75.0209 Y14.7486 
G01 X75.1993 Y14.7841 
G01 X75.3673 Y14.8537 
G01 X75.5184 Y14.9547 
G01 X75.6470 Y15.0833 
G01 X75.7480 Y15.2344 
G01 X75.8176 Y15.4024 
G01 X75.8531 Y15.5808 
G00 Z2.0000 
G00 X80.9331 Y15.5808 
G01 Z-0.1000 F254.00 
G01 X80.9331 Y17.4391 
G01 X80.8976 Y17.6175 
G01 X80.8280 Y17.7855 
G01 X80.7270 Y17.9366 
G01 X80.5984 Y18.0652 
G01 X80.4473 Y18.1662 
G01 X80.2793 Y18.2358 
G01 X80.1009 Y18.2713 
G01 X79.9190 Y18.2713 
G01 X79.7406 Y18.2358 
G01 X79.5726 Y18.1662 
G01 X79.4215 Y18.0652 
G01 X79.2929 Y17.9366 
G01 X79.1919 Y17.7855 
G01 X79.1223 Y17.6175 
G01 X79.0868 Y17.4391 
G01 X79.0868 Y15.5808 
G01 X79.1223 Y15.4024 
G01 X79.1919 Y15.2344 
G01 X79.2929 Y15.0833 
G01 X79.4215 Y14.9547 
G01 X79.5726 Y14.8537 
G01 X79.7406 Y14.7841 
G01 X79.9190 Y14.7486 
G01 X80.1009 Y14.7486 
G01 X80.2793 Y14.7841 
G01 X80.4473 Y14.8537 
G01 X80.5984 Y14.9547 
G01 X80.7270 Y15.0833 
G01 X80.8280 Y15.2344 
G01 X80.8976 Y15.4024 
G01 X80.9331 Y15.5808 
G00 Z2.0000 
G00 X89.3230 Y16.0854 
G01 Z-0.1000 F254.00 
G01 X89.3230 Y14.3945 
G01 X89.3555 Y14.2309 
G01 X89.4194 Y14.0767 
G01 X89.5121 Y13.9380 
G01 X89.6300 Y13.8201 
G01 X89.7687 Y13.7274 
G01 X89.9229 Y13.6635 
G01 X90.0865 Y13.6310 
G01 X90.2534 Y13.6310 
G01 X90.4170 Y13.6635 
G01 X90.5712 Y13.7274 
G01 X90.7099 Y13.8201 
G01 X90.8278 Y13.9380 
G01 X90.9205 Y14.0767 
G01 X90.9844 Y14.2309 
G01 X91.0169 Y14.3945 
G01 X91.0169 Y16.0854 
G01 X90.9844 Y16.2490 
G01 X90.9205 Y16.4032 
G01 X90.8278 Y16.5419 
G01 X90.7099 Y16.6598 
G01 X90.5712 Y16.7525 
G01 X90.4170 Y16.8164 
G01 X90.2534 Y16.8489 
G01 X90.0865 Y16.8489 
G01 X89.9229 Y16.8164 
G01 X89.7687 Y16.7525 
G01 X89.6300 Y16.6598 
G01 X89.5121 Y16.5419 
G01 X89.4194 Y16.4032 
G01 X89.3555 Y16.2490 
G01 X89.3230 Y16.0854 
G00 Z2.0000 
G00 X86.7830 Y16.0854 
G01 Z-0.1000 F254.00 
G01 X86.7830 Y14.3945 
G01 X86.8155 Y14.2309 
G01 X86.8794 Y14.0767 
G01 X86.9721 Y13.9380 
G01 X87.0900 Y13.8201 
G01 X87.2287 Y13.7274 
G01 X87.3829 Y13.6635 
G01 X87.5465 Y13.6310 
G01 X87.7134 Y13.6310 
G01 X87.8770 Y13.6635 
G01 X88.0312 Y13.7274 
G01 X88.1699 Y13.8201 
G01 X88.2878 Y13.9380 
G01 X88.3805 Y14.0767 
G01 X88.4444 Y14.2309 
G01 X88.4769 Y14.3945 
G01 X88.4769 Y16.0854 
G01 X88.4444 Y16.2490 
G01 X88.3805 Y16.4032 
G01 X88.2878 Y16.5419 
G01 X88.1699 Y16.6598 
G01 X88.0312 Y16.7525 
G01 X87.8770 Y16.8164 
G01 X87.7134 Y16.8489 
G01 X87.5465 Y16.8489 
G01 X87.3829 Y16.8164 
G01 X87.2287 Y16.7525 
G01 X87.0900 Y16.6598 
G01 X86.9721 Y16.5419 
G01 X86.8794 Y16.4032 
G01 X86.8155 Y16.2490 
G01 X86.7830 Y16.0854 
G00 Z2.0000 
G00 X84.2430 Y16.0854 
G01 Z-0.1000 F254.00 
G01 X84.2430 Y14.3945 
G01 X84.2755 Y14.2309 
G01 X84.3394 Y14.0767 
G01 X84.4321 Y13.9380 
G01 X84.5500 Y13.8201 
G01 X84.6887 Y13.7274 
G01 X84.8429 Y13.6635 
G01 X85.0065 Y13.6310 
G01 X85.1734 Y13.6310 
G01 X85.3370 Y13.6635 
G01 X85.4912 Y13.7274 
G01 X85.6299 Y13.8201 
G01 X85.7478 Y13.9380 
G01 X85.8405 Y14.0767 
G01 X85.9044 Y14.2309 
G01 X85.9369 Y14.3945 
G01 X85.9369 Y16.0854 
G01 X85.9044 Y16.2490 
G01 X85.8405 Y16.4032 
G01 X85.7478 Y16.5419 
G01 X85.6299 Y16.6598 
G01 X85.4912 Y16.7525 
G01 X85.3370 Y16.8164 
G01 X85.1734 Y16.8489 
G01 X85.0065 Y16.8489 
G01 X84.8429 Y16.8164 
G01 X84.6887 Y16.7525 
G01 X84.5500 Y16.6598 
G01 X84.4321 Y16.5419 
G01 X84.3394 Y16.4032 
G01 X84.2755 Y16.2490 
G01 X84.2430 Y16.0854 
G00 Z2.0000 
G00 X15.5250 Y9.1860 
G01 Z-0.1000 F254.00 
G01 X17.4949 Y9.1860 
G01 X17.6831 Y9.2234 
G01 X17.8603 Y9.2968 
G01 X18.0198 Y9.4034 
G01 X18.1555 Y9.5391 
G01 X18.2621 Y9.6986 
G01 X18.3355 Y9.8758 
G01 X18.3729 Y10.0640 
G01 X18.3729 Y10.2559 
G01 X18.3355 Y10.4441 
G01 X18.2621 Y10.6213 
G01 X18.1555 Y10.7808 
G01 X18.0198 Y10.9165 
G01 X17.8603 Y11.0231 
G01 X17.6831 Y11.0965 
G01 X17.4949 Y11.1339 
G01 X15.5250 Y11.1339 
G01 X15.3368 Y11.0965 
G01 X15.1596 Y11.0231 
G01 X15.0001 Y10.9165 
G01 X14.8644 Y10.7808 
G01 X14.7578 Y10.6213 
G01 X14.6844 Y10.4441 
G01 X14.6470 Y10.2559 
G01 X14.6470 Y10.0640 
G01 X14.6844 Y9.8758 
G01 X14.7578 Y9.6986 
G01 X14.8644 Y9.5391 
G01 X15.0001 Y9.4034 
G01 X15.1596 Y9.2968 
G01 X15.3368 Y9.2234 
G01 X15.5250 Y9.1860 
G00 Z2.0000 
G00 X15.5250 Y11.7260 
G01 Z-0.1000 F254.00 
G01 X17.4949 Y11.7260 
G01 X17.6831 Y11.7634 
G01 X17.8603 Y11.8368 
G01 X18.0198 Y11.9434 
G01 X18.1555 Y12.0791 
G01 X18.2621 Y12.2386 
G01 X18.3355 Y12.4158 
G01 X18.3729 Y12.6040 
G01 X18.3729 Y12.7959 
G01 X18.3355 Y12.9841 
G01 X18.2621 Y13.1613 
G01 X18.1555 Y13.3208 
G01 X18.0198 Y13.4565 
G01 X17.8603 Y13.5631 
G01 X17.6831 Y13.6365 
G01 X17.4949 Y13.6739 
G01 X15.5250 Y13.6739 
G01 X15.3368 Y13.6365 
G01 X15.1596 Y13.5631 
G01 X15.0001 Y13.4565 
G01 X14.8644 Y13.3208 
G01 X14.7578 Y13.1613 
G01 X14.6844 Y12.9841 
G01 X14.6470 Y12.7959 
G01 X14.6470 Y12.6040 
G01 X14.6844 Y12.4158 
G01 X14.7578 Y12.2386 
G01 X14.8644 Y12.0791 
G01 X15.0001 Y11.9434 
G01 X15.1596 Y11.8368 
G01 X15.3368 Y11.7634 
G01 X15.5250 Y11.7260 
G00 Z2.0000 
G00 X15.5250 Y14.2660 
G01 Z-0.1000 F254.00 
G01 X17.4949 Y14.2660 
G01 X17.6831 Y14.3034 
G01 X17.8603 Y14.3768 
G01 X18.0198 Y14.4834 
G01 X18.1555 Y14.6191 
G01 X18.2621 Y14.7786 
G01 X18.3355 Y14.9558 
G01 X18.3729 Y15.1440 
G01 X18.3729 Y15.3359 
G01 X18.3355 Y15.5241 
G01 X18.2621 Y15.7013 
G01 X18.1555 Y15.8608 
G01 X18.0198 Y15.9965 
G01 X17.8603 Y16.1031 
G01 X17.6831 Y16.1765 
G01 X17.4949 Y16.2139 
G01 X15.5250 Y16.2139 
G01 X15.3368 Y16.1765 
G01 X15.1596 Y16.1031 
G01 X15.0001 Y15.9965 
G01 X14.8644 Y15.8608 
G01 X14.7578 Y15.7013 
G01 X14.6844 Y15.5241 
G01 X14.6470 Y15.3359 
G01 X14.6470 Y15.1440 
G01 X14.6844 Y14.9558 
G01 X14.7578 Y14.7786 
G01 X14.8644 Y14.6191 
G01 X15.0001 Y14.4834 
G01 X15.1596 Y14.3768 
G01 X15.3368 Y14.3034 
G01 X15.5250 Y14.2660 
G00 Z2.0000 
G00 X15.5250 Y16.8060 
G01 Z-0.1000 F254.00 
G01 X17.4949 Y16.8060 
G01 X17.6831 Y16.8434 
G01 X17.8603 Y16.9168 
G01 X18.0198 Y17.0234 
G01 X18.1555 Y17.1591 
G01 X18.2621 Y17.3186 
G01 X18.3355 Y17.4958 
G01 X18.3729 Y17.6840 
G01 X18.3729 Y17.8759 
G01 X18.3355 Y18.0641 
G01 X18.2621 Y18.2413 
G01 X18.1555 Y18.4008 
G01 X18.0198 Y18.5365 
G01 X17.8603 Y18.6431 
G01 X17.6831 Y18.7165 
G01 X17.4949 Y18.7539 
G01 X15.5250 Y18.7539 
G01 X15.3368 Y18.7165 
G01 X15.1596 Y18.6431 
G01 X15.0001 Y18.5365 
G01 X14.8644 Y18.4008 
G01 X14.7578 Y18.2413 
G01 X14.6844 Y18.0641 
G01 X14.6470 Y17.8759 
G01 X14.6470 Y17.6840 
G01 X14.6844 Y17.4958 
G01 X14.7578 Y17.3186 
G01 X14.8644 Y17.1591 
G01 X15.0001 Y17.0234 
G01 X15.1596 Y16.9168 
G01 X15.3368 Y16.8434 
G01 X15.5250 Y16.8060 
G00 Z2.0000 
G00 X27.0108 Y14.3168 
G01 Z-0.1000 F254.00 
G01 X28.8691 Y14.3168 
G01 X29.0475 Y14.3523 
G01 X29.2155 Y14.4219 
G01 X29.3666 Y14.5229 
G01 X29.4952 Y14.6515 
G01 X29.5962 Y14.8026 
G01 X29.6658 Y14.9706 
G01 X29.7013 Y15.1490 
G01 X29.7013 Y15.3309 
G01 X29.6658 Y15.5093 
G01 X29.5962 Y15.6773 
G01 X29.4952 Y15.8284 
G01 X29.3666 Y15.9570 
G01 X29.2155 Y16.0580 
G01 X29.0475 Y16.1276 
G01 X28.8691 Y16.1631 
G01 X27.0108 Y16.1631 
G01 X26.8324 Y16.1276 
G01 X26.6644 Y16.0580 
G01 X26.5133 Y15.9570 
G01 X26.3847 Y15.8284 
G01 X26.2837 Y15.6773 
G01 X26.2141 Y15.5093 
G01 X26.1786 Y15.3309 
G01 X26.1786 Y15.1490 
G01 X26.2141 Y14.9706 
G01 X26.2837 Y14.8026 
G01 X26.3847 Y14.6515 
G01 X26.5133 Y14.5229 
G01 X26.6644 Y14.4219 
G01 X26.8324 Y14.3523 
G01 X27.0108 Y14.3168 
G00 Z2.0000 
G00 X27.0108 Y11.7768 
G01 Z-0.1000 F254.00 
G01 X28.8691 Y11.7768 
G01 X29.0475 Y11.8123 
G01 X29.2155 Y11.8819 
G01 X29.3666 Y11.9829 
G01 X29.4952 Y12.1115 
G01 X29.5962 Y12.2626 
G01 X29.6658 Y12.4306 
G01 X29.7013 Y12.6090 
G01 X29.7013 Y12.7909 
G01 X29.6658 Y12.9693 
G01 X29.5962 Y13.1373 
G01 X29.4952 Y13.2884 
G01 X29.3666 Y13.4170 
G01 X29.2155 Y13.5180 
G01 X29.0475 Y13.5876 
G01 X28.8691 Y13.6231 
G01 X27.0108 Y13.6231 
G01 X26.8324 Y13.5876 
G01 X26.6644 Y13.5180 
G01 X26.5133 Y13.4170 
G01 X26.3847 Y13.2884 
G01 X26.2837 Y13.1373 
G01 X26.2141 Y12.9693 
G01 X26.1786 Y12.7909 
G01 X26.1786 Y12.6090 
G01 X26.2141 Y12.4306 
G01 X26.2837 Y12.2626 
G01 X26.3847 Y12.1115 
G01 X26.5133 Y11.9829 
G01 X26.6644 Y11.8819 
G01 X26.8324 Y11.8123 
G01 X27.0108 Y11.7768 
G00 Z2.0000 
G00 X27.0108 Y9.2368 
G01 Z-0.1000 F254.00 
G01 X28.8691 Y9.2368 
G01 X29.0475 Y9.2723 
G01 X29.2155 Y9.3419 
G01 X29.3666 Y9.4429 
G01 X29.4952 Y9.5715 
G01 X29.5962 Y9.7226 
G01 X29.6658 Y9.8906 
G01 X29.7013 Y10.0690 
G01 X29.7013 Y10.2509 
G01 X29.6658 Y10.4293 
G01 X29.5962 Y10.5973 
G01 X29.4952 Y10.7484 
G01 X29.3666 Y10.8770 
G01 X29.2155 Y10.9780 
G01 X29.0475 Y11.0476 
G01 X28.8691 Y11.0831 
G01 X27.0108 Y11.0831 
G01 X26.8324 Y11.0476 
G01 X26.6644 Y10.9780 
G01 X26.5133 Y10.8770 
G01 X26.3847 Y10.7484 
G01 X26.2837 Y10.5973 
G01 X26.2141 Y10.4293 
G01 X26.1786 Y10.2509 
G01 X26.1786 Y10.0690 
G01 X26.2141 Y9.8906 
G01 X26.2837 Y9.7226 
G01 X26.3847 Y9.5715 
G01 X26.5133 Y9.4429 
G01 X26.6644 Y9.3419 
G01 X26.8324 Y9.2723 
G01 X27.0108 Y9.2368 
G00 Z2.0000 
G00 X30.5649 Y44.8513 
G01 Z-0.1000 F254.00 
G01 X30.5649 Y45.0646 
G01 X30.5315 Y45.2753 
G01 X30.4656 Y45.4781 
G01 X30.3688 Y45.6681 
G01 X30.2435 Y45.8407 
G01 X30.0927 Y45.9915 
G01 X29.9201 Y46.1168 
G01 X29.7301 Y46.2136 
G01 X29.5273 Y46.2795 
G01 X29.3166 Y46.3129 
G01 X29.1033 Y46.3129 
G01 X28.8926 Y46.2795 
G01 X28.6898 Y46.2136 
G01 X28.4998 Y46.1168 
G01 X28.3272 Y45.9915 
G01 X28.1764 Y45.8407 
G01 X28.0511 Y45.6681 
G01 X27.9543 Y45.4781 
G01 X27.8884 Y45.2753 
G01 X27.8550 Y45.0646 
G01 X27.8550 Y44.8513 
G01 X27.8884 Y44.6406 
G01 X27.9543 Y44.4378 
G01 X28.0511 Y44.2478 
G01 X28.1764 Y44.0752 
G01 X28.3272 Y43.9244 
G01 X28.4998 Y43.7991 
G01 X28.6898 Y43.7023 
G01 X28.8926 Y43.6364 
G01 X29.1033 Y43.6030 
G01 X29.3166 Y43.6030 
G01 X29.5273 Y43.6364 
G01 X29.7301 Y43.7023 
G01 X29.9201 Y43.7991 
G01 X30.0927 Y43.9244 
G01 X30.2435 Y44.0752 
G01 X30.3688 Y44.2478 
G01 X30.4656 Y44.4378 
G01 X30.5315 Y44.6406 
G01 X30.5649 Y44.8513 
G00 Z2.0000 
G00 X30.5649 Y40.8407 
G01 Z-0.1000 F254.00 
G01 X30.5649 Y41.9632 
G01 X29.7712 Y42.7569 
G01 X28.6487 Y42.7569 
G01 X27.8550 Y41.9632 
G01 X27.8550 Y40.8407 
G01 X28.6487 Y40.0470 
G01 X29.7712 Y40.0470 
G01 X30.5649 Y40.8407 
G00 Z2.0000 
G00 X44.1539 Y43.3380 
G01 Z-0.1000 F254.00 
G01 X44.1539 Y43.5299 
G01 X44.1165 Y43.7181 
G01 X44.0431 Y43.8953 
G01 X43.9365 Y44.0548 
G01 X43.8008 Y44.1905 
G01 X43.6413 Y44.2971 
G01 X43.4641 Y44.3705 
G01 X43.2759 Y44.4079 
G01 X43.0840 Y44.4079 
G01 X42.8958 Y44.3705 
G01 X42.7186 Y44.2971 
G01 X42.5591 Y44.1905 
G01 X42.4234 Y44.0548 
G01 X42.3168 Y43.8953 
G01 X42.2434 Y43.7181 
G01 X42.2060 Y43.5299 
G01 X42.2060 Y43.3380 
G01 X42.2434 Y43.1498 
G01 X42.3168 Y42.9726 
G01 X42.4234 Y42.8131 
G01 X42.5591 Y42.6774 
G01 X42.7186 Y42.5708 
G01 X42.8958 Y42.4974 
G01 X43.0840 Y42.4600 
G01 X43.2759 Y42.4600 
G01 X43.4641 Y42.4974 
G01 X43.6413 Y42.5708 
G01 X43.8008 Y42.6774 
G01 X43.9365 Y42.8131 
G01 X44.0431 Y42.9726 
G01 X44.1165 Y43.1498 
G01 X44.1539 Y43.3380 
G00 Z2.0000 
G00 X44.1539 Y45.0625 
G01 Z-0.1000 F254.00 
G01 X44.1539 Y45.8694 
G01 X43.5834 Y46.4399 
G01 X42.7765 Y46.4399 
G01 X42.2060 Y45.8694 
G01 X42.2060 Y45.0625 
G01 X42.7765 Y44.4920 
G01 X43.5834 Y44.4920 
G01 X44.1539 Y45.0625 
G00 Z2.0000 
G00 X102.5849 Y22.5639 
G01 Z-0.1000 F254.00 
G01 X100.6150 Y22.5639 
G01 X100.4268 Y22.5265 
G01 X100.2496 Y22.4531 
G01 X100.0901 Y22.3465 
G01 X99.9544 Y22.2108 
G01 X99.8478 Y22.0513 
G01 X99.7744 Y21.8741 
G01 X99.7370 Y21.6859 
G01 X99.7370 Y21.4940 
G01 X99.7744 Y21.3058 
G01 X99.8478 Y21.1286 
G01 X99.9544 Y20.9691 
G01 X100.0901 Y20.8334 
G01 X100.2496 Y20.7268 
G01 X100.4268 Y20.6534 
G01 X100.6150 Y20.6160 
G01 X102.5849 Y20.6160 
G01 X102.7731 Y20.6534 
G01 X102.9503 Y20.7268 
G01 X103.1098 Y20.8334 
G01 X103.2455 Y20.9691 
G01 X103.3521 Y21.1286 
G01 X103.4255 Y21.3058 
G01 X103.4629 Y21.4940 
G01 X103.4629 Y21.6859 
G01 X103.4255 Y21.8741 
G01 X103.3521 Y22.0513 
G01 X103.2455 Y22.2108 
G01 X103.1098 Y22.3465 
G01 X102.9503 Y22.4531 
G01 X102.7731 Y22.5265 
G01 X102.5849 Y22.5639 
G00 Z2.0000 
G00 X102.5849 Y25.1039 
G01 Z-0.1000 F254.00 
G01 X100.6150 Y25.1039 
G01 X100.4268 Y25.0665 
G01 X100.2496 Y24.9931 
G01 X100.0901 Y24.8865 
G01 X99.9544 Y24.7508 
G01 X99.8478 Y24.5913 
G01 X99.7744 Y24.4141 
G01 X99.7370 Y24.2259 
G01 X99.7370 Y24.0340 
G01 X99.7744 Y23.8458 
G01 X99.8478 Y23.6686 
G01 X99.9544 Y23.5091 
G01 X100.0901 Y23.3734 
G01 X100.2496 Y23.2668 
G01 X100.4268 Y23.1934 
G01 X100.6150 Y23.1560 
G01 X102.5849 Y23.1560 
G01 X102.7731 Y23.1934 
G01 X102.9503 Y23.2668 
G01 X103.1098 Y23.3734 
G01 X103.2455 Y23.5091 
G01 X103.3521 Y23.6686 
G01 X103.4255 Y23.8458 
G01 X103.4629 Y24.0340 
G01 X103.4629 Y24.2259 
G01 X103.4255 Y24.4141 
G01 X103.3521 Y24.5913 
G01 X103.2455 Y24.7508 
G01 X103.1098 Y24.8865 
G01 X102.9503 Y24.9931 
G01 X102.7731 Y25.0665 
G01 X102.5849 Y25.1039 
G00 Z2.0000 
G00 X102.5849 Y27.6439 
G01 Z-0.1000 F254.00 
G01 X100.6150 Y27.6439 
G01 X100.4268 Y27.6065 
G01 X100.2496 Y27.5331 
G01 X100.0901 Y27.4265 
G01 X99.9544 Y27.2908 
G01 X99.8478 Y27.1313 
G01 X99.7744 Y26.9541 
G01 X99.7370 Y26.7659 
G01 X99.7370 Y26.5740 
G01 X99.7744 Y26.3858 
G01 X99.8478 Y26.2086 
G01 X99.9544 Y26.0491 
G01 X100.0901 Y25.9134 
G01 X100.2496 Y25.8068 
G01 X100.4268 Y25.7334 
G01 X100.6150 Y25.6960 
G01 X102.5849 Y25.6960 
G01 X102.7731 Y25.7334 
G01 X102.9503 Y25.8068 
G01 X103.1098 Y25.9134 
G01 X103.2455 Y26.0491 
G01 X103.3521 Y26.2086 
G01 X103.4255 Y26.3858 
G01 X103.4629 Y26.5740 
G01 X103.4629 Y26.7659 
G01 X103.4255 Y26.9541 
G01 X103.3521 Y27.1313 
G01 X103.2455 Y27.2908 
G01 X103.1098 Y27.4265 
G01 X102.9503 Y27.5331 
G01 X102.7731 Y27.6065 
G01 X102.5849 Y27.6439 
G00 Z2.0000 
G00 X102.5849 Y30.1839 
G01 Z-0.1000 F254.00 
G01 X100.6150 Y30.1839 
G01 X100.4268 Y30.1465 
G01 X100.2496 Y30.0731 
G01 X100.0901 Y29.9665 
G01 X99.9544 Y29.8308 
G01 X99.8478 Y29.6713 
G01 X99.7744 Y29.4941 
G01 X99.7370 Y29.3059 
G01 X99.7370 Y29.1140 
G01 X99.7744 Y28.9258 
G01 X99.8478 Y28.7486 
G01 X99.9544 Y28.5891 
G01 X100.0901 Y28.4534 
G01 X100.2496 Y28.3468 
G01 X100.4268 Y28.2734 
G01 X100.6150 Y28.2360 
G01 X102.5849 Y28.2360 
G01 X102.7731 Y28.2734 
G01 X102.9503 Y28.3468 
G01 X103.1098 Y28.4534 
G01 X103.2455 Y28.5891 
G01 X103.3521 Y28.7486 
G01 X103.4255 Y28.9258 
G01 X103.4629 Y29.1140 
G01 X103.4629 Y29.3059 
G01 X103.4255 Y29.4941 
G01 X103.3521 Y29.6713 
G01 X103.2455 Y29.8308 
G01 X103.1098 Y29.9665 
G01 X102.9503 Y30.0731 
G01 X102.7731 Y30.1465 
G01 X102.5849 Y30.1839 
G00 Z2.0000 
G00 X102.5849 Y32.7239 
G01 Z-0.1000 F254.00 
G01 X100.6150 Y32.7239 
G01 X100.4268 Y32.6865 
G01 X100.2496 Y32.6131 
G01 X100.0901 Y32.5065 
G01 X99.9544 Y32.3708 
G01 X99.8478 Y32.2113 
G01 X99.7744 Y32.0341 
G01 X99.7370 Y31.8459 
G01 X99.7370 Y31.6540 
G01 X99.7744 Y31.4658 
G01 X99.8478 Y31.2886 
G01 X99.9544 Y31.1291 
G01 X100.0901 Y30.9934 
G01 X100.2496 Y30.8868 
G01 X100.4268 Y30.8134 
G01 X100.6150 Y30.7760 
G01 X102.5849 Y30.7760 
G01 X102.7731 Y30.8134 
G01 X102.9503 Y30.8868 
G01 X103.1098 Y30.9934 
G01 X103.2455 Y31.1291 
G01 X103.3521 Y31.2886 
G01 X103.4255 Y31.4658 
G01 X103.4629 Y31.6540 
G01 X103.4629 Y31.8459 
G01 X103.4255 Y32.0341 
G01 X103.3521 Y32.2113 
G01 X103.2455 Y32.3708 
G01 X103.1098 Y32.5065 
G01 X102.9503 Y32.6131 
G01 X102.7731 Y32.6865 
G01 X102.5849 Y32.7239 
G00 Z2.0000 
G00 X102.5849 Y35.2639 
G01 Z-0.1000 F254.00 
G01 X100.6150 Y35.2639 
G01 X100.4268 Y35.2265 
G01 X100.2496 Y35.1531 
G01 X100.0901 Y35.0465 
G01 X99.9544 Y34.9108 
G01 X99.8478 Y34.7513 
G01 X99.7744 Y34.5741 
G01 X99.7370 Y34.3859 
G01 X99.7370 Y34.1940 
G01 X99.7744 Y34.0058 
G01 X99.8478 Y33.8286 
G01 X99.9544 Y33.6691 
G01 X100.0901 Y33.5334 
G01 X100.2496 Y33.4268 
G01 X100.4268 Y33.3534 
G01 X100.6150 Y33.3160 
G01 X102.5849 Y33.3160 
G01 X102.7731 Y33.3534 
G01 X102.9503 Y33.4268 
G01 X103.1098 Y33.5334 
G01 X103.2455 Y33.6691 
G01 X103.3521 Y33.8286 
G01 X103.4255 Y34.0058 
G01 X103.4629 Y34.1940 
G01 X103.4629 Y34.3859 
G01 X103.4255 Y34.5741 
G01 X103.3521 Y34.7513 
G01 X103.2455 Y34.9108 
G01 X103.1098 Y35.0465 
G01 X102.9503 Y35.1531 
G01 X102.7731 Y35.2265 
G01 X102.5849 Y35.2639 
G00 Z2.0000 
G00 X102.5849 Y39.0739 
G01 Z-0.1000 F254.00 
G01 X100.6150 Y39.0739 
G01 X100.4268 Y39.0365 
G01 X100.2496 Y38.9631 
G01 X100.0901 Y38.8565 
G01 X99.9544 Y38.7208 
G01 X99.8478 Y38.5613 
G01 X99.7744 Y38.3841 
G01 X99.7370 Y38.1959 
G01 X99.7370 Y38.0040 
G01 X99.7744 Y37.8158 
G01 X99.8478 Y37.6386 
G01 X99.9544 Y37.4791 
G01 X100.0901 Y37.3434 
G01 X100.2496 Y37.2368 
G01 X100.4268 Y37.1634 
G01 X100.6150 Y37.1260 
G01 X102.5849 Y37.1260 
G01 X102.7731 Y37.1634 
G01 X102.9503 Y37.2368 
G01 X103.1098 Y37.3434 
G01 X103.2455 Y37.4791 
G01 X103.3521 Y37.6386 
G01 X103.4255 Y37.8158 
G01 X103.4629 Y38.0040 
G01 X103.4629 Y38.1959 
G01 X103.4255 Y38.3841 
G01 X103.3521 Y38.5613 
G01 X103.2455 Y38.7208 
G01 X103.1098 Y38.8565 
G01 X102.9503 Y38.9631 
G01 X102.7731 Y39.0365 
G01 X102.5849 Y39.0739 
G00 Z2.0000 
G00 X102.5849 Y41.6139 
G01 Z-0.1000 F254.00 
G01 X100.6150 Y41.6139 
G01 X100.4268 Y41.5765 
G01 X100.2496 Y41.5031 
G01 X100.0901 Y41.3965 
G01 X99.9544 Y41.2608 
G01 X99.8478 Y41.1013 
G01 X99.7744 Y40.9241 
G01 X99.7370 Y40.7359 
G01 X99.7370 Y40.5440 
G01 X99.7744 Y40.3558 
G01 X99.8478 Y40.1786 
G01 X99.9544 Y40.0191 
G01 X100.0901 Y39.8834 
G01 X100.2496 Y39.7768 
G01 X100.4268 Y39.7034 
G01 X100.6150 Y39.6660 
G01 X102.5849 Y39.6660 
G01 X102.7731 Y39.7034 
G01 X102.9503 Y39.7768 
G01 X103.1098 Y39.8834 
G01 X103.2455 Y40.0191 
G01 X103.3521 Y40.1786 
G01 X103.4255 Y40.3558 
G01 X103.4629 Y40.5440 
G01 X103.4629 Y40.7359 
G01 X103.4255 Y40.9241 
G01 X103.3521 Y41.1013 
G01 X103.2455 Y41.2608 
G01 X103.1098 Y41.3965 
G01 X102.9503 Y41.5031 
G01 X102.7731 Y41.5765 
G01 X102.5849 Y41.6139 
G00 Z2.0000 
G00 X102.5849 Y44.1539 
G01 Z-0.1000 F254.00 
G01 X100.6150 Y44.1539 
G01 X100.4268 Y44.1165 
G01 X100.2496 Y44.0431 
G01 X100.0901 Y43.9365 
G01 X99.9544 Y43.8008 
G01 X99.8478 Y43.6413 
G01 X99.7744 Y43.4641 
G01 X99.7370 Y43.2759 
G01 X99.7370 Y43.0840 
G01 X99.7744 Y42.8958 
G01 X99.8478 Y42.7186 
G01 X99.9544 Y42.5591 
G01 X100.0901 Y42.4234 
G01 X100.2496 Y42.3168 
G01 X100.4268 Y42.2434 
G01 X100.6150 Y42.2060 
G01 X102.5849 Y42.2060 
G01 X102.7731 Y42.2434 
G01 X102.9503 Y42.3168 
G01 X103.1098 Y42.4234 
G01 X103.2455 Y42.5591 
G01 X103.3521 Y42.7186 
G01 X103.4255 Y42.8958 
G01 X103.4629 Y43.0840 
G01 X103.4629 Y43.2759 
G01 X103.4255 Y43.4641 
G01 X103.3521 Y43.6413 
G01 X103.2455 Y43.8008 
G01 X103.1098 Y43.9365 
G01 X102.9503 Y44.0431 
G01 X102.7731 Y44.1165 
G01 X102.5849 Y44.1539 
G00 Z2.0000 
G00 X102.5849 Y46.6939 
G01 Z-0.1000 F254.00 
G01 X100.6150 Y46.6939 
G01 X100.4268 Y46.6565 
G01 X100.2496 Y46.5831 
G01 X100.0901 Y46.4765 
G01 X99.9544 Y46.3408 
G01 X99.8478 Y46.1813 
G01 X99.7744 Y46.0041 
G01 X99.7370 Y45.8159 
G01 X99.7370 Y45.6240 
G01 X99.7744 Y45.4358 
G01 X99.8478 Y45.2586 
G01 X99.9544 Y45.0991 
G01 X100.0901 Y44.9634 
G01 X100.2496 Y44.8568 
G01 X100.4268 Y44.7834 
G01 X100.6150 Y44.7460 
G01 X102.5849 Y44.7460 
G01 X102.7731 Y44.7834 
G01 X102.9503 Y44.8568 
G01 X103.1098 Y44.9634 
G01 X103.2455 Y45.0991 
G01 X103.3521 Y45.2586 
G01 X103.4255 Y45.4358 
G01 X103.4629 Y45.6240 
G01 X103.4629 Y45.8159 
G01 X103.4255 Y46.0041 
G01 X103.3521 Y46.1813 
G01 X103.2455 Y46.3408 
G01 X103.1098 Y46.4765 
G01 X102.9503 Y46.5831 
G01 X102.7731 Y46.6565 
G01 X102.5849 Y46.6939 
G00 Z2.0000 
G00 X102.5849 Y49.2339 
G01 Z-0.1000 F254.00 
G01 X100.6150 Y49.2339 
G01 X100.4268 Y49.1965 
G01 X100.2496 Y49.1231 
G01 X100.0901 Y49.0165 
G01 X99.9544 Y48.8808 
G01 X99.8478 Y48.7213 
G01 X99.7744 Y48.5441 
G01 X99.7370 Y48.3559 
G01 X99.7370 Y48.1640 
G01 X99.7744 Y47.9758 
G01 X99.8478 Y47.7986 
G01 X99.9544 Y47.6391 
G01 X100.0901 Y47.5034 
G01 X100.2496 Y47.3968 
G01 X100.4268 Y47.3234 
G01 X100.6150 Y47.2860 
G01 X102.5849 Y47.2860 
G01 X102.7731 Y47.3234 
G01 X102.9503 Y47.3968 
G01 X103.1098 Y47.5034 
G01 X103.2455 Y47.6391 
G01 X103.3521 Y47.7986 
G01 X103.4255 Y47.9758 
G01 X103.4629 Y48.1640 
G01 X103.4629 Y48.3559 
G01 X103.4255 Y48.5441 
G01 X103.3521 Y48.7213 
G01 X103.2455 Y48.8808 
G01 X103.1098 Y49.0165 
G01 X102.9503 Y49.1231 
G01 X102.7731 Y49.1965 
G01 X102.5849 Y49.2339 
G00 Z2.0000 
G00 X102.5849 Y51.7739 
G01 Z-0.1000 F254.00 
G01 X100.6150 Y51.7739 
G01 X100.4268 Y51.7365 
G01 X100.2496 Y51.6631 
G01 X100.0901 Y51.5565 
G01 X99.9544 Y51.4208 
G01 X99.8478 Y51.2613 
G01 X99.7744 Y51.0841 
G01 X99.7370 Y50.8959 
G01 X99.7370 Y50.7040 
G01 X99.7744 Y50.5158 
G01 X99.8478 Y50.3386 
G01 X99.9544 Y50.1791 
G01 X100.0901 Y50.0434 
G01 X100.2496 Y49.9368 
G01 X100.4268 Y49.8634 
G01 X100.6150 Y49.8260 
G01 X102.5849 Y49.8260 
G01 X102.7731 Y49.8634 
G01 X102.9503 Y49.9368 
G01 X103.1098 Y50.0434 
G01 X103.2455 Y50.1791 
G01 X103.3521 Y50.3386 
G01 X103.4255 Y50.5158 
G01 X103.4629 Y50.7040 
G01 X103.4629 Y50.8959 
G01 X103.4255 Y51.0841 
G01 X103.3521 Y51.2613 
G01 X103.2455 Y51.4208 
G01 X103.1098 Y51.5565 
G01 X102.9503 Y51.6631 
G01 X102.7731 Y51.7365 
G01 X102.5849 Y51.7739 
G00 Z2.0000 
G00 X53.7630 Y51.6454 
G01 Z-0.1000 F254.00 
G01 X53.7630 Y49.9545 
G01 X53.7955 Y49.7909 
G01 X53.8594 Y49.6367 
G01 X53.9521 Y49.4980 
G01 X54.0700 Y49.3801 
G01 X54.2087 Y49.2874 
G01 X54.3629 Y49.2235 
G01 X54.5265 Y49.1910 
G01 X54.6934 Y49.1910 
G01 X54.8570 Y49.2235 
G01 X55.0112 Y49.2874 
G01 X55.1499 Y49.3801 
G01 X55.2678 Y49.4980 
G01 X55.3605 Y49.6367 
G01 X55.4244 Y49.7909 
G01 X55.4569 Y49.9545 
G01 X55.4569 Y51.6454 
G01 X55.4244 Y51.8090 
G01 X55.3605 Y51.9632 
G01 X55.2678 Y52.1019 
G01 X55.1499 Y52.2198 
G01 X55.0112 Y52.3125 
G01 X54.8570 Y52.3764 
G01 X54.6934 Y52.4089 
G01 X54.5265 Y52.4089 
G01 X54.3629 Y52.3764 
G01 X54.2087 Y52.3125 
G01 X54.0700 Y52.2198 
G01 X53.9521 Y52.1019 
G01 X53.8594 Y51.9632 
G01 X53.7955 Y51.8090 
G01 X53.7630 Y51.6454 
G00 Z2.0000 
G00 X51.2230 Y51.6454 
G01 Z-0.1000 F254.00 
G01 X51.2230 Y49.9545 
G01 X51.2555 Y49.7909 
G01 X51.3194 Y49.6367 
G01 X51.4121 Y49.4980 
G01 X51.5300 Y49.3801 
G01 X51.6687 Y49.2874 
G01 X51.8229 Y49.2235 
G01 X51.9865 Y49.1910 
G01 X52.1534 Y49.1910 
G01 X52.3170 Y49.2235 
G01 X52.4712 Y49.2874 
G01 X52.6099 Y49.3801 
G01 X52.7278 Y49.4980 
G01 X52.8205 Y49.6367 
G01 X52.8844 Y49.7909 
G01 X52.9169 Y49.9545 
G01 X52.9169 Y51.6454 
G01 X52.8844 Y51.8090 
G01 X52.8205 Y51.9632 
G01 X52.7278 Y52.1019 
G01 X52.6099 Y52.2198 
G01 X52.4712 Y52.3125 
G01 X52.3170 Y52.3764 
G01 X52.1534 Y52.4089 
G01 X51.9865 Y52.4089 
G01 X51.8229 Y52.3764 
G01 X51.6687 Y52.3125 
G01 X51.5300 Y52.2198 
G01 X51.4121 Y52.1019 
G01 X51.3194 Y51.9632 
G01 X51.2555 Y51.8090 
G01 X51.2230 Y51.6454 
G00 Z2.0000 
G00 X48.6830 Y51.6454 
G01 Z-0.1000 F254.00 
G01 X48.6830 Y49.9545 
G01 X48.7155 Y49.7909 
G01 X48.7794 Y49.6367 
G01 X48.8721 Y49.4980 
G01 X48.9900 Y49.3801 
G01 X49.1287 Y49.2874 
G01 X49.2829 Y49.2235 
G01 X49.4465 Y49.1910 
G01 X49.6134 Y49.1910 
G01 X49.7770 Y49.2235 
G01 X49.9312 Y49.2874 
G01 X50.0699 Y49.3801 
G01 X50.1878 Y49.4980 
G01 X50.2805 Y49.6367 
G01 X50.3444 Y49.7909 
G01 X50.3769 Y49.9545 
G01 X50.3769 Y51.6454 
G01 X50.3444 Y51.8090 
G01 X50.2805 Y51.9632 
G01 X50.1878 Y52.1019 
G01 X50.0699 Y52.2198 
G01 X49.9312 Y52.3125 
G01 X49.7770 Y52.3764 
G01 X49.6134 Y52.4089 
G01 X49.4465 Y52.4089 
G01 X49.2829 Y52.3764 
G01 X49.1287 Y52.3125 
G01 X48.9900 Y52.2198 
G01 X48.8721 Y52.1019 
G01 X48.7794 Y51.9632 
G01 X48.7155 Y51.8090 
G01 X48.6830 Y51.6454 
G00 Z2.0000 
G00 X88.3638 Y50.2753 
G01 Z-0.1000 F254.00 
G01 X86.8961 Y50.2753 
G01 X86.7521 Y50.2467 
G01 X86.6165 Y50.1905 
G01 X86.4944 Y50.1089 
G01 X86.3906 Y50.0051 
G01 X86.3090 Y49.8830 
G01 X86.2528 Y49.7474 
G01 X86.2242 Y49.6034 
G01 X86.2242 Y49.4565 
G01 X86.2528 Y49.3125 
G01 X86.3090 Y49.1769 
G01 X86.3906 Y49.0548 
G01 X86.4944 Y48.9510 
G01 X86.6165 Y48.8694 
G01 X86.7521 Y48.8132 
G01 X86.8961 Y48.7846 
G01 X88.3638 Y48.7846 
G01 X88.5078 Y48.8132 
G01 X88.6434 Y48.8694 
G01 X88.7655 Y48.9510 
G01 X88.8693 Y49.0548 
G01 X88.9509 Y49.1769 
G01 X89.0071 Y49.3125 
G01 X89.0357 Y49.4565 
G01 X89.0357 Y49.6034 
G01 X89.0071 Y49.7474 
G01 X88.9509 Y49.8830 
G01 X88.8693 Y50.0051 
G01 X88.7655 Y50.1089 
G01 X88.6434 Y50.1905 
G01 X88.5078 Y50.2467 
G01 X88.3638 Y50.2753 
G00 Z2.0000 
G00 X88.3638 Y47.7353 
G01 Z-0.1000 F254.00 
G01 X86.8961 Y47.7353 
G01 X86.7521 Y47.7067 
G01 X86.6165 Y47.6505 
G01 X86.4944 Y47.5689 
G01 X86.3906 Y47.4651 
G01 X86.3090 Y47.3430 
G01 X86.2528 Y47.2074 
G01 X86.2242 Y47.0634 
G01 X86.2242 Y46.9165 
G01 X86.2528 Y46.7725 
G01 X86.3090 Y46.6369 
G01 X86.3906 Y46.5148 
G01 X86.4944 Y46.4110 
G01 X86.6165 Y46.3294 
G01 X86.7521 Y46.2732 
G01 X86.8961 Y46.2446 
G01 X88.3638 Y46.2446 
G01 X88.5078 Y46.2732 
G01 X88.6434 Y46.3294 
G01 X88.7655 Y46.4110 
G01 X88.8693 Y46.5148 
G01 X88.9509 Y46.6369 
G01 X89.0071 Y46.7725 
G01 X89.0357 Y46.9165 
G01 X89.0357 Y47.0634 
G01 X89.0071 Y47.2074 
G01 X88.9509 Y47.3430 
G01 X88.8693 Y47.4651 
G01 X88.7655 Y47.5689 
G01 X88.6434 Y47.6505 
G01 X88.5078 Y47.7067 
G01 X88.3638 Y47.7353 
G00 Z2.0000 
G00 X88.3638 Y45.1953 
G01 Z-0.1000 F254.00 
G01 X86.8961 Y45.1953 
G01 X86.7521 Y45.1667 
G01 X86.6165 Y45.1105 
G01 X86.4944 Y45.0289 
G01 X86.3906 Y44.9251 
G01 X86.3090 Y44.8030 
G01 X86.2528 Y44.6674 
G01 X86.2242 Y44.5234 
G01 X86.2242 Y44.3765 
G01 X86.2528 Y44.2325 
G01 X86.3090 Y44.0969 
G01 X86.3906 Y43.9748 
G01 X86.4944 Y43.8710 
G01 X86.6165 Y43.7894 
G01 X86.7521 Y43.7332 
G01 X86.8961 Y43.7046 
G01 X88.3638 Y43.7046 
G01 X88.5078 Y43.7332 
G01 X88.6434 Y43.7894 
G01 X88.7655 Y43.8710 
G01 X88.8693 Y43.9748 
G01 X88.9509 Y44.0969 
G01 X89.0071 Y44.2325 
G01 X89.0357 Y44.3765 
G01 X89.0357 Y44.5234 
G01 X89.0071 Y44.6674 
G01 X88.9509 Y44.8030 
G01 X88.8693 Y44.9251 
G01 X88.7655 Y45.0289 
G01 X88.6434 Y45.1105 
G01 X88.5078 Y45.1667 
G01 X88.3638 Y45.1953 
G00 Z2.0000 
G00 X88.3638 Y42.6553 
G01 Z-0.1000 F254.00 
G01 X86.8961 Y42.6553 
G01 X86.7521 Y42.6267 
G01 X86.6165 Y42.5705 
G01 X86.4944 Y42.4889 
G01 X86.3906 Y42.3851 
G01 X86.3090 Y42.2630 
G01 X86.2528 Y42.1274 
G01 X86.2242 Y41.9834 
G01 X86.2242 Y41.8365 
G01 X86.2528 Y41.6925 
G01 X86.3090 Y41.5569 
G01 X86.3906 Y41.4348 
G01 X86.4944 Y41.3310 
G01 X86.6165 Y41.2494 
G01 X86.7521 Y41.1932 
G01 X86.8961 Y41.1646 
G01 X88.3638 Y41.1646 
G01 X88.5078 Y41.1932 
G01 X88.6434 Y41.2494 
G01 X88.7655 Y41.3310 
G01 X88.8693 Y41.4348 
G01 X88.9509 Y41.5569 
G01 X89.0071 Y41.6925 
G01 X89.0357 Y41.8365 
G01 X89.0357 Y41.9834 
G01 X89.0071 Y42.1274 
G01 X88.9509 Y42.2630 
G01 X88.8693 Y42.3851 
G01 X88.7655 Y42.4889 
G01 X88.6434 Y42.5705 
G01 X88.5078 Y42.6267 
G01 X88.3638 Y42.6553 
G00 Z2.0000 
G00 X88.3638 Y40.1153 
G01 Z-0.1000 F254.00 
G01 X86.8961 Y40.1153 
G01 X86.7521 Y40.0867 
G01 X86.6165 Y40.0305 
G01 X86.4944 Y39.9489 
G01 X86.3906 Y39.8451 
G01 X86.3090 Y39.7230 
G01 X86.2528 Y39.5874 
G01 X86.2242 Y39.4434 
G01 X86.2242 Y39.2965 
G01 X86.2528 Y39.1525 
G01 X86.3090 Y39.0169 
G01 X86.3906 Y38.8948 
G01 X86.4944 Y38.7910 
G01 X86.6165 Y38.7094 
G01 X86.7521 Y38.6532 
G01 X86.8961 Y38.6246 
G01 X88.3638 Y38.6246 
G01 X88.5078 Y38.6532 
G01 X88.6434 Y38.7094 
G01 X88.7655 Y38.7910 
G01 X88.8693 Y38.8948 
G01 X88.9509 Y39.0169 
G01 X89.0071 Y39.1525 
G01 X89.0357 Y39.2965 
G01 X89.0357 Y39.4434 
G01 X89.0071 Y39.5874 
G01 X88.9509 Y39.7230 
G01 X88.8693 Y39.8451 
G01 X88.7655 Y39.9489 
G01 X88.6434 Y40.0305 
G01 X88.5078 Y40.0867 
G01 X88.3638 Y40.1153 
G00 Z2.0000 
G00 X88.3638 Y37.5753 
G01 Z-0.1000 F254.00 
G01 X86.8961 Y37.5753 
G01 X86.7521 Y37.5467 
G01 X86.6165 Y37.4905 
G01 X86.4944 Y37.4089 
G01 X86.3906 Y37.3051 
G01 X86.3090 Y37.1830 
G01 X86.2528 Y37.0474 
G01 X86.2242 Y36.9034 
G01 X86.2242 Y36.7565 
G01 X86.2528 Y36.6125 
G01 X86.3090 Y36.4769 
G01 X86.3906 Y36.3548 
G01 X86.4944 Y36.2510 
G01 X86.6165 Y36.1694 
G01 X86.7521 Y36.1132 
G01 X86.8961 Y36.0846 
G01 X88.3638 Y36.0846 
G01 X88.5078 Y36.1132 
G01 X88.6434 Y36.1694 
G01 X88.7655 Y36.2510 
G01 X88.8693 Y36.3548 
G01 X88.9509 Y36.4769 
G01 X89.0071 Y36.6125 
G01 X89.0357 Y36.7565 
G01 X89.0357 Y36.9034 
G01 X89.0071 Y37.0474 
G01 X88.9509 Y37.1830 
G01 X88.8693 Y37.3051 
G01 X88.7655 Y37.4089 
G01 X88.6434 Y37.4905 
G01 X88.5078 Y37.5467 
G01 X88.3638 Y37.5753 
G00 Z2.0000 
G00 X88.3638 Y35.0353 
G01 Z-0.1000 F254.00 
G01 X86.8961 Y35.0353 
G01 X86.7521 Y35.0067 
G01 X86.6165 Y34.9505 
G01 X86.4944 Y34.8689 
G01 X86.3906 Y34.7651 
G01 X86.3090 Y34.6430 
G01 X86.2528 Y34.5074 
G01 X86.2242 Y34.3634 
G01 X86.2242 Y34.2165 
G01 X86.2528 Y34.0725 
G01 X86.3090 Y33.9369 
G01 X86.3906 Y33.8148 
G01 X86.4944 Y33.7110 
G01 X86.6165 Y33.6294 
G01 X86.7521 Y33.5732 
G01 X86.8961 Y33.5446 
G01 X88.3638 Y33.5446 
G01 X88.5078 Y33.5732 
G01 X88.6434 Y33.6294 
G01 X88.7655 Y33.7110 
G01 X88.8693 Y33.8148 
G01 X88.9509 Y33.9369 
G01 X89.0071 Y34.0725 
G01 X89.0357 Y34.2165 
G01 X89.0357 Y34.3634 
G01 X89.0071 Y34.5074 
G01 X88.9509 Y34.6430 
G01 X88.8693 Y34.7651 
G01 X88.7655 Y34.8689 
G01 X88.6434 Y34.9505 
G01 X88.5078 Y35.0067 
G01 X88.3638 Y35.0353 
G00 Z2.0000 
G00 X88.3638 Y32.4953 
G01 Z-0.1000 F254.00 
G01 X86.8961 Y32.4953 
G01 X86.7521 Y32.4667 
G01 X86.6165 Y32.4105 
G01 X86.4944 Y32.3289 
G01 X86.3906 Y32.2251 
G01 X86.3090 Y32.1030 
G01 X86.2528 Y31.9674 
G01 X86.2242 Y31.8234 
G01 X86.2242 Y31.6765 
G01 X86.2528 Y31.5325 
G01 X86.3090 Y31.3969 
G01 X86.3906 Y31.2748 
G01 X86.4944 Y31.1710 
G01 X86.6165 Y31.0894 
G01 X86.7521 Y31.0332 
G01 X86.8961 Y31.0046 
G01 X88.3638 Y31.0046 
G01 X88.5078 Y31.0332 
G01 X88.6434 Y31.0894 
G01 X88.7655 Y31.1710 
G01 X88.8693 Y31.2748 
G01 X88.9509 Y31.3969 
G01 X89.0071 Y31.5325 
G01 X89.0357 Y31.6765 
G01 X89.0357 Y31.8234 
G01 X89.0071 Y31.9674 
G01 X88.9509 Y32.1030 
G01 X88.8693 Y32.2251 
G01 X88.7655 Y32.3289 
G01 X88.6434 Y32.4105 
G01 X88.5078 Y32.4667 
G01 X88.3638 Y32.4953 
G00 Z2.0000 
G00 X88.3638 Y29.9553 
G01 Z-0.1000 F254.00 
G01 X86.8961 Y29.9553 
G01 X86.7521 Y29.9267 
G01 X86.6165 Y29.8705 
G01 X86.4944 Y29.7889 
G01 X86.3906 Y29.6851 
G01 X86.3090 Y29.5630 
G01 X86.2528 Y29.4274 
G01 X86.2242 Y29.2834 
G01 X86.2242 Y29.1365 
G01 X86.2528 Y28.9925 
G01 X86.3090 Y28.8569 
G01 X86.3906 Y28.7348 
G01 X86.4944 Y28.6310 
G01 X86.6165 Y28.5494 
G01 X86.7521 Y28.4932 
G01 X86.8961 Y28.4646 
G01 X88.3638 Y28.4646 
G01 X88.5078 Y28.4932 
G01 X88.6434 Y28.5494 
G01 X88.7655 Y28.6310 
G01 X88.8693 Y28.7348 
G01 X88.9509 Y28.8569 
G01 X89.0071 Y28.9925 
G01 X89.0357 Y29.1365 
G01 X89.0357 Y29.2834 
G01 X89.0071 Y29.4274 
G01 X88.9509 Y29.5630 
G01 X88.8693 Y29.6851 
G01 X88.7655 Y29.7889 
G01 X88.6434 Y29.8705 
G01 X88.5078 Y29.9267 
G01 X88.3638 Y29.9553 
G00 Z2.0000 
G00 X80.7438 Y29.9553 
G01 Z-0.1000 F254.00 
G01 X79.2761 Y29.9553 
G01 X79.1321 Y29.9267 
G01 X78.9965 Y29.8705 
G01 X78.8744 Y29.7889 
G01 X78.7706 Y29.6851 
G01 X78.6890 Y29.5630 
G01 X78.6328 Y29.4274 
G01 X78.6042 Y29.2834 
G01 X78.6042 Y29.1365 
G01 X78.6328 Y28.9925 
G01 X78.6890 Y28.8569 
G01 X78.7706 Y28.7348 
G01 X78.8744 Y28.6310 
G01 X78.9965 Y28.5494 
G01 X79.1321 Y28.4932 
G01 X79.2761 Y28.4646 
G01 X80.7438 Y28.4646 
G01 X80.8878 Y28.4932 
G01 X81.0234 Y28.5494 
G01 X81.1455 Y28.6310 
G01 X81.2493 Y28.7348 
G01 X81.3309 Y28.8569 
G01 X81.3871 Y28.9925 
G01 X81.4157 Y29.1365 
G01 X81.4157 Y29.2834 
G01 X81.3871 Y29.4274 
G01 X81.3309 Y29.5630 
G01 X81.2493 Y29.6851 
G01 X81.1455 Y29.7889 
G01 X81.0234 Y29.8705 
G01 X80.8878 Y29.9267 
G01 X80.7438 Y29.9553 
G00 Z2.0000 
G00 X80.7438 Y40.1153 
G01 Z-0.1000 F254.00 
G01 X79.2761 Y40.1153 
G01 X79.1321 Y40.0867 
G01 X78.9965 Y40.0305 
G01 X78.8744 Y39.9489 
G01 X78.7706 Y39.8451 
G01 X78.6890 Y39.7230 
G01 X78.6328 Y39.5874 
G01 X78.6042 Y39.4434 
G01 X78.6042 Y39.2965 
G01 X78.6328 Y39.1525 
G01 X78.6890 Y39.0169 
G01 X78.7706 Y38.8948 
G01 X78.8744 Y38.7910 
G01 X78.9965 Y38.7094 
G01 X79.1321 Y38.6532 
G01 X79.2761 Y38.6246 
G01 X80.7438 Y38.6246 
G01 X80.8878 Y38.6532 
G01 X81.0234 Y38.7094 
G01 X81.1455 Y38.7910 
G01 X81.2493 Y38.8948 
G01 X81.3309 Y39.0169 
G01 X81.3871 Y39.1525 
G01 X81.4157 Y39.2965 
G01 X81.4157 Y39.4434 
G01 X81.3871 Y39.5874 
G01 X81.3309 Y39.7230 
G01 X81.2493 Y39.8451 
G01 X81.1455 Y39.9489 
G01 X81.0234 Y40.0305 
G01 X80.8878 Y40.0867 
G01 X80.7438 Y40.1153 
G00 Z2.0000 
G00 X80.7438 Y37.5753 
G01 Z-0.1000 F254.00 
G01 X79.2761 Y37.5753 
G01 X79.1321 Y37.5467 
G01 X78.9965 Y37.4905 
G01 X78.8744 Y37.4089 
G01 X78.7706 Y37.3051 
G01 X78.6890 Y37.1830 
G01 X78.6328 Y37.0474 
G01 X78.6042 Y36.9034 
G01 X78.6042 Y36.7565 
G01 X78.6328 Y36.6125 
G01 X78.6890 Y36.4769 
G01 X78.7706 Y36.3548 
G01 X78.8744 Y36.2510 
G01 X78.9965 Y36.1694 
G01 X79.1321 Y36.1132 
G01 X79.2761 Y36.0846 
G01 X80.7438 Y36.0846 
G01 X80.8878 Y36.1132 
G01 X81.0234 Y36.1694 
G01 X81.1455 Y36.2510 
G01 X81.2493 Y36.3548 
G01 X81.3309 Y36.4769 
G01 X81.3871 Y36.6125 
G01 X81.4157 Y36.7565 
G01 X81.4157 Y36.9034 
G01 X81.3871 Y37.0474 
G01 X81.3309 Y37.1830 
G01 X81.2493 Y37.3051 
G01 X81.1455 Y37.4089 
G01 X81.0234 Y37.4905 
G01 X80.8878 Y37.5467 
G01 X80.7438 Y37.5753 
G00 Z2.0000 
G00 X80.7438 Y42.6553 
G01 Z-0.1000 F254.00 
G01 X79.2761 Y42.6553 
G01 X79.1321 Y42.6267 
G01 X78.9965 Y42.5705 
G01 X78.8744 Y42.4889 
G01 X78.7706 Y42.3851 
G01 X78.6890 Y42.2630 
G01 X78.6328 Y42.1274 
G01 X78.6042 Y41.9834 
G01 X78.6042 Y41.8365 
G01 X78.6328 Y41.6925 
G01 X78.6890 Y41.5569 
G01 X78.7706 Y41.4348 
G01 X78.8744 Y41.3310 
G01 X78.9965 Y41.2494 
G01 X79.1321 Y41.1932 
G01 X79.2761 Y41.1646 
G01 X80.7438 Y41.1646 
G01 X80.8878 Y41.1932 
G01 X81.0234 Y41.2494 
G01 X81.1455 Y41.3310 
G01 X81.2493 Y41.4348 
G01 X81.3309 Y41.5569 
G01 X81.3871 Y41.6925 
G01 X81.4157 Y41.8365 
G01 X81.4157 Y41.9834 
G01 X81.3871 Y42.1274 
G01 X81.3309 Y42.2630 
G01 X81.2493 Y42.3851 
G01 X81.1455 Y42.4889 
G01 X81.0234 Y42.5705 
G01 X80.8878 Y42.6267 
G01 X80.7438 Y42.6553 
G00 Z2.0000 
G00 X80.7438 Y45.1953 
G01 Z-0.1000 F254.00 
G01 X79.2761 Y45.1953 
G01 X79.1321 Y45.1667 
G01 X78.9965 Y45.1105 
G01 X78.8744 Y45.0289 
G01 X78.7706 Y44.9251 
G01 X78.6890 Y44.8030 
G01 X78.6328 Y44.6674 
G01 X78.6042 Y44.5234 
G01 X78.6042 Y44.3765 
G01 X78.6328 Y44.2325 
G01 X78.6890 Y44.0969 
G01 X78.7706 Y43.9748 
G01 X78.8744 Y43.8710 
G01 X78.9965 Y43.7894 
G01 X79.1321 Y43.7332 
G01 X79.2761 Y43.7046 
G01 X80.7438 Y43.7046 
G01 X80.8878 Y43.7332 
G01 X81.0234 Y43.7894 
G01 X81.1455 Y43.8710 
G01 X81.2493 Y43.9748 
G01 X81.3309 Y44.0969 
G01 X81.3871 Y44.2325 
G01 X81.4157 Y44.3765 
G01 X81.4157 Y44.5234 
G01 X81.3871 Y44.6674 
G01 X81.3309 Y44.8030 
G01 X81.2493 Y44.9251 
G01 X81.1455 Y45.0289 
G01 X81.0234 Y45.1105 
G01 X80.8878 Y45.1667 
G01 X80.7438 Y45.1953 
G00 Z2.0000 
G00 X80.7438 Y32.4953 
G01 Z-0.1000 F254.00 
G01 X79.2761 Y32.4953 
G01 X79.1321 Y32.4667 
G01 X78.9965 Y32.4105 
G01 X78.8744 Y32.3289 
G01 X78.7706 Y32.2251 
G01 X78.6890 Y32.1030 
G01 X78.6328 Y31.9674 
G01 X78.6042 Y31.8234 
G01 X78.6042 Y31.6765 
G01 X78.6328 Y31.5325 
G01 X78.6890 Y31.3969 
G01 X78.7706 Y31.2748 
G01 X78.8744 Y31.1710 
G01 X78.9965 Y31.0894 
G01 X79.1321 Y31.0332 
G01 X79.2761 Y31.0046 
G01 X80.7438 Y31.0046 
G01 X80.8878 Y31.0332 
G01 X81.0234 Y31.0894 
G01 X81.1455 Y31.1710 
G01 X81.2493 Y31.2748 
G01 X81.3309 Y31.3969 
G01 X81.3871 Y31.5325 
G01 X81.4157 Y31.6765 
G01 X81.4157 Y31.8234 
G01 X81.3871 Y31.9674 
G01 X81.3309 Y32.1030 
G01 X81.2493 Y32.2251 
G01 X81.1455 Y32.3289 
G01 X81.0234 Y32.4105 
G01 X80.8878 Y32.4667 
G01 X80.7438 Y32.4953 
G00 Z2.0000 
G00 X80.7438 Y35.0353 
G01 Z-0.1000 F254.00 
G01 X79.2761 Y35.0353 
G01 X79.1321 Y35.0067 
G01 X78.9965 Y34.9505 
G01 X78.8744 Y34.8689 
G01 X78.7706 Y34.7651 
G01 X78.6890 Y34.6430 
G01 X78.6328 Y34.5074 
G01 X78.6042 Y34.3634 
G01 X78.6042 Y34.2165 
G01 X78.6328 Y34.0725 
G01 X78.6890 Y33.9369 
G01 X78.7706 Y33.8148 
G01 X78.8744 Y33.7110 
G01 X78.9965 Y33.6294 
G01 X79.1321 Y33.5732 
G01 X79.2761 Y33.5446 
G01 X80.7438 Y33.5446 
G01 X80.8878 Y33.5732 
G01 X81.0234 Y33.6294 
G01 X81.1455 Y33.7110 
G01 X81.2493 Y33.8148 
G01 X81.3309 Y33.9369 
G01 X81.3871 Y34.0725 
G01 X81.4157 Y34.2165 
G01 X81.4157 Y34.3634 
G01 X81.3871 Y34.5074 
G01 X81.3309 Y34.6430 
G01 X81.2493 Y34.7651 
G01 X81.1455 Y34.8689 
G01 X81.0234 Y34.9505 
G01 X80.8878 Y35.0067 
G01 X80.7438 Y35.0353 
G00 Z2.0000 
G00 X80.7438 Y47.7353 
G01 Z-0.1000 F254.00 
G01 X79.2761 Y47.7353 
G01 X79.1321 Y47.7067 
G01 X78.9965 Y47.6505 
G01 X78.8744 Y47.5689 
G01 X78.7706 Y47.4651 
G01 X78.6890 Y47.3430 
G01 X78.6328 Y47.2074 
G01 X78.6042 Y47.0634 
G01 X78.6042 Y46.9165 
G01 X78.6328 Y46.7725 
G01 X78.6890 Y46.6369 
G01 X78.7706 Y46.5148 
G01 X78.8744 Y46.4110 
G01 X78.9965 Y46.3294 
G01 X79.1321 Y46.2732 
G01 X79.2761 Y46.2446 
G01 X80.7438 Y46.2446 
G01 X80.8878 Y46.2732 
G01 X81.0234 Y46.3294 
G01 X81.1455 Y46.4110 
G01 X81.2493 Y46.5148 
G01 X81.3309 Y46.6369 
G01 X81.3871 Y46.7725 
G01 X81.4157 Y46.9165 
G01 X81.4157 Y47.0634 
G01 X81.3871 Y47.2074 
G01 X81.3309 Y47.3430 
G01 X81.2493 Y47.4651 
G01 X81.1455 Y47.5689 
G01 X81.0234 Y47.6505 
G01 X80.8878 Y47.7067 
G01 X80.7438 Y47.7353 
G00 Z2.0000 
G00 X80.7438 Y50.2753 
G01 Z-0.1000 F254.00 
G01 X79.2761 Y50.2753 
G01 X79.1321 Y50.2467 
G01 X78.9965 Y50.1905 
G01 X78.8744 Y50.1089 
G01 X78.7706 Y50.0051 
G01 X78.6890 Y49.8830 
G01 X78.6328 Y49.7474 
G01 X78.6042 Y49.6034 
G01 X78.6042 Y49.4565 
G01 X78.6328 Y49.3125 
G01 X78.6890 Y49.1769 
G01 X78.7706 Y49.0548 
G01 X78.8744 Y48.9510 
G01 X78.9965 Y48.8694 
G01 X79.1321 Y48.8132 
G01 X79.2761 Y48.7846 
G01 X80.7438 Y48.7846 
G01 X80.8878 Y48.8132 
G01 X81.0234 Y48.8694 
G01 X81.1455 Y48.9510 
G01 X81.2493 Y49.0548 
G01 X81.3309 Y49.1769 
G01 X81.3871 Y49.3125 
G01 X81.4157 Y49.4565 
G01 X81.4157 Y49.6034 
G01 X81.3871 Y49.7474 
G01 X81.3309 Y49.8830 
G01 X81.2493 Y50.0051 
G01 X81.1455 Y50.1089 
G01 X81.0234 Y50.1905 
G01 X80.8878 Y50.2467 
G01 X80.7438 Y50.2753 
G00 Z2.0000 
G00 X22.9449 Y24.8387 
G01 Z-0.1000 F254.00 
G01 X22.9449 Y25.9612 
G01 X22.1512 Y26.7549 
G01 X21.0287 Y26.7549 
G01 X20.2350 Y25.9612 
G01 X20.2350 Y24.8387 
G01 X21.0287 Y24.0450 
G01 X22.1512 Y24.0450 
G01 X22.9449 Y24.8387 
G00 Z2.0000 
G00 X22.9449 Y29.9187 
G01 Z-0.1000 F254.00 
G01 X22.9449 Y31.0412 
G01 X22.1512 Y31.8349 
G01 X21.0287 Y31.8349 
G01 X20.2350 Y31.0412 
G01 X20.2350 Y29.9187 
G01 X21.0287 Y29.1250 
G01 X22.1512 Y29.1250 
G01 X22.9449 Y29.9187 
G00 Z2.0000 
G00 X17.4949 Y23.8339 
G01 Z-0.1000 F254.00 
G01 X15.5250 Y23.8339 
G01 X15.3368 Y23.7965 
G01 X15.1596 Y23.7231 
G01 X15.0001 Y23.6165 
G01 X14.8644 Y23.4808 
G01 X14.7578 Y23.3213 
G01 X14.6844 Y23.1441 
G01 X14.6470 Y22.9559 
G01 X14.6470 Y22.7640 
G01 X14.6844 Y22.5758 
G01 X14.7578 Y22.3986 
G01 X14.8644 Y22.2391 
G01 X15.0001 Y22.1034 
G01 X15.1596 Y21.9968 
G01 X15.3368 Y21.9234 
G01 X15.5250 Y21.8860 
G01 X17.4949 Y21.8860 
G01 X17.6831 Y21.9234 
G01 X17.8603 Y21.9968 
G01 X18.0198 Y22.1034 
G01 X18.1555 Y22.2391 
G01 X18.2621 Y22.3986 
G01 X18.3355 Y22.5758 
G01 X18.3729 Y22.7640 
G01 X18.3729 Y22.9559 
G01 X18.3355 Y23.1441 
G01 X18.2621 Y23.3213 
G01 X18.1555 Y23.4808 
G01 X18.0198 Y23.6165 
G01 X17.8603 Y23.7231 
G01 X17.6831 Y23.7965 
G01 X17.4949 Y23.8339 
G00 Z2.0000 
G00 X17.4949 Y26.3739 
G01 Z-0.1000 F254.00 
G01 X15.5250 Y26.3739 
G01 X15.3368 Y26.3365 
G01 X15.1596 Y26.2631 
G01 X15.0001 Y26.1565 
G01 X14.8644 Y26.0208 
G01 X14.7578 Y25.8613 
G01 X14.6844 Y25.6841 
G01 X14.6470 Y25.4959 
G01 X14.6470 Y25.3040 
G01 X14.6844 Y25.1158 
G01 X14.7578 Y24.9386 
G01 X14.8644 Y24.7791 
G01 X15.0001 Y24.6434 
G01 X15.1596 Y24.5368 
G01 X15.3368 Y24.4634 
G01 X15.5250 Y24.4260 
G01 X17.4949 Y24.4260 
G01 X17.6831 Y24.4634 
G01 X17.8603 Y24.5368 
G01 X18.0198 Y24.6434 
G01 X18.1555 Y24.7791 
G01 X18.2621 Y24.9386 
G01 X18.3355 Y25.1158 
G01 X18.3729 Y25.3040 
G01 X18.3729 Y25.4959 
G01 X18.3355 Y25.6841 
G01 X18.2621 Y25.8613 
G01 X18.1555 Y26.0208 
G01 X18.0198 Y26.1565 
G01 X17.8603 Y26.2631 
G01 X17.6831 Y26.3365 
G01 X17.4949 Y26.3739 
G00 Z2.0000 
G00 X17.4949 Y28.9139 
G01 Z-0.1000 F254.00 
G01 X15.5250 Y28.9139 
G01 X15.3368 Y28.8765 
G01 X15.1596 Y28.8031 
G01 X15.0001 Y28.6965 
G01 X14.8644 Y28.5608 
G01 X14.7578 Y28.4013 
G01 X14.6844 Y28.2241 
G01 X14.6470 Y28.0359 
G01 X14.6470 Y27.8440 
G01 X14.6844 Y27.6558 
G01 X14.7578 Y27.4786 
G01 X14.8644 Y27.3191 
G01 X15.0001 Y27.1834 
G01 X15.1596 Y27.0768 
G01 X15.3368 Y27.0034 
G01 X15.5250 Y26.9660 
G01 X17.4949 Y26.9660 
G01 X17.6831 Y27.0034 
G01 X17.8603 Y27.0768 
G01 X18.0198 Y27.1834 
G01 X18.1555 Y27.3191 
G01 X18.2621 Y27.4786 
G01 X18.3355 Y27.6558 
G01 X18.3729 Y27.8440 
G01 X18.3729 Y28.0359 
G01 X18.3355 Y28.2241 
G01 X18.2621 Y28.4013 
G01 X18.1555 Y28.5608 
G01 X18.0198 Y28.6965 
G01 X17.8603 Y28.8031 
G01 X17.6831 Y28.8765 
G01 X17.4949 Y28.9139 
G00 Z2.0000 
G00 X17.4949 Y31.4539 
G01 Z-0.1000 F254.00 
G01 X15.5250 Y31.4539 
G01 X15.3368 Y31.4165 
G01 X15.1596 Y31.3431 
G01 X15.0001 Y31.2365 
G01 X14.8644 Y31.1008 
G01 X14.7578 Y30.9413 
G01 X14.6844 Y30.7641 
G01 X14.6470 Y30.5759 
G01 X14.6470 Y30.3840 
G01 X14.6844 Y30.1958 
G01 X14.7578 Y30.0186 
G01 X14.8644 Y29.8591 
G01 X15.0001 Y29.7234 
G01 X15.1596 Y29.6168 
G01 X15.3368 Y29.5434 
G01 X15.5250 Y29.5060 
G01 X17.4949 Y29.5060 
G01 X17.6831 Y29.5434 
G01 X17.8603 Y29.6168 
G01 X18.0198 Y29.7234 
G01 X18.1555 Y29.8591 
G01 X18.2621 Y30.0186 
G01 X18.3355 Y30.1958 
G01 X18.3729 Y30.3840 
G01 X18.3729 Y30.5759 
G01 X18.3355 Y30.7641 
G01 X18.2621 Y30.9413 
G01 X18.1555 Y31.1008 
G01 X18.0198 Y31.2365 
G01 X17.8603 Y31.3431 
G01 X17.6831 Y31.4165 
G01 X17.4949 Y31.4539 
G00 Z2.0000 
G00 X17.4949 Y33.9939 
G01 Z-0.1000 F254.00 
G01 X15.5250 Y33.9939 
G01 X15.3368 Y33.9565 
G01 X15.1596 Y33.8831 
G01 X15.0001 Y33.7765 
G01 X14.8644 Y33.6408 
G01 X14.7578 Y33.4813 
G01 X14.6844 Y33.3041 
G01 X14.6470 Y33.1159 
G01 X14.6470 Y32.9240 
G01 X14.6844 Y32.7358 
G01 X14.7578 Y32.5586 
G01 X14.8644 Y32.3991 
G01 X15.0001 Y32.2634 
G01 X15.1596 Y32.1568 
G01 X15.3368 Y32.0834 
G01 X15.5250 Y32.0460 
G01 X17.4949 Y32.0460 
G01 X17.6831 Y32.0834 
G01 X17.8603 Y32.1568 
G01 X18.0198 Y32.2634 
G01 X18.1555 Y32.3991 
G01 X18.2621 Y32.5586 
G01 X18.3355 Y32.7358 
G01 X18.3729 Y32.9240 
G01 X18.3729 Y33.1159 
G01 X18.3355 Y33.3041 
G01 X18.2621 Y33.4813 
G01 X18.1555 Y33.6408 
G01 X18.0198 Y33.7765 
G01 X17.8603 Y33.8831 
G01 X17.6831 Y33.9565 
G01 X17.4949 Y33.9939 
G00 Z2.0000 
G00 X17.4949 Y36.5339 
G01 Z-0.1000 F254.00 
G01 X15.5250 Y36.5339 
G01 X15.3368 Y36.4965 
G01 X15.1596 Y36.4231 
G01 X15.0001 Y36.3165 
G01 X14.8644 Y36.1808 
G01 X14.7578 Y36.0213 
G01 X14.6844 Y35.8441 
G01 X14.6470 Y35.6559 
G01 X14.6470 Y35.4640 
G01 X14.6844 Y35.2758 
G01 X14.7578 Y35.0986 
G01 X14.8644 Y34.9391 
G01 X15.0001 Y34.8034 
G01 X15.1596 Y34.6968 
G01 X15.3368 Y34.6234 
G01 X15.5250 Y34.5860 
G01 X17.4949 Y34.5860 
G01 X17.6831 Y34.6234 
G01 X17.8603 Y34.6968 
G01 X18.0198 Y34.8034 
G01 X18.1555 Y34.9391 
G01 X18.2621 Y35.0986 
G01 X18.3355 Y35.2758 
G01 X18.3729 Y35.4640 
G01 X18.3729 Y35.6559 
G01 X18.3355 Y35.8441 
G01 X18.2621 Y36.0213 
G01 X18.1555 Y36.1808 
G01 X18.0198 Y36.3165 
G01 X17.8603 Y36.4231 
G01 X17.6831 Y36.4965 
G01 X17.4949 Y36.5339 
G00 Z2.0000 
G00 X53.4249 Y9.5987 
G01 Z-0.1000 F254.00 
G01 X53.4249 Y10.7212 
G01 X52.6312 Y11.5149 
G01 X51.5087 Y11.5149 
G01 X50.7150 Y10.7212 
G01 X50.7150 Y9.5987 
G01 X51.5087 Y8.8050 
G01 X52.6312 Y8.8050 
G01 X53.4249 Y9.5987 
G00 Z2.0000 
G00 X45.8049 Y9.5987 
G01 Z-0.1000 F254.00 
G01 X45.8049 Y10.7212 
G01 X45.0112 Y11.5149 
G01 X43.8887 Y11.5149 
G01 X43.0950 Y10.7212 
G01 X43.0950 Y9.5987 
G01 X43.8887 Y8.8050 
G01 X45.0112 Y8.8050 
G01 X45.8049 Y9.5987 
G00 Z2.0000 
G00 X38.0071 Y10.9424 
G01 Z-0.1000 F254.00 
G01 X38.0071 Y11.9175 
G01 X37.3175 Y12.6071 
G01 X36.3424 Y12.6071 
G01 X35.6528 Y11.9175 
G01 X35.6528 Y10.9424 
G01 X36.3424 Y10.2528 
G01 X37.3175 Y10.2528 
G01 X38.0071 Y10.9424 
G00 Z2.0000 
G00 X40.5471 Y10.9424 
G01 Z-0.1000 F254.00 
G01 X40.5471 Y11.9175 
G01 X39.8575 Y12.6071 
G01 X38.8824 Y12.6071 
G01 X38.1928 Y11.9175 
G01 X38.1928 Y10.9424 
G01 X38.8824 Y10.2528 
G01 X39.8575 Y10.2528 
G01 X40.5471 Y10.9424 
G00 Z2.0000 
G00 X54.6949 Y26.1087 
G01 Z-0.1000 F254.00 
G01 X54.6949 Y27.2312 
G01 X53.9012 Y28.0249 
G01 X52.7787 Y28.0249 
G01 X51.9850 Y27.2312 
G01 X51.9850 Y26.1087 
G01 X52.7787 Y25.3150 
G01 X53.9012 Y25.3150 
G01 X54.6949 Y26.1087 
G00 Z2.0000 
G00 X54.6949 Y31.1887 
G01 Z-0.1000 F254.00 
G01 X54.6949 Y32.3112 
G01 X53.9012 Y33.1049 
G01 X52.7787 Y33.1049 
G01 X51.9850 Y32.3112 
G01 X51.9850 Y31.1887 
G01 X52.7787 Y30.3950 
G01 X53.9012 Y30.3950 
G01 X54.6949 Y31.1887 
G00 Z2.0000 
G00 X41.9949 Y19.7587 
G01 Z-0.1000 F254.00 
G01 X41.9949 Y20.8812 
G01 X41.2012 Y21.6749 
G01 X40.0787 Y21.6749 
G01 X39.2850 Y20.8812 
G01 X39.2850 Y19.7587 
G01 X40.0787 Y18.9650 
G01 X41.2012 Y18.9650 
G01 X41.9949 Y19.7587 
G00 Z2.0000 
G00 X47.0749 Y19.7587 
G01 Z-0.1000 F254.00 
G01 X47.0749 Y20.8812 
G01 X46.2812 Y21.6749 
G01 X45.1587 Y21.6749 
G01 X44.3650 Y20.8812 
G01 X44.3650 Y19.7587 
G01 X45.1587 Y18.9650 
G01 X46.2812 Y18.9650 
G01 X47.0749 Y19.7587 
G00 Z2.0000 
G00 X41.9949 Y15.9487 
G01 Z-0.1000 F254.00 
G01 X41.9949 Y17.0712 
G01 X41.2012 Y17.8649 
G01 X40.0787 Y17.8649 
G01 X39.2850 Y17.0712 
G01 X39.2850 Y15.9487 
G01 X40.0787 Y15.1550 
G01 X41.2012 Y15.1550 
G01 X41.9949 Y15.9487 
G00 Z2.0000 
G00 X47.0749 Y15.9487 
G01 Z-0.1000 F254.00 
G01 X47.0749 Y17.0712 
G01 X46.2812 Y17.8649 
G01 X45.1587 Y17.8649 
G01 X44.3650 Y17.0712 
G01 X44.3650 Y15.9487 
G01 X45.1587 Y15.1550 
G01 X46.2812 Y15.1550 
G01 X47.0749 Y15.9487 
G00 Z2.0000 
G00 X52.1549 Y19.7587 
G01 Z-0.1000 F254.00 
G01 X52.1549 Y20.8812 
G01 X51.3612 Y21.6749 
G01 X50.2387 Y21.6749 
G01 X49.4450 Y20.8812 
G01 X49.4450 Y19.7587 
G01 X50.2387 Y18.9650 
G01 X51.3612 Y18.9650 
G01 X52.1549 Y19.7587 
G00 Z2.0000 
G00 X52.1549 Y14.6787 
G01 Z-0.1000 F254.00 
G01 X52.1549 Y15.8012 
G01 X51.3612 Y16.5949 
G01 X50.2387 Y16.5949 
G01 X49.4450 Y15.8012 
G01 X49.4450 Y14.6787 
G01 X50.2387 Y13.8850 
G01 X51.3612 Y13.8850 
G01 X52.1549 Y14.6787 
G00 Z2.0000 
G00 X65.6991 Y45.3731 
G01 Z-0.1000 F254.00 
G01 X63.8408 Y45.3731 
G01 X63.6624 Y45.3376 
G01 X63.4944 Y45.2680 
G01 X63.3433 Y45.1670 
G01 X63.2147 Y45.0384 
G01 X63.1137 Y44.8873 
G01 X63.0441 Y44.7193 
G01 X63.0086 Y44.5409 
G01 X63.0086 Y44.3590 
G01 X63.0441 Y44.1806 
G01 X63.1137 Y44.0126 
G01 X63.2147 Y43.8615 
G01 X63.3433 Y43.7329 
G01 X63.4944 Y43.6319 
G01 X63.6624 Y43.5623 
G01 X63.8408 Y43.5268 
G01 X65.6991 Y43.5268 
G01 X65.8775 Y43.5623 
G01 X66.0455 Y43.6319 
G01 X66.1966 Y43.7329 
G01 X66.3252 Y43.8615 
G01 X66.4262 Y44.0126 
G01 X66.4958 Y44.1806 
G01 X66.5313 Y44.3590 
G01 X66.5313 Y44.5409 
G01 X66.4958 Y44.7193 
G01 X66.4262 Y44.8873 
G01 X66.3252 Y45.0384 
G01 X66.1966 Y45.1670 
G01 X66.0455 Y45.2680 
G01 X65.8775 Y45.3376 
G01 X65.6991 Y45.3731 
G00 Z2.0000 
G00 X65.6991 Y42.8331 
G01 Z-0.1000 F254.00 
G01 X63.8408 Y42.8331 
G01 X63.6624 Y42.7976 
G01 X63.4944 Y42.7280 
G01 X63.3433 Y42.6270 
G01 X63.2147 Y42.4984 
G01 X63.1137 Y42.3473 
G01 X63.0441 Y42.1793 
G01 X63.0086 Y42.0009 
G01 X63.0086 Y41.8190 
G01 X63.0441 Y41.6406 
G01 X63.1137 Y41.4726 
G01 X63.2147 Y41.3215 
G01 X63.3433 Y41.1929 
G01 X63.4944 Y41.0919 
G01 X63.6624 Y41.0223 
G01 X63.8408 Y40.9868 
G01 X65.6991 Y40.9868 
G01 X65.8775 Y41.0223 
G01 X66.0455 Y41.0919 
G01 X66.1966 Y41.1929 
G01 X66.3252 Y41.3215 
G01 X66.4262 Y41.4726 
G01 X66.4958 Y41.6406 
G01 X66.5313 Y41.8190 
G01 X66.5313 Y42.0009 
G01 X66.4958 Y42.1793 
G01 X66.4262 Y42.3473 
G01 X66.3252 Y42.4984 
G01 X66.1966 Y42.6270 
G01 X66.0455 Y42.7280 
G01 X65.8775 Y42.7976 
G01 X65.6991 Y42.8331 
G00 Z2.0000 
G00 X65.6991 Y40.2931 
G01 Z-0.1000 F254.00 
G01 X63.8408 Y40.2931 
G01 X63.6624 Y40.2576 
G01 X63.4944 Y40.1880 
G01 X63.3433 Y40.0870 
G01 X63.2147 Y39.9584 
G01 X63.1137 Y39.8073 
G01 X63.0441 Y39.6393 
G01 X63.0086 Y39.4609 
G01 X63.0086 Y39.2790 
G01 X63.0441 Y39.1006 
G01 X63.1137 Y38.9326 
G01 X63.2147 Y38.7815 
G01 X63.3433 Y38.6529 
G01 X63.4944 Y38.5519 
G01 X63.6624 Y38.4823 
G01 X63.8408 Y38.4468 
G01 X65.6991 Y38.4468 
G01 X65.8775 Y38.4823 
G01 X66.0455 Y38.5519 
G01 X66.1966 Y38.6529 
G01 X66.3252 Y38.7815 
G01 X66.4262 Y38.9326 
G01 X66.4958 Y39.1006 
G01 X66.5313 Y39.2790 
G01 X66.5313 Y39.4609 
G01 X66.4958 Y39.6393 
G01 X66.4262 Y39.8073 
G01 X66.3252 Y39.9584 
G01 X66.1966 Y40.0870 
G01 X66.0455 Y40.1880 
G01 X65.8775 Y40.2576 
G01 X65.6991 Y40.2931 
G00 Z2.0000 
G00 X65.6991 Y37.7531 
G01 Z-0.1000 F254.00 
G01 X63.8408 Y37.7531 
G01 X63.6624 Y37.7176 
G01 X63.4944 Y37.6480 
G01 X63.3433 Y37.5470 
G01 X63.2147 Y37.4184 
G01 X63.1137 Y37.2673 
G01 X63.0441 Y37.0993 
G01 X63.0086 Y36.9209 
G01 X63.0086 Y36.7390 
G01 X63.0441 Y36.5606 
G01 X63.1137 Y36.3926 
G01 X63.2147 Y36.2415 
G01 X63.3433 Y36.1129 
G01 X63.4944 Y36.0119 
G01 X63.6624 Y35.9423 
G01 X63.8408 Y35.9068 
G01 X65.6991 Y35.9068 
G01 X65.8775 Y35.9423 
G01 X66.0455 Y36.0119 
G01 X66.1966 Y36.1129 
G01 X66.3252 Y36.2415 
G01 X66.4262 Y36.3926 
G01 X66.4958 Y36.5606 
G01 X66.5313 Y36.7390 
G01 X66.5313 Y36.9209 
G01 X66.4958 Y37.0993 
G01 X66.4262 Y37.2673 
G01 X66.3252 Y37.4184 
G01 X66.1966 Y37.5470 
G01 X66.0455 Y37.6480 
G01 X65.8775 Y37.7176 
G01 X65.6991 Y37.7531 
G00 Z2.0000 
G00 X65.6991 Y35.2131 
G01 Z-0.1000 F254.00 
G01 X63.8408 Y35.2131 
G01 X63.6624 Y35.1776 
G01 X63.4944 Y35.1080 
G01 X63.3433 Y35.0070 
G01 X63.2147 Y34.8784 
G01 X63.1137 Y34.7273 
G01 X63.0441 Y34.5593 
G01 X63.0086 Y34.3809 
G01 X63.0086 Y34.1990 
G01 X63.0441 Y34.0206 
G01 X63.1137 Y33.8526 
G01 X63.2147 Y33.7015 
G01 X63.3433 Y33.5729 
G01 X63.4944 Y33.4719 
G01 X63.6624 Y33.4023 
G01 X63.8408 Y33.3668 
G01 X65.6991 Y33.3668 
G01 X65.8775 Y33.4023 
G01 X66.0455 Y33.4719 
G01 X66.1966 Y33.5729 
G01 X66.3252 Y33.7015 
G01 X66.4262 Y33.8526 
G01 X66.4958 Y34.0206 
G01 X66.5313 Y34.1990 
G01 X66.5313 Y34.3809 
G01 X66.4958 Y34.5593 
G01 X66.4262 Y34.7273 
G01 X66.3252 Y34.8784 
G01 X66.1966 Y35.0070 
G01 X66.0455 Y35.1080 
G01 X65.8775 Y35.1776 
G01 X65.6991 Y35.2131 
G00 Z2.0000 
G00 X65.6991 Y32.6731 
G01 Z-0.1000 F254.00 
G01 X63.8408 Y32.6731 
G01 X63.6624 Y32.6376 
G01 X63.4944 Y32.5680 
G01 X63.3433 Y32.4670 
G01 X63.2147 Y32.3384 
G01 X63.1137 Y32.1873 
G01 X63.0441 Y32.0193 
G01 X63.0086 Y31.8409 
G01 X63.0086 Y31.6590 
G01 X63.0441 Y31.4806 
G01 X63.1137 Y31.3126 
G01 X63.2147 Y31.1615 
G01 X63.3433 Y31.0329 
G01 X63.4944 Y30.9319 
G01 X63.6624 Y30.8623 
G01 X63.8408 Y30.8268 
G01 X65.6991 Y30.8268 
G01 X65.8775 Y30.8623 
G01 X66.0455 Y30.9319 
G01 X66.1966 Y31.0329 
G01 X66.3252 Y31.1615 
G01 X66.4262 Y31.3126 
G01 X66.4958 Y31.4806 
G01 X66.5313 Y31.6590 
G01 X66.5313 Y31.8409 
G01 X66.4958 Y32.0193 
G01 X66.4262 Y32.1873 
G01 X66.3252 Y32.3384 
G01 X66.1966 Y32.4670 
G01 X66.0455 Y32.5680 
G01 X65.8775 Y32.6376 
G01 X65.6991 Y32.6731 
G00 Z2.0000 
G00 X65.6991 Y30.1331 
G01 Z-0.1000 F254.00 
G01 X63.8408 Y30.1331 
G01 X63.6624 Y30.0976 
G01 X63.4944 Y30.0280 
G01 X63.3433 Y29.9270 
G01 X63.2147 Y29.7984 
G01 X63.1137 Y29.6473 
G01 X63.0441 Y29.4793 
G01 X63.0086 Y29.3009 
G01 X63.0086 Y29.1190 
G01 X63.0441 Y28.9406 
G01 X63.1137 Y28.7726 
G01 X63.2147 Y28.6215 
G01 X63.3433 Y28.4929 
G01 X63.4944 Y28.3919 
G01 X63.6624 Y28.3223 
G01 X63.8408 Y28.2868 
G01 X65.6991 Y28.2868 
G01 X65.8775 Y28.3223 
G01 X66.0455 Y28.3919 
G01 X66.1966 Y28.4929 
G01 X66.3252 Y28.6215 
G01 X66.4262 Y28.7726 
G01 X66.4958 Y28.9406 
G01 X66.5313 Y29.1190 
G01 X66.5313 Y29.3009 
G01 X66.4958 Y29.4793 
G01 X66.4262 Y29.6473 
G01 X66.3252 Y29.7984 
G01 X66.1966 Y29.9270 
G01 X66.0455 Y30.0280 
G01 X65.8775 Y30.0976 
G01 X65.6991 Y30.1331 
G00 Z2.0000 
G00 X65.6991 Y27.5931 
G01 Z-0.1000 F254.00 
G01 X63.8408 Y27.5931 
G01 X63.6624 Y27.5576 
G01 X63.4944 Y27.4880 
G01 X63.3433 Y27.3870 
G01 X63.2147 Y27.2584 
G01 X63.1137 Y27.1073 
G01 X63.0441 Y26.9393 
G01 X63.0086 Y26.7609 
G01 X63.0086 Y26.5790 
G01 X63.0441 Y26.4006 
G01 X63.1137 Y26.2326 
G01 X63.2147 Y26.0815 
G01 X63.3433 Y25.9529 
G01 X63.4944 Y25.8519 
G01 X63.6624 Y25.7823 
G01 X63.8408 Y25.7468 
G01 X65.6991 Y25.7468 
G01 X65.8775 Y25.7823 
G01 X66.0455 Y25.8519 
G01 X66.1966 Y25.9529 
G01 X66.3252 Y26.0815 
G01 X66.4262 Y26.2326 
G01 X66.4958 Y26.4006 
G01 X66.5313 Y26.5790 
G01 X66.5313 Y26.7609 
G01 X66.4958 Y26.9393 
G01 X66.4262 Y27.1073 
G01 X66.3252 Y27.2584 
G01 X66.1966 Y27.3870 
G01 X66.0455 Y27.4880 
G01 X65.8775 Y27.5576 
G01 X65.6991 Y27.5931 
G00 Z2.0000 
G00 X65.6991 Y25.0531 
G01 Z-0.1000 F254.00 
G01 X63.8408 Y25.0531 
G01 X63.6624 Y25.0176 
G01 X63.4944 Y24.9480 
G01 X63.3433 Y24.8470 
G01 X63.2147 Y24.7184 
G01 X63.1137 Y24.5673 
G01 X63.0441 Y24.3993 
G01 X63.0086 Y24.2209 
G01 X63.0086 Y24.0390 
G01 X63.0441 Y23.8606 
G01 X63.1137 Y23.6926 
G01 X63.2147 Y23.5415 
G01 X63.3433 Y23.4129 
G01 X63.4944 Y23.3119 
G01 X63.6624 Y23.2423 
G01 X63.8408 Y23.2068 
G01 X65.6991 Y23.2068 
G01 X65.8775 Y23.2423 
G01 X66.0455 Y23.3119 
G01 X66.1966 Y23.4129 
G01 X66.3252 Y23.5415 
G01 X66.4262 Y23.6926 
G01 X66.4958 Y23.8606 
G01 X66.5313 Y24.0390 
G01 X66.5313 Y24.2209 
G01 X66.4958 Y24.3993 
G01 X66.4262 Y24.5673 
G01 X66.3252 Y24.7184 
G01 X66.1966 Y24.8470 
G01 X66.0455 Y24.9480 
G01 X65.8775 Y25.0176 
G01 X65.6991 Y25.0531 
G00 Z2.0000 
G00 X65.6991 Y22.5131 
G01 Z-0.1000 F254.00 
G01 X63.8408 Y22.5131 
G01 X63.6624 Y22.4776 
G01 X63.4944 Y22.4080 
G01 X63.3433 Y22.3070 
G01 X63.2147 Y22.1784 
G01 X63.1137 Y22.0273 
G01 X63.0441 Y21.8593 
G01 X63.0086 Y21.6809 
G01 X63.0086 Y21.4990 
G01 X63.0441 Y21.3206 
G01 X63.1137 Y21.1526 
G01 X63.2147 Y21.0015 
G01 X63.3433 Y20.8729 
G01 X63.4944 Y20.7719 
G01 X63.6624 Y20.7023 
G01 X63.8408 Y20.6668 
G01 X65.6991 Y20.6668 
G01 X65.8775 Y20.7023 
G01 X66.0455 Y20.7719 
G01 X66.1966 Y20.8729 
G01 X66.3252 Y21.0015 
G01 X66.4262 Y21.1526 
G01 X66.4958 Y21.3206 
G01 X66.5313 Y21.4990 
G01 X66.5313 Y21.6809 
G01 X66.4958 Y21.8593 
G01 X66.4262 Y22.0273 
G01 X66.3252 Y22.1784 
G01 X66.1966 Y22.3070 
G01 X66.0455 Y22.4080 
G01 X65.8775 Y22.4776 
G01 X65.6991 Y22.5131 
G00 Z2.0000 
G00 X65.6991 Y19.9731 
G01 Z-0.1000 F254.00 
G01 X63.8408 Y19.9731 
G01 X63.6624 Y19.9376 
G01 X63.4944 Y19.8680 
G01 X63.3433 Y19.7670 
G01 X63.2147 Y19.6384 
G01 X63.1137 Y19.4873 
G01 X63.0441 Y19.3193 
G01 X63.0086 Y19.1409 
G01 X63.0086 Y18.9590 
G01 X63.0441 Y18.7806 
G01 X63.1137 Y18.6126 
G01 X63.2147 Y18.4615 
G01 X63.3433 Y18.3329 
G01 X63.4944 Y18.2319 
G01 X63.6624 Y18.1623 
G01 X63.8408 Y18.1268 
G01 X65.6991 Y18.1268 
G01 X65.8775 Y18.1623 
G01 X66.0455 Y18.2319 
G01 X66.1966 Y18.3329 
G01 X66.3252 Y18.4615 
G01 X66.4262 Y18.6126 
G01 X66.4958 Y18.7806 
G01 X66.5313 Y18.9590 
G01 X66.5313 Y19.1409 
G01 X66.4958 Y19.3193 
G01 X66.4262 Y19.4873 
G01 X66.3252 Y19.6384 
G01 X66.1966 Y19.7670 
G01 X66.0455 Y19.8680 
G01 X65.8775 Y19.9376 
G01 X65.6991 Y19.9731 
G00 Z2.0000 
G00 X65.6991 Y17.4331 
G01 Z-0.1000 F254.00 
G01 X63.8408 Y17.4331 
G01 X63.6624 Y17.3976 
G01 X63.4944 Y17.3280 
G01 X63.3433 Y17.2270 
G01 X63.2147 Y17.0984 
G01 X63.1137 Y16.9473 
G01 X63.0441 Y16.7793 
G01 X63.0086 Y16.6009 
G01 X63.0086 Y16.4190 
G01 X63.0441 Y16.2406 
G01 X63.1137 Y16.0726 
G01 X63.2147 Y15.9215 
G01 X63.3433 Y15.7929 
G01 X63.4944 Y15.6919 
G01 X63.6624 Y15.6223 
G01 X63.8408 Y15.5868 
G01 X65.6991 Y15.5868 
G01 X65.8775 Y15.6223 
G01 X66.0455 Y15.6919 
G01 X66.1966 Y15.7929 
G01 X66.3252 Y15.9215 
G01 X66.4262 Y16.0726 
G01 X66.4958 Y16.2406 
G01 X66.5313 Y16.4190 
G01 X66.5313 Y16.6009 
G01 X66.4958 Y16.7793 
G01 X66.4262 Y16.9473 
G01 X66.3252 Y17.0984 
G01 X66.1966 Y17.2270 
G01 X66.0455 Y17.3280 
G01 X65.8775 Y17.3976 
G01 X65.6991 Y17.4331 
G00 Z2.0000 
G00 X65.6991 Y14.8931 
G01 Z-0.1000 F254.00 
G01 X63.8408 Y14.8931 
G01 X63.6624 Y14.8576 
G01 X63.4944 Y14.7880 
G01 X63.3433 Y14.6870 
G01 X63.2147 Y14.5584 
G01 X63.1137 Y14.4073 
G01 X63.0441 Y14.2393 
G01 X63.0086 Y14.0609 
G01 X63.0086 Y13.8790 
G01 X63.0441 Y13.7006 
G01 X63.1137 Y13.5326 
G01 X63.2147 Y13.3815 
G01 X63.3433 Y13.2529 
G01 X63.4944 Y13.1519 
G01 X63.6624 Y13.0823 
G01 X63.8408 Y13.0468 
G01 X65.6991 Y13.0468 
G01 X65.8775 Y13.0823 
G01 X66.0455 Y13.1519 
G01 X66.1966 Y13.2529 
G01 X66.3252 Y13.3815 
G01 X66.4262 Y13.5326 
G01 X66.4958 Y13.7006 
G01 X66.5313 Y13.8790 
G01 X66.5313 Y14.0609 
G01 X66.4958 Y14.2393 
G01 X66.4262 Y14.4073 
G01 X66.3252 Y14.5584 
G01 X66.1966 Y14.6870 
G01 X66.0455 Y14.7880 
G01 X65.8775 Y14.8576 
G01 X65.6991 Y14.8931 
G00 Z2.0000 
G00 X65.6991 Y12.3531 
G01 Z-0.1000 F254.00 
G01 X63.8408 Y12.3531 
G01 X63.6624 Y12.3176 
G01 X63.4944 Y12.2480 
G01 X63.3433 Y12.1470 
G01 X63.2147 Y12.0184 
G01 X63.1137 Y11.8673 
G01 X63.0441 Y11.6993 
G01 X63.0086 Y11.5209 
G01 X63.0086 Y11.3390 
G01 X63.0441 Y11.1606 
G01 X63.1137 Y10.9926 
G01 X63.2147 Y10.8415 
G01 X63.3433 Y10.7129 
G01 X63.4944 Y10.6119 
G01 X63.6624 Y10.5423 
G01 X63.8408 Y10.5068 
G01 X65.6991 Y10.5068 
G01 X65.8775 Y10.5423 
G01 X66.0455 Y10.6119 
G01 X66.1966 Y10.7129 
G01 X66.3252 Y10.8415 
G01 X66.4262 Y10.9926 
G01 X66.4958 Y11.1606 
G01 X66.5313 Y11.3390 
G01 X66.5313 Y11.5209 
G01 X66.4958 Y11.6993 
G01 X66.4262 Y11.8673 
G01 X66.3252 Y12.0184 
G01 X66.1966 Y12.1470 
G01 X66.0455 Y12.2480 
G01 X65.8775 Y12.3176 
G01 X65.6991 Y12.3531 
G00 Z2.0000 
G00 X58.0791 Y12.3531 
G01 Z-0.1000 F254.00 
G01 X56.2208 Y12.3531 
G01 X56.0424 Y12.3176 
G01 X55.8744 Y12.2480 
G01 X55.7233 Y12.1470 
G01 X55.5947 Y12.0184 
G01 X55.4937 Y11.8673 
G01 X55.4241 Y11.6993 
G01 X55.3886 Y11.5209 
G01 X55.3886 Y11.3390 
G01 X55.4241 Y11.1606 
G01 X55.4937 Y10.9926 
G01 X55.5947 Y10.8415 
G01 X55.7233 Y10.7129 
G01 X55.8744 Y10.6119 
G01 X56.0424 Y10.5423 
G01 X56.2208 Y10.5068 
G01 X58.0791 Y10.5068 
G01 X58.2575 Y10.5423 
G01 X58.4255 Y10.6119 
G01 X58.5766 Y10.7129 
G01 X58.7052 Y10.8415 
G01 X58.8062 Y10.9926 
G01 X58.8758 Y11.1606 
G01 X58.9113 Y11.3390 
G01 X58.9113 Y11.5209 
G01 X58.8758 Y11.6993 
G01 X58.8062 Y11.8673 
G01 X58.7052 Y12.0184 
G01 X58.5766 Y12.1470 
G01 X58.4255 Y12.2480 
G01 X58.2575 Y12.3176 
G01 X58.0791 Y12.3531 
G00 Z2.0000 
G00 X58.0791 Y14.8931 
G01 Z-0.1000 F254.00 
G01 X56.2208 Y14.8931 
G01 X56.0424 Y14.8576 
G01 X55.8744 Y14.7880 
G01 X55.7233 Y14.6870 
G01 X55.5947 Y14.5584 
G01 X55.4937 Y14.4073 
G01 X55.4241 Y14.2393 
G01 X55.3886 Y14.0609 
G01 X55.3886 Y13.8790 
G01 X55.4241 Y13.7006 
G01 X55.4937 Y13.5326 
G01 X55.5947 Y13.3815 
G01 X55.7233 Y13.2529 
G01 X55.8744 Y13.1519 
G01 X56.0424 Y13.0823 
G01 X56.2208 Y13.0468 
G01 X58.0791 Y13.0468 
G01 X58.2575 Y13.0823 
G01 X58.4255 Y13.1519 
G01 X58.5766 Y13.2529 
G01 X58.7052 Y13.3815 
G01 X58.8062 Y13.5326 
G01 X58.8758 Y13.7006 
G01 X58.9113 Y13.8790 
G01 X58.9113 Y14.0609 
G01 X58.8758 Y14.2393 
G01 X58.8062 Y14.4073 
G01 X58.7052 Y14.5584 
G01 X58.5766 Y14.6870 
G01 X58.4255 Y14.7880 
G01 X58.2575 Y14.8576 
G01 X58.0791 Y14.8931 
G00 Z2.0000 
G00 X58.0791 Y17.4331 
G01 Z-0.1000 F254.00 
G01 X56.2208 Y17.4331 
G01 X56.0424 Y17.3976 
G01 X55.8744 Y17.3280 
G01 X55.7233 Y17.2270 
G01 X55.5947 Y17.0984 
G01 X55.4937 Y16.9473 
G01 X55.4241 Y16.7793 
G01 X55.3886 Y16.6009 
G01 X55.3886 Y16.4190 
G01 X55.4241 Y16.2406 
G01 X55.4937 Y16.0726 
G01 X55.5947 Y15.9215 
G01 X55.7233 Y15.7929 
G01 X55.8744 Y15.6919 
G01 X56.0424 Y15.6223 
G01 X56.2208 Y15.5868 
G01 X58.0791 Y15.5868 
G01 X58.2575 Y15.6223 
G01 X58.4255 Y15.6919 
G01 X58.5766 Y15.7929 
G01 X58.7052 Y15.9215 
G01 X58.8062 Y16.0726 
G01 X58.8758 Y16.2406 
G01 X58.9113 Y16.4190 
G01 X58.9113 Y16.6009 
G01 X58.8758 Y16.7793 
G01 X58.8062 Y16.9473 
G01 X58.7052 Y17.0984 
G01 X58.5766 Y17.2270 
G01 X58.4255 Y17.3280 
G01 X58.2575 Y17.3976 
G01 X58.0791 Y17.4331 
G00 Z2.0000 
G00 X58.0791 Y19.9731 
G01 Z-0.1000 F254.00 
G01 X56.2208 Y19.9731 
G01 X56.0424 Y19.9376 
G01 X55.8744 Y19.8680 
G01 X55.7233 Y19.7670 
G01 X55.5947 Y19.6384 
G01 X55.4937 Y19.4873 
G01 X55.4241 Y19.3193 
G01 X55.3886 Y19.1409 
G01 X55.3886 Y18.9590 
G01 X55.4241 Y18.7806 
G01 X55.4937 Y18.6126 
G01 X55.5947 Y18.4615 
G01 X55.7233 Y18.3329 
G01 X55.8744 Y18.2319 
G01 X56.0424 Y18.1623 
G01 X56.2208 Y18.1268 
G01 X58.0791 Y18.1268 
G01 X58.2575 Y18.1623 
G01 X58.4255 Y18.2319 
G01 X58.5766 Y18.3329 
G01 X58.7052 Y18.4615 
G01 X58.8062 Y18.6126 
G01 X58.8758 Y18.7806 
G01 X58.9113 Y18.9590 
G01 X58.9113 Y19.1409 
G01 X58.8758 Y19.3193 
G01 X58.8062 Y19.4873 
G01 X58.7052 Y19.6384 
G01 X58.5766 Y19.7670 
G01 X58.4255 Y19.8680 
G01 X58.2575 Y19.9376 
G01 X58.0791 Y19.9731 
G00 Z2.0000 
G00 X58.0791 Y22.5131 
G01 Z-0.1000 F254.00 
G01 X56.2208 Y22.5131 
G01 X56.0424 Y22.4776 
G01 X55.8744 Y22.4080 
G01 X55.7233 Y22.3070 
G01 X55.5947 Y22.1784 
G01 X55.4937 Y22.0273 
G01 X55.4241 Y21.8593 
G01 X55.3886 Y21.6809 
G01 X55.3886 Y21.4990 
G01 X55.4241 Y21.3206 
G01 X55.4937 Y21.1526 
G01 X55.5947 Y21.0015 
G01 X55.7233 Y20.8729 
G01 X55.8744 Y20.7719 
G01 X56.0424 Y20.7023 
G01 X56.2208 Y20.6668 
G01 X58.0791 Y20.6668 
G01 X58.2575 Y20.7023 
G01 X58.4255 Y20.7719 
G01 X58.5766 Y20.8729 
G01 X58.7052 Y21.0015 
G01 X58.8062 Y21.1526 
G01 X58.8758 Y21.3206 
G01 X58.9113 Y21.4990 
G01 X58.9113 Y21.6809 
G01 X58.8758 Y21.8593 
G01 X58.8062 Y22.0273 
G01 X58.7052 Y22.1784 
G01 X58.5766 Y22.3070 
G01 X58.4255 Y22.4080 
G01 X58.2575 Y22.4776 
G01 X58.0791 Y22.5131 
G00 Z2.0000 
G00 X58.0791 Y25.0531 
G01 Z-0.1000 F254.00 
G01 X56.2208 Y25.0531 
G01 X56.0424 Y25.0176 
G01 X55.8744 Y24.9480 
G01 X55.7233 Y24.8470 
G01 X55.5947 Y24.7184 
G01 X55.4937 Y24.5673 
G01 X55.4241 Y24.3993 
G01 X55.3886 Y24.2209 
G01 X55.3886 Y24.0390 
G01 X55.4241 Y23.8606 
G01 X55.4937 Y23.6926 
G01 X55.5947 Y23.5415 
G01 X55.7233 Y23.4129 
G01 X55.8744 Y23.3119 
G01 X56.0424 Y23.2423 
G01 X56.2208 Y23.2068 
G01 X58.0791 Y23.2068 
G01 X58.2575 Y23.2423 
G01 X58.4255 Y23.3119 
G01 X58.5766 Y23.4129 
G01 X58.7052 Y23.5415 
G01 X58.8062 Y23.6926 
G01 X58.8758 Y23.8606 
G01 X58.9113 Y24.0390 
G01 X58.9113 Y24.2209 
G01 X58.8758 Y24.3993 
G01 X58.8062 Y24.5673 
G01 X58.7052 Y24.7184 
G01 X58.5766 Y24.8470 
G01 X58.4255 Y24.9480 
G01 X58.2575 Y25.0176 
G01 X58.0791 Y25.0531 
G00 Z2.0000 
G00 X58.0791 Y27.5931 
G01 Z-0.1000 F254.00 
G01 X56.2208 Y27.5931 
G01 X56.0424 Y27.5576 
G01 X55.8744 Y27.4880 
G01 X55.7233 Y27.3870 
G01 X55.5947 Y27.2584 
G01 X55.4937 Y27.1073 
G01 X55.4241 Y26.9393 
G01 X55.3886 Y26.7609 
G01 X55.3886 Y26.5790 
G01 X55.4241 Y26.4006 
G01 X55.4937 Y26.2326 
G01 X55.5947 Y26.0815 
G01 X55.7233 Y25.9529 
G01 X55.8744 Y25.8519 
G01 X56.0424 Y25.7823 
G01 X56.2208 Y25.7468 
G01 X58.0791 Y25.7468 
G01 X58.2575 Y25.7823 
G01 X58.4255 Y25.8519 
G01 X58.5766 Y25.9529 
G01 X58.7052 Y26.0815 
G01 X58.8062 Y26.2326 
G01 X58.8758 Y26.4006 
G01 X58.9113 Y26.5790 
G01 X58.9113 Y26.7609 
G01 X58.8758 Y26.9393 
G01 X58.8062 Y27.1073 
G01 X58.7052 Y27.2584 
G01 X58.5766 Y27.3870 
G01 X58.4255 Y27.4880 
G01 X58.2575 Y27.5576 
G01 X58.0791 Y27.5931 
G00 Z2.0000 
G00 X58.0791 Y30.1331 
G01 Z-0.1000 F254.00 
G01 X56.2208 Y30.1331 
G01 X56.0424 Y30.0976 
G01 X55.8744 Y30.0280 
G01 X55.7233 Y29.9270 
G01 X55.5947 Y29.7984 
G01 X55.4937 Y29.6473 
G01 X55.4241 Y29.4793 
G01 X55.3886 Y29.3009 
G01 X55.3886 Y29.1190 
G01 X55.4241 Y28.9406 
G01 X55.4937 Y28.7726 
G01 X55.5947 Y28.6215 
G01 X55.7233 Y28.4929 
G01 X55.8744 Y28.3919 
G01 X56.0424 Y28.3223 
G01 X56.2208 Y28.2868 
G01 X58.0791 Y28.2868 
G01 X58.2575 Y28.3223 
G01 X58.4255 Y28.3919 
G01 X58.5766 Y28.4929 
G01 X58.7052 Y28.6215 
G01 X58.8062 Y28.7726 
G01 X58.8758 Y28.9406 
G01 X58.9113 Y29.1190 
G01 X58.9113 Y29.3009 
G01 X58.8758 Y29.4793 
G01 X58.8062 Y29.6473 
G01 X58.7052 Y29.7984 
G01 X58.5766 Y29.9270 
G01 X58.4255 Y30.0280 
G01 X58.2575 Y30.0976 
G01 X58.0791 Y30.1331 
G00 Z2.0000 
G00 X58.0791 Y32.6731 
G01 Z-0.1000 F254.00 
G01 X56.2208 Y32.6731 
G01 X56.0424 Y32.6376 
G01 X55.8744 Y32.5680 
G01 X55.7233 Y32.4670 
G01 X55.5947 Y32.3384 
G01 X55.4937 Y32.1873 
G01 X55.4241 Y32.0193 
G01 X55.3886 Y31.8409 
G01 X55.3886 Y31.6590 
G01 X55.4241 Y31.4806 
G01 X55.4937 Y31.3126 
G01 X55.5947 Y31.1615 
G01 X55.7233 Y31.0329 
G01 X55.8744 Y30.9319 
G01 X56.0424 Y30.8623 
G01 X56.2208 Y30.8268 
G01 X58.0791 Y30.8268 
G01 X58.2575 Y30.8623 
G01 X58.4255 Y30.9319 
G01 X58.5766 Y31.0329 
G01 X58.7052 Y31.1615 
G01 X58.8062 Y31.3126 
G01 X58.8758 Y31.4806 
G01 X58.9113 Y31.6590 
G01 X58.9113 Y31.8409 
G01 X58.8758 Y32.0193 
G01 X58.8062 Y32.1873 
G01 X58.7052 Y32.3384 
G01 X58.5766 Y32.4670 
G01 X58.4255 Y32.5680 
G01 X58.2575 Y32.6376 
G01 X58.0791 Y32.6731 
G00 Z2.0000 
G00 X58.0791 Y35.2131 
G01 Z-0.1000 F254.00 
G01 X56.2208 Y35.2131 
G01 X56.0424 Y35.1776 
G01 X55.8744 Y35.1080 
G01 X55.7233 Y35.0070 
G01 X55.5947 Y34.8784 
G01 X55.4937 Y34.7273 
G01 X55.4241 Y34.5593 
G01 X55.3886 Y34.3809 
G01 X55.3886 Y34.1990 
G01 X55.4241 Y34.0206 
G01 X55.4937 Y33.8526 
G01 X55.5947 Y33.7015 
G01 X55.7233 Y33.5729 
G01 X55.8744 Y33.4719 
G01 X56.0424 Y33.4023 
G01 X56.2208 Y33.3668 
G01 X58.0791 Y33.3668 
G01 X58.2575 Y33.4023 
G01 X58.4255 Y33.4719 
G01 X58.5766 Y33.5729 
G01 X58.7052 Y33.7015 
G01 X58.8062 Y33.8526 
G01 X58.8758 Y34.0206 
G01 X58.9113 Y34.1990 
G01 X58.9113 Y34.3809 
G01 X58.8758 Y34.5593 
G01 X58.8062 Y34.7273 
G01 X58.7052 Y34.8784 
G01 X58.5766 Y35.0070 
G01 X58.4255 Y35.1080 
G01 X58.2575 Y35.1776 
G01 X58.0791 Y35.2131 
G00 Z2.0000 
G00 X58.0791 Y37.7531 
G01 Z-0.1000 F254.00 
G01 X56.2208 Y37.7531 
G01 X56.0424 Y37.7176 
G01 X55.8744 Y37.6480 
G01 X55.7233 Y37.5470 
G01 X55.5947 Y37.4184 
G01 X55.4937 Y37.2673 
G01 X55.4241 Y37.0993 
G01 X55.3886 Y36.9209 
G01 X55.3886 Y36.7390 
G01 X55.4241 Y36.5606 
G01 X55.4937 Y36.3926 
G01 X55.5947 Y36.2415 
G01 X55.7233 Y36.1129 
G01 X55.8744 Y36.0119 
G01 X56.0424 Y35.9423 
G01 X56.2208 Y35.9068 
G01 X58.0791 Y35.9068 
G01 X58.2575 Y35.9423 
G01 X58.4255 Y36.0119 
G01 X58.5766 Y36.1129 
G01 X58.7052 Y36.2415 
G01 X58.8062 Y36.3926 
G01 X58.8758 Y36.5606 
G01 X58.9113 Y36.7390 
G01 X58.9113 Y36.9209 
G01 X58.8758 Y37.0993 
G01 X58.8062 Y37.2673 
G01 X58.7052 Y37.4184 
G01 X58.5766 Y37.5470 
G01 X58.4255 Y37.6480 
G01 X58.2575 Y37.7176 
G01 X58.0791 Y37.7531 
G00 Z2.0000 
G00 X58.0791 Y40.2931 
G01 Z-0.1000 F254.00 
G01 X56.2208 Y40.2931 
G01 X56.0424 Y40.2576 
G01 X55.8744 Y40.1880 
G01 X55.7233 Y40.0870 
G01 X55.5947 Y39.9584 
G01 X55.4937 Y39.8073 
G01 X55.4241 Y39.6393 
G01 X55.3886 Y39.4609 
G01 X55.3886 Y39.2790 
G01 X55.4241 Y39.1006 
G01 X55.4937 Y38.9326 
G01 X55.5947 Y38.7815 
G01 X55.7233 Y38.6529 
G01 X55.8744 Y38.5519 
G01 X56.0424 Y38.4823 
G01 X56.2208 Y38.4468 
G01 X58.0791 Y38.4468 
G01 X58.2575 Y38.4823 
G01 X58.4255 Y38.5519 
G01 X58.5766 Y38.6529 
G01 X58.7052 Y38.7815 
G01 X58.8062 Y38.9326 
G01 X58.8758 Y39.1006 
G01 X58.9113 Y39.2790 
G01 X58.9113 Y39.4609 
G01 X58.8758 Y39.6393 
G01 X58.8062 Y39.8073 
G01 X58.7052 Y39.9584 
G01 X58.5766 Y40.0870 
G01 X58.4255 Y40.1880 
G01 X58.2575 Y40.2576 
G01 X58.0791 Y40.2931 
G00 Z2.0000 
G00 X58.0791 Y42.8331 
G01 Z-0.1000 F254.00 
G01 X56.2208 Y42.8331 
G01 X56.0424 Y42.7976 
G01 X55.8744 Y42.7280 
G01 X55.7233 Y42.6270 
G01 X55.5947 Y42.4984 
G01 X55.4937 Y42.3473 
G01 X55.4241 Y42.1793 
G01 X55.3886 Y42.0009 
G01 X55.3886 Y41.8190 
G01 X55.4241 Y41.6406 
G01 X55.4937 Y41.4726 
G01 X55.5947 Y41.3215 
G01 X55.7233 Y41.1929 
G01 X55.8744 Y41.0919 
G01 X56.0424 Y41.0223 
G01 X56.2208 Y40.9868 
G01 X58.0791 Y40.9868 
G01 X58.2575 Y41.0223 
G01 X58.4255 Y41.0919 
G01 X58.5766 Y41.1929 
G01 X58.7052 Y41.3215 
G01 X58.8062 Y41.4726 
G01 X58.8758 Y41.6406 
G01 X58.9113 Y41.8190 
G01 X58.9113 Y42.0009 
G01 X58.8758 Y42.1793 
G01 X58.8062 Y42.3473 
G01 X58.7052 Y42.4984 
G01 X58.5766 Y42.6270 
G01 X58.4255 Y42.7280 
G01 X58.2575 Y42.7976 
G01 X58.0791 Y42.8331 
G00 Z2.0000 
G00 X58.0791 Y45.3731 
G01 Z-0.1000 F254.00 
G01 X56.2208 Y45.3731 
G01 X56.0424 Y45.3376 
G01 X55.8744 Y45.2680 
G01 X55.7233 Y45.1670 
G01 X55.5947 Y45.0384 
G01 X55.4937 Y44.8873 
G01 X55.4241 Y44.7193 
G01 X55.3886 Y44.5409 
G01 X55.3886 Y44.3590 
G01 X55.4241 Y44.1806 
G01 X55.4937 Y44.0126 
G01 X55.5947 Y43.8615 
G01 X55.7233 Y43.7329 
G01 X55.8744 Y43.6319 
G01 X56.0424 Y43.5623 
G01 X56.2208 Y43.5268 
G01 X58.0791 Y43.5268 
G01 X58.2575 Y43.5623 
G01 X58.4255 Y43.6319 
G01 X58.5766 Y43.7329 
G01 X58.7052 Y43.8615 
G01 X58.8062 Y44.0126 
G01 X58.8758 Y44.1806 
G01 X58.9113 Y44.3590 
G01 X58.9113 Y44.5409 
G01 X58.8758 Y44.7193 
G01 X58.8062 Y44.8873 
G01 X58.7052 Y45.0384 
G01 X58.5766 Y45.1670 
G01 X58.4255 Y45.2680 
G01 X58.2575 Y45.3376 
G01 X58.0791 Y45.3731 
G00 Z2.0000 
G00 X35.6449 Y37.5387 
G01 Z-0.1000 F254.00 
G01 X35.6449 Y38.6612 
G01 X34.8512 Y39.4549 
G01 X33.7287 Y39.4549 
G01 X32.9350 Y38.6612 
G01 X32.9350 Y37.5387 
G01 X33.7287 Y36.7450 
G01 X34.8512 Y36.7450 
G01 X35.6449 Y37.5387 
G00 Z2.0000 
G00 X43.2649 Y37.5387 
G01 Z-0.1000 F254.00 
G01 X43.2649 Y38.6612 
G01 X42.4712 Y39.4549 
G01 X41.3487 Y39.4549 
G01 X40.5550 Y38.6612 
G01 X40.5550 Y37.5387 
G01 X41.3487 Y36.7450 
G01 X42.4712 Y36.7450 
G01 X43.2649 Y37.5387 
G00 Z2.0000 
G00 X16.5951 Y48.3128 
G01 Z-0.1000 F254.00 
G01 X18.9648 Y48.3128 
G01 X19.1478 Y48.3418 
G01 X19.3240 Y48.3990 
G01 X19.4891 Y48.4832 
G01 X19.6390 Y48.5921 
G01 X19.7700 Y48.7231 
G01 X19.8789 Y48.8730 
G01 X19.9631 Y49.0381 
G01 X20.0203 Y49.2143 
G01 X20.0493 Y49.3973 
G01 X20.0493 Y49.5826 
G01 X20.0203 Y49.7656 
G01 X19.9631 Y49.9418 
G01 X19.8789 Y50.1069 
G01 X19.7700 Y50.2568 
G01 X19.6390 Y50.3878 
G01 X19.4891 Y50.4967 
G01 X19.3240 Y50.5809 
G01 X19.1478 Y50.6381 
G01 X18.9648 Y50.6671 
G01 X16.5951 Y50.6671 
G01 X16.4121 Y50.6381 
G01 X16.2359 Y50.5809 
G01 X16.0708 Y50.4967 
G01 X15.9209 Y50.3878 
G01 X15.7899 Y50.2568 
G01 X15.6810 Y50.1069 
G01 X15.5968 Y49.9418 
G01 X15.5396 Y49.7656 
G01 X15.5106 Y49.5826 
G01 X15.5106 Y49.3973 
G01 X15.5396 Y49.2143 
G01 X15.5968 Y49.0381 
G01 X15.6810 Y48.8730 
G01 X15.7899 Y48.7231 
G01 X15.9209 Y48.5921 
G01 X16.0708 Y48.4832 
G01 X16.2359 Y48.3990 
G01 X16.4121 Y48.3418 
G01 X16.5951 Y48.3128 
G00 Z2.0000 
G00 X16.5951 Y43.3128 
G01 Z-0.1000 F254.00 
G01 X18.9648 Y43.3128 
G01 X19.1478 Y43.3418 
G01 X19.3240 Y43.3990 
G01 X19.4891 Y43.4832 
G01 X19.6390 Y43.5921 
G01 X19.7700 Y43.7231 
G01 X19.8789 Y43.8730 
G01 X19.9631 Y44.0381 
G01 X20.0203 Y44.2143 
G01 X20.0493 Y44.3973 
G01 X20.0493 Y44.5826 
G01 X20.0203 Y44.7656 
G01 X19.9631 Y44.9418 
G01 X19.8789 Y45.1069 
G01 X19.7700 Y45.2568 
G01 X19.6390 Y45.3878 
G01 X19.4891 Y45.4967 
G01 X19.3240 Y45.5809 
G01 X19.1478 Y45.6381 
G01 X18.9648 Y45.6671 
G01 X16.5951 Y45.6671 
G01 X16.4121 Y45.6381 
G01 X16.2359 Y45.5809 
G01 X16.0708 Y45.4967 
G01 X15.9209 Y45.3878 
G01 X15.7899 Y45.2568 
G01 X15.6810 Y45.1069 
G01 X15.5968 Y44.9418 
G01 X15.5396 Y44.7656 
G01 X15.5106 Y44.5826 
G01 X15.5106 Y44.3973 
G01 X15.5396 Y44.2143 
G01 X15.5968 Y44.0381 
G01 X15.6810 Y43.8730 
G01 X15.7899 Y43.7231 
G01 X15.9209 Y43.5921 
G01 X16.0708 Y43.4832 
G01 X16.2359 Y43.3990 
G01 X16.4121 Y43.3418 
G01 X16.5951 Y43.3128 
G00 Z2.0000 
G00 X83.9049 Y10.0533 
G01 Z-0.1000 F254.00 
G01 X83.9049 Y10.2666 
G01 X83.8715 Y10.4773 
G01 X83.8056 Y10.6801 
G01 X83.7088 Y10.8701 
G01 X83.5835 Y11.0427 
G01 X83.4327 Y11.1935 
G01 X83.2601 Y11.3188 
G01 X83.0701 Y11.4156 
G01 X82.8673 Y11.4815 
G01 X82.6566 Y11.5149 
G01 X82.4433 Y11.5149 
G01 X82.2326 Y11.4815 
G01 X82.0298 Y11.4156 
G01 X81.8398 Y11.3188 
G01 X81.6672 Y11.1935 
G01 X81.5164 Y11.0427 
G01 X81.3911 Y10.8701 
G01 X81.2943 Y10.6801 
G01 X81.2284 Y10.4773 
G01 X81.1950 Y10.2666 
G01 X81.1950 Y10.0533 
G01 X81.2284 Y9.8426 
G01 X81.2943 Y9.6398 
G01 X81.3911 Y9.4498 
G01 X81.5164 Y9.2772 
G01 X81.6672 Y9.1264 
G01 X81.8398 Y9.0011 
G01 X82.0298 Y8.9043 
G01 X82.2326 Y8.8384 
G01 X82.4433 Y8.8050 
G01 X82.6566 Y8.8050 
G01 X82.8673 Y8.8384 
G01 X83.0701 Y8.9043 
G01 X83.2601 Y9.0011 
G01 X83.4327 Y9.1264 
G01 X83.5835 Y9.2772 
G01 X83.7088 Y9.4498 
G01 X83.8056 Y9.6398 
G01 X83.8715 Y9.8426 
G01 X83.9049 Y10.0533 
G00 Z2.0000 
G00 X94.0649 Y10.0533 
G01 Z-0.1000 F254.00 
G01 X94.0649 Y10.2666 
G01 X94.0315 Y10.4773 
G01 X93.9656 Y10.6801 
G01 X93.8688 Y10.8701 
G01 X93.7435 Y11.0427 
G01 X93.5927 Y11.1935 
G01 X93.4201 Y11.3188 
G01 X93.2301 Y11.4156 
G01 X93.0273 Y11.4815 
G01 X92.8166 Y11.5149 
G01 X92.6033 Y11.5149 
G01 X92.3926 Y11.4815 
G01 X92.1898 Y11.4156 
G01 X91.9998 Y11.3188 
G01 X91.8272 Y11.1935 
G01 X91.6764 Y11.0427 
G01 X91.5511 Y10.8701 
G01 X91.4543 Y10.6801 
G01 X91.3884 Y10.4773 
G01 X91.3550 Y10.2666 
G01 X91.3550 Y10.0533 
G01 X91.3884 Y9.8426 
G01 X91.4543 Y9.6398 
G01 X91.5511 Y9.4498 
G01 X91.6764 Y9.2772 
G01 X91.8272 Y9.1264 
G01 X91.9998 Y9.0011 
G01 X92.1898 Y8.9043 
G01 X92.3926 Y8.8384 
G01 X92.6033 Y8.8050 
G01 X92.8166 Y8.8050 
G01 X93.0273 Y8.8384 
G01 X93.2301 Y8.9043 
G01 X93.4201 Y9.0011 
G01 X93.5927 Y9.1264 
G01 X93.7435 Y9.2772 
G01 X93.8688 Y9.4498 
G01 X93.9656 Y9.6398 
G01 X94.0315 Y9.8426 
G01 X94.0649 Y10.0533 
G00 Z2.0000 
G00 X37.8039 Y45.0625 
G01 Z-0.1000 F254.00 
G01 X37.8039 Y45.8694 
G01 X37.2334 Y46.4399 
G01 X36.4265 Y46.4399 
G01 X35.8560 Y45.8694 
G01 X35.8560 Y45.0625 
G01 X36.4265 Y44.4920 
G01 X37.2334 Y44.4920 
G01 X37.8039 Y45.0625 
G00 Z2.0000 
G00 X37.8039 Y43.3380 
G01 Z-0.1000 F254.00 
G01 X37.8039 Y43.5299 
G01 X37.7665 Y43.7181 
G01 X37.6931 Y43.8953 
G01 X37.5865 Y44.0548 
G01 X37.4508 Y44.1905 
G01 X37.2913 Y44.2971 
G01 X37.1141 Y44.3705 
G01 X36.9259 Y44.4079 
G01 X36.7340 Y44.4079 
G01 X36.5458 Y44.3705 
G01 X36.3686 Y44.2971 
G01 X36.2091 Y44.1905 
G01 X36.0734 Y44.0548 
G01 X35.9668 Y43.8953 
G01 X35.8934 Y43.7181 
G01 X35.8560 Y43.5299 
G01 X35.8560 Y43.3380 
G01 X35.8934 Y43.1498 
G01 X35.9668 Y42.9726 
G01 X36.0734 Y42.8131 
G01 X36.2091 Y42.6774 
G01 X36.3686 Y42.5708 
G01 X36.5458 Y42.4974 
G01 X36.7340 Y42.4600 
G01 X36.9259 Y42.4600 
G01 X37.1141 Y42.4974 
G01 X37.2913 Y42.5708 
G01 X37.4508 Y42.6774 
G01 X37.5865 Y42.8131 
G01 X37.6931 Y42.9726 
G01 X37.7665 Y43.1498 
G01 X37.8039 Y43.3380 
G00 Z2.0000 
G00 X44.1539 Y48.1105 
G01 Z-0.1000 F254.00 
G01 X44.1539 Y48.9174 
G01 X43.5834 Y49.4879 
G01 X42.7765 Y49.4879 
G01 X42.2060 Y48.9174 
G01 X42.2060 Y48.1105 
G01 X42.7765 Y47.5400 
G01 X43.5834 Y47.5400 
G01 X44.1539 Y48.1105 
G00 Z2.0000 
G00 X44.1539 Y50.4500 
G01 Z-0.1000 F254.00 
G01 X44.1539 Y50.6419 
G01 X44.1165 Y50.8301 
G01 X44.0431 Y51.0073 
G01 X43.9365 Y51.1668 
G01 X43.8008 Y51.3025 
G01 X43.6413 Y51.4091 
G01 X43.4641 Y51.4825 
G01 X43.2759 Y51.5199 
G01 X43.0840 Y51.5199 
G01 X42.8958 Y51.4825 
G01 X42.7186 Y51.4091 
G01 X42.5591 Y51.3025 
G01 X42.4234 Y51.1668 
G01 X42.3168 Y51.0073 
G01 X42.2434 Y50.8301 
G01 X42.2060 Y50.6419 
G01 X42.2060 Y50.4500 
G01 X42.2434 Y50.2618 
G01 X42.3168 Y50.0846 
G01 X42.4234 Y49.9251 
G01 X42.5591 Y49.7894 
G01 X42.7186 Y49.6828 
G01 X42.8958 Y49.6094 
G01 X43.0840 Y49.5720 
G01 X43.2759 Y49.5720 
G01 X43.4641 Y49.6094 
G01 X43.6413 Y49.6828 
G01 X43.8008 Y49.7894 
G01 X43.9365 Y49.9251 
G01 X44.0431 Y50.0846 
G01 X44.1165 Y50.2618 
G01 X44.1539 Y50.4500 
G00 Z2.0000 
G00 X28.0249 Y50.6933 
G01 Z-0.1000 F254.00 
G01 X28.0249 Y50.9066 
G01 X27.9915 Y51.1173 
G01 X27.9256 Y51.3201 
G01 X27.8288 Y51.5101 
G01 X27.7035 Y51.6827 
G01 X27.5527 Y51.8335 
G01 X27.3801 Y51.9588 
G01 X27.1901 Y52.0556 
G01 X26.9873 Y52.1215 
G01 X26.7766 Y52.1549 
G01 X26.5633 Y52.1549 
G01 X26.3526 Y52.1215 
G01 X26.1498 Y52.0556 
G01 X25.9598 Y51.9588 
G01 X25.7872 Y51.8335 
G01 X25.6364 Y51.6827 
G01 X25.5111 Y51.5101 
G01 X25.4143 Y51.3201 
G01 X25.3484 Y51.1173 
G01 X25.3150 Y50.9066 
G01 X25.3150 Y50.6933 
G01 X25.3484 Y50.4826 
G01 X25.4143 Y50.2798 
G01 X25.5111 Y50.0898 
G01 X25.6364 Y49.9172 
G01 X25.7872 Y49.7664 
G01 X25.9598 Y49.6411 
G01 X26.1498 Y49.5443 
G01 X26.3526 Y49.4784 
G01 X26.5633 Y49.4450 
G01 X26.7766 Y49.4450 
G01 X26.9873 Y49.4784 
G01 X27.1901 Y49.5443 
G01 X27.3801 Y49.6411 
G01 X27.5527 Y49.7664 
G01 X27.7035 Y49.9172 
G01 X27.8288 Y50.0898 
G01 X27.9256 Y50.2798 
G01 X27.9915 Y50.4826 
G01 X28.0249 Y50.6933 
G00 Z2.0000 
G00 X38.1849 Y50.6933 
G01 Z-0.1000 F254.00 
G01 X38.1849 Y50.9066 
G01 X38.1515 Y51.1173 
G01 X38.0856 Y51.3201 
G01 X37.9888 Y51.5101 
G01 X37.8635 Y51.6827 
G01 X37.7127 Y51.8335 
G01 X37.5401 Y51.9588 
G01 X37.3501 Y52.0556 
G01 X37.1473 Y52.1215 
G01 X36.9366 Y52.1549 
G01 X36.7233 Y52.1549 
G01 X36.5126 Y52.1215 
G01 X36.3098 Y52.0556 
G01 X36.1198 Y51.9588 
G01 X35.9472 Y51.8335 
G01 X35.7964 Y51.6827 
G01 X35.6711 Y51.5101 
G01 X35.5743 Y51.3201 
G01 X35.5084 Y51.1173 
G01 X35.4750 Y50.9066 
G01 X35.4750 Y50.6933 
G01 X35.5084 Y50.4826 
G01 X35.5743 Y50.2798 
G01 X35.6711 Y50.0898 
G01 X35.7964 Y49.9172 
G01 X35.9472 Y49.7664 
G01 X36.1198 Y49.6411 
G01 X36.3098 Y49.5443 
G01 X36.5126 Y49.4784 
G01 X36.7233 Y49.4450 
G01 X36.9366 Y49.4450 
G01 X37.1473 Y49.4784 
G01 X37.3501 Y49.5443 
G01 X37.5401 Y49.6411 
G01 X37.7127 Y49.7664 
G01 X37.8635 Y49.9172 
G01 X37.9888 Y50.0898 
G01 X38.0856 Y50.2798 
G01 X38.1515 Y50.4826 
G01 X38.1849 Y50.6933 
G00 Z2.0000 
G00 X54.6949 Y46.4287 
G01 Z-0.1000 F254.00 
G01 X54.6949 Y47.5512 
G01 X53.9012 Y48.3449 
G01 X52.7787 Y48.3449 
G01 X51.9850 Y47.5512 
G01 X51.9850 Y46.4287 
G01 X52.7787 Y45.6350 
G01 X53.9012 Y45.6350 
G01 X54.6949 Y46.4287 
G00 Z2.0000 
G00 X49.6149 Y46.4287 
G01 Z-0.1000 F254.00 
G01 X49.6149 Y47.5512 
G01 X48.8212 Y48.3449 
G01 X47.6987 Y48.3449 
G01 X46.9050 Y47.5512 
G01 X46.9050 Y46.4287 
G01 X47.6987 Y45.6350 
G01 X48.8212 Y45.6350 
G01 X49.6149 Y46.4287 
G00 Z2.0000 
G00 X25.5342 Y36.1275 
G01 Z-0.1000 F254.00 
G01 X23.8433 Y36.1275 
G01 X23.6797 Y36.0950 
G01 X23.5255 Y36.0311 
G01 X23.3868 Y35.9384 
G01 X23.2689 Y35.8205 
G01 X23.1762 Y35.6818 
G01 X23.1123 Y35.5276 
G01 X23.0798 Y35.3640 
G01 X23.0798 Y35.1971 
G01 X23.1123 Y35.0335 
G01 X23.1762 Y34.8793 
G01 X23.2689 Y34.7406 
G01 X23.3868 Y34.6227 
G01 X23.5255 Y34.5300 
G01 X23.6797 Y34.4661 
G01 X23.8433 Y34.4336 
G01 X25.5342 Y34.4336 
G01 X25.6978 Y34.4661 
G01 X25.8520 Y34.5300 
G01 X25.9907 Y34.6227 
G01 X26.1086 Y34.7406 
G01 X26.2013 Y34.8793 
G01 X26.2652 Y35.0335 
G01 X26.2977 Y35.1971 
G01 X26.2977 Y35.3640 
G01 X26.2652 Y35.5276 
G01 X26.2013 Y35.6818 
G01 X26.1086 Y35.8205 
G01 X25.9907 Y35.9384 
G01 X25.8520 Y36.0311 
G01 X25.6978 Y36.0950 
G01 X25.5342 Y36.1275 
G00 Z2.0000 
G00 X25.5342 Y31.6063 
G01 Z-0.1000 F254.00 
G01 X23.8433 Y31.6063 
G01 X23.6797 Y31.5738 
G01 X23.5255 Y31.5099 
G01 X23.3868 Y31.4172 
G01 X23.2689 Y31.2993 
G01 X23.1762 Y31.1606 
G01 X23.1123 Y31.0064 
G01 X23.0798 Y30.8428 
G01 X23.0798 Y30.6759 
G01 X23.1123 Y30.5123 
G01 X23.1762 Y30.3581 
G01 X23.2689 Y30.2194 
G01 X23.3868 Y30.1015 
G01 X23.5255 Y30.0088 
G01 X23.6797 Y29.9449 
G01 X23.8433 Y29.9124 
G01 X25.5342 Y29.9124 
G01 X25.6978 Y29.9449 
G01 X25.8520 Y30.0088 
G01 X25.9907 Y30.1015 
G01 X26.1086 Y30.2194 
G01 X26.2013 Y30.3581 
G01 X26.2652 Y30.5123 
G01 X26.2977 Y30.6759 
G01 X26.2977 Y30.8428 
G01 X26.2652 Y31.0064 
G01 X26.2013 Y31.1606 
G01 X26.1086 Y31.2993 
G01 X25.9907 Y31.4172 
G01 X25.8520 Y31.5099 
G01 X25.6978 Y31.5738 
G01 X25.5342 Y31.6063 
G00 Z2.0000 
G00 X32.0366 Y36.1275 
G01 Z-0.1000 F254.00 
G01 X30.3457 Y36.1275 
G01 X30.1821 Y36.0950 
G01 X30.0279 Y36.0311 
G01 X29.8892 Y35.9384 
G01 X29.7713 Y35.8205 
G01 X29.6786 Y35.6818 
G01 X29.6147 Y35.5276 
G01 X29.5822 Y35.3640 
G01 X29.5822 Y35.1971 
G01 X29.6147 Y35.0335 
G01 X29.6786 Y34.8793 
G01 X29.7713 Y34.7406 
G01 X29.8892 Y34.6227 
G01 X30.0279 Y34.5300 
G01 X30.1821 Y34.4661 
G01 X30.3457 Y34.4336 
G01 X32.0366 Y34.4336 
G01 X32.2002 Y34.4661 
G01 X32.3544 Y34.5300 
G01 X32.4931 Y34.6227 
G01 X32.6110 Y34.7406 
G01 X32.7037 Y34.8793 
G01 X32.7676 Y35.0335 
G01 X32.8001 Y35.1971 
G01 X32.8001 Y35.3640 
G01 X32.7676 Y35.5276 
G01 X32.7037 Y35.6818 
G01 X32.6110 Y35.8205 
G01 X32.4931 Y35.9384 
G01 X32.3544 Y36.0311 
G01 X32.2002 Y36.0950 
G01 X32.0366 Y36.1275 
G00 Z2.0000 
G00 X32.0366 Y31.6063 
G01 Z-0.1000 F254.00 
G01 X30.3457 Y31.6063 
G01 X30.1821 Y31.5738 
G01 X30.0279 Y31.5099 
G01 X29.8892 Y31.4172 
G01 X29.7713 Y31.2993 
G01 X29.6786 Y31.1606 
G01 X29.6147 Y31.0064 
G01 X29.5822 Y30.8428 
G01 X29.5822 Y30.6759 
G01 X29.6147 Y30.5123 
G01 X29.6786 Y30.3581 
G01 X29.7713 Y30.2194 
G01 X29.8892 Y30.1015 
G01 X30.0279 Y30.0088 
G01 X30.1821 Y29.9449 
G01 X30.3457 Y29.9124 
G01 X32.0366 Y29.9124 
G01 X32.2002 Y29.9449 
G01 X32.3544 Y30.0088 
G01 X32.4931 Y30.1015 
G01 X32.6110 Y30.2194 
G01 X32.7037 Y30.3581 
G01 X32.7676 Y30.5123 
G01 X32.8001 Y30.6759 
G01 X32.8001 Y30.8428 
G01 X32.7676 Y31.0064 
G01 X32.7037 Y31.1606 
G01 X32.6110 Y31.2993 
G01 X32.4931 Y31.4172 
G01 X32.3544 Y31.5099 
G01 X32.2002 Y31.5738 
G01 X32.0366 Y31.6063 
G00 Z2.0000 
G00 X100.2448 Y15.1071 
G01 Z-0.1000 F254.00 
G01 X97.8751 Y15.1071 
G01 X97.6921 Y15.0781 
G01 X97.5159 Y15.0209 
G01 X97.3508 Y14.9367 
G01 X97.2009 Y14.8278 
G01 X97.0699 Y14.6968 
G01 X96.9610 Y14.5469 
G01 X96.8768 Y14.3818 
G01 X96.8196 Y14.2056 
G01 X96.7906 Y14.0226 
G01 X96.7906 Y13.8373 
G01 X96.8196 Y13.6543 
G01 X96.8768 Y13.4781 
G01 X96.9610 Y13.3130 
G01 X97.0699 Y13.1631 
G01 X97.2009 Y13.0321 
G01 X97.3508 Y12.9232 
G01 X97.5159 Y12.8390 
G01 X97.6921 Y12.7818 
G01 X97.8751 Y12.7528 
G01 X100.2448 Y12.7528 
G01 X100.4278 Y12.7818 
G01 X100.6040 Y12.8390 
G01 X100.7691 Y12.9232 
G01 X100.9190 Y13.0321 
G01 X101.0500 Y13.1631 
G01 X101.1589 Y13.3130 
G01 X101.2431 Y13.4781 
G01 X101.3003 Y13.6543 
G01 X101.3293 Y13.8373 
G01 X101.3293 Y14.0226 
G01 X101.3003 Y14.2056 
G01 X101.2431 Y14.3818 
G01 X101.1589 Y14.5469 
G01 X101.0500 Y14.6968 
G01 X100.9190 Y14.8278 
G01 X100.7691 Y14.9367 
G01 X100.6040 Y15.0209 
G01 X100.4278 Y15.0781 
G01 X100.2448 Y15.1071 
G00 Z2.0000 
G00 X100.2448 Y10.1071 
G01 Z-0.1000 F254.00 
G01 X97.8751 Y10.1071 
G01 X97.6921 Y10.0781 
G01 X97.5159 Y10.0209 
G01 X97.3508 Y9.9367 
G01 X97.2009 Y9.8278 
G01 X97.0699 Y9.6968 
G01 X96.9610 Y9.5469 
G01 X96.8768 Y9.3818 
G01 X96.8196 Y9.2056 
G01 X96.7906 Y9.0226 
G01 X96.7906 Y8.8373 
G01 X96.8196 Y8.6543 
G01 X96.8768 Y8.4781 
G01 X96.9610 Y8.3130 
G01 X97.0699 Y8.1631 
G01 X97.2009 Y8.0321 
G01 X97.3508 Y7.9232 
G01 X97.5159 Y7.8390 
G01 X97.6921 Y7.7818 
G01 X97.8751 Y7.7528 
G01 X100.2448 Y7.7528 
G01 X100.4278 Y7.7818 
G01 X100.6040 Y7.8390 
G01 X100.7691 Y7.9232 
G01 X100.9190 Y8.0321 
G01 X101.0500 Y8.1631 
G01 X101.1589 Y8.3130 
G01 X101.2431 Y8.4781 
G01 X101.3003 Y8.6543 
G01 X101.3293 Y8.8373 
G01 X101.3293 Y9.0226 
G01 X101.3003 Y9.2056 
G01 X101.2431 Y9.3818 
G01 X101.1589 Y9.5469 
G01 X101.0500 Y9.6968 
G01 X100.9190 Y9.8278 
G01 X100.7691 Y9.9367 
G01 X100.6040 Y10.0209 
G01 X100.4278 Y10.0781 
G01 X100.2448 Y10.1071 
G00 Z2.0000 
G00 X98.6369 Y18.2045 
G01 Z-0.1000 F254.00 
G01 X98.6369 Y19.8954 
G01 X98.6044 Y20.0590 
G01 X98.5405 Y20.2132 
G01 X98.4478 Y20.3519 
G01 X98.3299 Y20.4698 
G01 X98.1912 Y20.5625 
G01 X98.0370 Y20.6264 
G01 X97.8734 Y20.6589 
G01 X97.7065 Y20.6589 
G01 X97.5429 Y20.6264 
G01 X97.3887 Y20.5625 
G01 X97.2500 Y20.4698 
G01 X97.1321 Y20.3519 
G01 X97.0394 Y20.2132 
G01 X96.9755 Y20.0590 
G01 X96.9430 Y19.8954 
G01 X96.9430 Y18.2045 
G01 X96.9755 Y18.0409 
G01 X97.0394 Y17.8867 
G01 X97.1321 Y17.7480 
G01 X97.2500 Y17.6301 
G01 X97.3887 Y17.5374 
G01 X97.5429 Y17.4735 
G01 X97.7065 Y17.4410 
G01 X97.8734 Y17.4410 
G01 X98.0370 Y17.4735 
G01 X98.1912 Y17.5374 
G01 X98.3299 Y17.6301 
G01 X98.4478 Y17.7480 
G01 X98.5405 Y17.8867 
G01 X98.6044 Y18.0409 
G01 X98.6369 Y18.2045 
G00 Z2.0000 
G00 X96.0969 Y18.2045 
G01 Z-0.1000 F254.00 
G01 X96.0969 Y19.8954 
G01 X96.0644 Y20.0590 
G01 X96.0005 Y20.2132 
G01 X95.9078 Y20.3519 
G01 X95.7899 Y20.4698 
G01 X95.6512 Y20.5625 
G01 X95.4970 Y20.6264 
G01 X95.3334 Y20.6589 
G01 X95.1665 Y20.6589 
G01 X95.0029 Y20.6264 
G01 X94.8487 Y20.5625 
G01 X94.7100 Y20.4698 
G01 X94.5921 Y20.3519 
G01 X94.4994 Y20.2132 
G01 X94.4355 Y20.0590 
G01 X94.4030 Y19.8954 
G01 X94.4030 Y18.2045 
G01 X94.4355 Y18.0409 
G01 X94.4994 Y17.8867 
G01 X94.5921 Y17.7480 
G01 X94.7100 Y17.6301 
G01 X94.8487 Y17.5374 
G01 X95.0029 Y17.4735 
G01 X95.1665 Y17.4410 
G01 X95.3334 Y17.4410 
G01 X95.4970 Y17.4735 
G01 X95.6512 Y17.5374 
G01 X95.7899 Y17.6301 
G01 X95.9078 Y17.7480 
G01 X96.0005 Y17.8867 
G01 X96.0644 Y18.0409 
G01 X96.0969 Y18.2045 
(File Footer)
G00 Z2.0000 
G00 Z10.0000 
M05
M02
