( This gcode generated by /home/mattvenn/.eagle/ulp/pcb-gcode.ulp )
( Copyright 2005 by John Johnson. See readme.txt for licensing terms. )

( This file generated from the board /home/mattvenn/eagle-circuit-designs/energy plotter/polarplotter.brd )
( This file generated 19/12/2011 17:51 )

G21

G90
G00 Z10.0000 
G00 X0 Y0
M03
G04 P3.000000
G00 Z2.0000 
G00 X-42.4036 Y46.1859 
G01 Z-0.1000 F254.00 
G01 X-42.4594 Y46.2417 
G01 X-42.4594 Y46.1859 
G01 X-42.4036 Y46.1859 
G00 Z2.0000 
G00 X-37.6062 Y46.1859 
G01 Z-0.1000 F254.00 
G01 X-37.5503 Y46.1859 
G01 X-37.5503 Y46.2418 
G01 X-37.6062 Y46.1859 
G00 Z2.0000 
G00 X-16.2815 Y43.2930 
G01 Z-0.1000 F254.00 
G01 X-16.1287 Y43.3563 
G01 X-15.9855 Y43.4389 
G01 X-15.8542 Y43.5397 
G01 X-15.7375 Y43.6565 
G01 X-15.6810 Y43.7300 
G01 X-15.7849 Y43.7300 
G01 X-15.7899 Y43.7231 
G01 X-15.9209 Y43.5921 
G01 X-16.0708 Y43.4832 
G01 X-16.2359 Y43.3990 
G01 X-16.4121 Y43.3418 
G01 X-16.5951 Y43.3128 
G01 X-17.0594 Y43.3128 
G01 X-17.0594 Y43.2287 
G01 X-16.6051 Y43.2287 
G01 X-16.4406 Y43.2503 
G01 X-16.2815 Y43.2930 
G00 Z2.0000 
G00 X-14.9218 Y36.3571 
G01 Z-0.1000 F254.00 
G01 X-15.0318 Y36.4415 
G01 X-15.1520 Y36.5109 
G01 X-15.2801 Y36.5640 
G01 X-15.4137 Y36.5998 
G01 X-15.5515 Y36.6179 
G01 X-15.7894 Y36.6179 
G01 X-15.7894 Y36.5339 
G01 X-15.5250 Y36.5339 
G01 X-15.3368 Y36.4965 
G01 X-15.1596 Y36.4231 
G01 X-15.0001 Y36.3165 
G01 X-14.9640 Y36.2803 
G01 X-14.8449 Y36.2803 
G01 X-14.9218 Y36.3571 
G00 Z2.0000 
G00 X-14.9357 Y33.8310 
G01 Z-0.1000 F254.00 
G01 X-15.0145 Y33.9489 
G01 X-15.0687 Y34.0799 
G01 X-15.0687 Y34.0803 
G01 X-15.0688 Y34.0803 
G01 X-15.0741 Y34.1071 
G01 X-15.0964 Y34.2190 
G01 X-15.0964 Y34.3609 
G01 X-15.0964 Y34.3613 
G01 X-15.0745 Y34.4705 
G01 X-15.0687 Y34.5000 
G01 X-15.0686 Y34.5001 
G01 X-15.0686 Y34.5004 
G01 X-15.0439 Y34.5599 
G01 X-15.0145 Y34.6310 
G01 X-14.9357 Y34.7489 
G01 X-14.8451 Y34.8394 
G01 X-14.9642 Y34.8394 
G01 X-15.0001 Y34.8034 
G01 X-15.1596 Y34.6968 
G01 X-15.3368 Y34.6234 
G01 X-15.5250 Y34.5860 
G01 X-15.7894 Y34.5860 
G01 X-15.7894 Y33.9939 
G01 X-15.5250 Y33.9939 
G01 X-15.3368 Y33.9565 
G01 X-15.1596 Y33.8831 
G01 X-15.0001 Y33.7765 
G01 X-14.9640 Y33.7403 
G01 X-14.8449 Y33.7403 
G01 X-14.9357 Y33.8310 
G00 Z2.0000 
G00 X-19.8223 Y43.6565 
G01 Z-0.1000 F254.00 
G01 X-19.7055 Y43.5397 
G01 X-19.5743 Y43.4389 
G01 X-19.4310 Y43.3563 
G01 X-19.2783 Y43.2930 
G01 X-19.1192 Y43.2503 
G01 X-18.9546 Y43.2287 
G01 X-18.5003 Y43.2287 
G01 X-18.5003 Y43.3128 
G01 X-18.9648 Y43.3128 
G01 X-19.1478 Y43.3418 
G01 X-19.3240 Y43.3990 
G01 X-19.4891 Y43.4832 
G01 X-19.6390 Y43.5921 
G01 X-19.7700 Y43.7231 
G01 X-19.8036 Y43.7694 
G01 X-19.9091 Y43.7694 
G01 X-19.8223 Y43.6565 
G00 Z2.0000 
G00 X-17.0594 Y45.6671 
G01 Z-0.1000 F254.00 
G01 X-16.5951 Y45.6671 
G01 X-16.4121 Y45.6381 
G01 X-16.2359 Y45.5809 
G01 X-16.0708 Y45.4967 
G01 X-15.9209 Y45.3878 
G01 X-15.7899 Y45.2568 
G01 X-15.7562 Y45.2103 
G01 X-15.6506 Y45.2103 
G01 X-15.7375 Y45.3233 
G01 X-15.8543 Y45.4401 
G01 X-15.9855 Y45.5409 
G01 X-16.1288 Y45.6235 
G01 X-16.2815 Y45.6868 
G01 X-16.4406 Y45.7295 
G01 X-16.6052 Y45.7511 
G01 X-17.0594 Y45.7511 
G01 X-17.0594 Y45.6671 
G00 Z2.0000 
G00 X-18.9547 Y45.7511 
G01 Z-0.1000 F254.00 
G01 X-19.1192 Y45.7295 
G01 X-19.2783 Y45.6868 
G01 X-19.4311 Y45.6235 
G01 X-19.5743 Y45.5409 
G01 X-19.7056 Y45.4401 
G01 X-19.8223 Y45.3233 
G01 X-19.9092 Y45.2103 
G01 X-19.8037 Y45.2103 
G01 X-19.7700 Y45.2568 
G01 X-19.6390 Y45.3878 
G01 X-19.4891 Y45.4967 
G01 X-19.3240 Y45.5809 
G01 X-19.1478 Y45.6381 
G01 X-18.9648 Y45.6671 
G01 X-18.5003 Y45.6671 
G01 X-18.5003 Y45.7511 
G01 X-18.9547 Y45.7511 
G00 Z2.0000 
G00 X-15.0001 Y9.4034 
G01 Z-0.1000 F254.00 
G01 X-15.1596 Y9.2968 
G01 X-15.3368 Y9.2234 
G01 X-15.5250 Y9.1860 
G01 X-15.7894 Y9.1860 
G01 X-15.7894 Y9.1019 
G01 X-15.5515 Y9.1019 
G01 X-15.4137 Y9.1200 
G01 X-15.2801 Y9.1558 
G01 X-15.1520 Y9.2089 
G01 X-15.0318 Y9.2783 
G01 X-14.9217 Y9.3627 
G01 X-14.8450 Y9.4394 
G01 X-14.9641 Y9.4394 
G01 X-15.0001 Y9.4034 
G00 Z2.0000 
G00 X-18.0980 Y9.3627 
G01 Z-0.1000 F254.00 
G01 X-17.9880 Y9.2783 
G01 X-17.8678 Y9.2089 
G01 X-17.7397 Y9.1558 
G01 X-17.6061 Y9.1200 
G01 X-17.4683 Y9.1019 
G01 X-17.2303 Y9.1019 
G01 X-17.2303 Y9.1860 
G01 X-17.4949 Y9.1860 
G01 X-17.6831 Y9.2234 
G01 X-17.8603 Y9.2968 
G01 X-18.0198 Y9.4034 
G01 X-18.0558 Y9.4394 
G01 X-18.1748 Y9.4394 
G01 X-18.0980 Y9.3627 
G00 Z2.0000 
G00 X-26.6644 Y9.3419 
G01 Z-0.1000 F254.00 
G01 X-26.8324 Y9.2723 
G01 X-27.0108 Y9.2368 
G01 X-27.2194 Y9.2368 
G01 X-27.2194 Y9.1527 
G01 X-27.0359 Y9.1527 
G01 X-26.9046 Y9.1700 
G01 X-26.7770 Y9.2041 
G01 X-26.6551 Y9.2546 
G01 X-26.5411 Y9.3205 
G01 X-26.4361 Y9.4010 
G01 X-26.3977 Y9.4394 
G01 X-26.5186 Y9.4394 
G01 X-26.6644 Y9.3419 
G00 Z2.0000 
G00 X-28.8691 Y9.2368 
G01 Z-0.1000 F254.00 
G01 X-29.0475 Y9.2723 
G01 X-29.2155 Y9.3419 
G01 X-29.3613 Y9.4394 
G01 X-29.4821 Y9.4394 
G01 X-29.4437 Y9.4010 
G01 X-29.3387 Y9.3205 
G01 X-29.2247 Y9.2546 
G01 X-29.1028 Y9.2041 
G01 X-28.9752 Y9.1700 
G01 X-28.8438 Y9.1527 
G01 X-28.6603 Y9.1527 
G01 X-28.6603 Y9.2368 
G01 X-28.8691 Y9.2368 
G00 Z2.0000 
G00 X-39.3253 Y15.7894 
G01 Z-0.1000 F254.00 
G01 X-39.4443 Y15.7894 
G01 X-39.9194 Y15.3143 
G01 X-39.9194 Y15.1953 
G01 X-39.3253 Y15.7894 
G00 Z2.0000 
G00 X-41.3603 Y15.1952 
G01 Z-0.1000 F254.00 
G01 X-41.3603 Y15.3141 
G01 X-41.8356 Y15.7894 
G01 X-41.9545 Y15.7894 
G01 X-41.3603 Y15.1952 
G00 Z2.0000 
G00 X-41.8358 Y17.2303 
G01 Z-0.1000 F254.00 
G01 X-41.3603 Y17.7058 
G01 X-41.3603 Y17.8245 
G01 X-41.9546 Y17.2303 
G01 X-41.8358 Y17.2303 
G00 Z2.0000 
G00 X-41.8355 Y19.5994 
G01 Z-0.1000 F254.00 
G01 X-41.9545 Y19.5994 
G01 X-41.3603 Y19.0052 
G01 X-41.3603 Y19.1242 
G01 X-41.8355 Y19.5994 
G00 Z2.0000 
G00 X-38.0071 Y10.9424 
G01 Z-0.1000 F254.00 
G01 X-38.0071 Y11.9175 
G01 X-37.5503 Y12.3742 
G01 X-37.5503 Y12.6246 
G01 X-37.5996 Y12.6148 
G01 X-37.6693 Y12.6008 
G01 X-37.8112 Y12.6008 
G01 X-37.8117 Y12.6008 
G01 X-37.8735 Y12.6131 
G01 X-37.9503 Y12.6283 
G01 X-38.0813 Y12.6825 
G01 X-38.0816 Y12.6828 
G01 X-38.0818 Y12.6828 
G01 X-38.1393 Y12.7213 
G01 X-38.1993 Y12.7613 
G01 X-38.1994 Y12.7614 
G01 X-38.1997 Y12.7616 
G01 X-38.2856 Y12.8476 
G01 X-38.2996 Y12.8615 
G01 X-38.2996 Y12.8616 
G01 X-38.6371 Y13.1991 
G01 X-40.1027 Y13.1991 
G01 X-41.0641 Y12.2378 
G01 X-41.0994 Y12.1988 
G01 X-41.1133 Y12.1885 
G01 X-41.1260 Y12.1758 
G01 X-41.1713 Y12.1456 
G01 X-41.2133 Y12.1144 
G01 X-41.2289 Y12.1071 
G01 X-41.2439 Y12.0970 
G01 X-41.2938 Y12.0764 
G01 X-41.3415 Y12.0538 
G01 X-41.3588 Y12.0495 
G01 X-41.3749 Y12.0428 
G01 X-41.4271 Y12.0324 
G01 X-42.6936 Y11.7158 
G01 X-42.7097 Y11.7091 
G01 X-42.7618 Y11.6988 
G01 X-42.8139 Y11.6857 
G01 X-42.8316 Y11.6849 
G01 X-42.8488 Y11.6814 
G01 X-42.9022 Y11.6814 
G01 X-42.9556 Y11.6788 
G01 X-42.9730 Y11.6814 
G01 X-42.9907 Y11.6814 
G01 X-43.0430 Y11.6919 
G01 X-43.0959 Y11.6997 
G01 X-43.1125 Y11.7057 
G01 X-43.1298 Y11.7091 
G01 X-43.1789 Y11.7295 
G01 X-43.2294 Y11.7475 
G01 X-43.2444 Y11.7566 
G01 X-43.2608 Y11.7633 
G01 X-43.3056 Y11.7933 
G01 X-43.3510 Y11.8205 
G01 X-43.3639 Y11.8322 
G01 X-43.3787 Y11.8421 
G01 X-43.4170 Y11.8805 
G01 X-43.4560 Y11.9158 
G01 X-43.4663 Y11.9297 
G01 X-43.6435 Y12.1069 
G01 X-45.2563 Y12.1069 
G01 X-46.3969 Y10.9663 
G01 X-46.3969 Y9.3535 
G01 X-45.3833 Y8.3399 
G01 X-43.5165 Y8.3399 
G01 X-42.4207 Y9.4358 
G01 X-42.3853 Y9.4748 
G01 X-42.3714 Y9.4851 
G01 X-42.3587 Y9.4978 
G01 X-42.3134 Y9.5280 
G01 X-42.2714 Y9.5592 
G01 X-42.2558 Y9.5665 
G01 X-42.2408 Y9.5766 
G01 X-42.1909 Y9.5972 
G01 X-42.1432 Y9.6198 
G01 X-42.1259 Y9.6241 
G01 X-42.1098 Y9.6308 
G01 X-42.0576 Y9.6411 
G01 X-40.9251 Y9.9243 
G01 X-40.9090 Y9.9310 
G01 X-40.8569 Y9.9413 
G01 X-40.8048 Y9.9544 
G01 X-40.7871 Y9.9552 
G01 X-40.7699 Y9.9587 
G01 X-40.7165 Y9.9587 
G01 X-40.6631 Y9.9613 
G01 X-40.6457 Y9.9587 
G01 X-40.6280 Y9.9587 
G01 X-40.5757 Y9.9482 
G01 X-40.5228 Y9.9404 
G01 X-40.5062 Y9.9344 
G01 X-40.4889 Y9.9310 
G01 X-40.4398 Y9.9106 
G01 X-40.3893 Y9.8926 
G01 X-40.3743 Y9.8835 
G01 X-40.3579 Y9.8768 
G01 X-40.3131 Y9.8468 
G01 X-40.2677 Y9.8196 
G01 X-40.2548 Y9.8078 
G01 X-40.2400 Y9.7980 
G01 X-40.2017 Y9.7596 
G01 X-40.1627 Y9.7243 
G01 X-40.1524 Y9.7104 
G01 X-40.1027 Y9.6607 
G01 X-38.6371 Y9.6607 
G01 X-38.2996 Y9.9982 
G01 X-38.2996 Y9.9983 
G01 X-38.2884 Y10.0094 
G01 X-38.1997 Y10.0982 
G01 X-38.1993 Y10.0984 
G01 X-38.1993 Y10.0985 
G01 X-38.1439 Y10.1354 
G01 X-38.0818 Y10.1770 
G01 X-38.0816 Y10.1770 
G01 X-38.0813 Y10.1773 
G01 X-37.9503 Y10.2315 
G01 X-37.8749 Y10.2464 
G01 X-37.8117 Y10.2590 
G01 X-37.6698 Y10.2590 
G01 X-37.6693 Y10.2590 
G01 X-37.6011 Y10.2453 
G01 X-37.5503 Y10.2352 
G01 X-37.5503 Y10.4856 
G01 X-38.0071 Y10.9424 
G00 Z2.0000 
G00 X-45.8049 Y9.5987 
G01 Z-0.1000 F254.00 
G01 X-45.8049 Y10.7212 
G01 X-45.0112 Y11.5149 
G01 X-43.8887 Y11.5149 
G01 X-43.3222 Y10.9483 
G01 X-40.5471 Y11.6421 
G01 X-40.5471 Y11.9175 
G01 X-39.8575 Y12.6071 
G01 X-38.8824 Y12.6071 
G01 X-38.1928 Y11.9175 
G01 X-38.1928 Y10.9424 
G01 X-38.8824 Y10.2528 
G01 X-39.8575 Y10.2528 
G01 X-40.2965 Y10.6919 
G01 X-43.0950 Y9.9923 
G01 X-43.0950 Y9.5987 
G01 X-43.8887 Y8.8050 
G01 X-45.0112 Y8.8050 
G01 X-45.8049 Y9.5987 
G00 Z2.0000 
G00 X-51.1704 Y12.0137 
G01 Z-0.1000 F254.00 
G01 X-51.2486 Y12.0920 
G01 X-51.2707 Y12.1140 
G01 X-51.3495 Y12.2319 
G01 X-51.4037 Y12.3629 
G01 X-51.4314 Y12.5020 
G01 X-51.4314 Y12.6439 
G01 X-51.4037 Y12.7830 
G01 X-51.3495 Y12.9140 
G01 X-51.2707 Y13.0319 
G01 X-51.1704 Y13.1322 
G01 X-51.0525 Y13.2110 
G01 X-50.9215 Y13.2652 
G01 X-50.7824 Y13.2929 
G01 X-50.6405 Y13.2929 
G01 X-49.9935 Y13.2929 
G01 X-48.8529 Y14.4335 
G01 X-48.8529 Y14.5318 
G01 X-48.8561 Y14.5771 
G01 X-48.8529 Y14.6025 
G01 X-48.8529 Y14.6282 
G01 X-48.8441 Y14.6722 
G01 X-48.8384 Y14.7178 
G01 X-48.8301 Y14.7426 
G01 X-48.8252 Y14.7673 
G01 X-48.8080 Y14.8089 
G01 X-48.7935 Y14.8523 
G01 X-48.7808 Y14.8745 
G01 X-48.7710 Y14.8983 
G01 X-48.7458 Y14.9359 
G01 X-48.7233 Y14.9755 
G01 X-48.7064 Y14.9949 
G01 X-48.6922 Y15.0162 
G01 X-48.6599 Y15.0484 
G01 X-48.6303 Y15.0826 
G01 X-48.6102 Y15.0981 
G01 X-48.5919 Y15.1165 
G01 X-48.5537 Y15.1420 
G01 X-48.5183 Y15.1695 
G01 X-48.4957 Y15.1808 
G01 X-48.4740 Y15.1953 
G01 X-48.4314 Y15.2129 
G01 X-48.1971 Y15.3300 
G01 X-48.1753 Y15.3446 
G01 X-48.1325 Y15.3623 
G01 X-48.0927 Y15.3822 
G01 X-48.0681 Y15.3889 
G01 X-48.0443 Y15.3988 
G01 X-48.0001 Y15.4076 
G01 X-47.9560 Y15.4197 
G01 X-47.9301 Y15.4215 
G01 X-47.9052 Y15.4265 
G01 X-47.8597 Y15.4265 
G01 X-47.8144 Y15.4297 
G01 X-47.7890 Y15.4265 
G01 X-47.6172 Y15.4265 
G01 X-47.4781 Y15.3988 
G01 X-47.3471 Y15.3446 
G01 X-47.2292 Y15.2658 
G01 X-47.1289 Y15.1655 
G01 X-46.5263 Y14.5629 
G01 X-44.9135 Y14.5629 
G01 X-43.7729 Y15.7035 
G01 X-43.7729 Y17.3163 
G01 X-44.3122 Y17.8556 
G01 X-44.3123 Y17.8556 
G01 X-44.3985 Y17.9419 
G01 X-44.4126 Y17.9559 
G01 X-44.4136 Y17.9575 
G01 X-44.4914 Y18.0738 
G01 X-44.5449 Y18.2033 
G01 X-44.5456 Y18.2048 
G01 X-44.5733 Y18.3439 
G01 X-44.5733 Y18.4858 
G01 X-44.5717 Y18.4936 
G01 X-44.5456 Y18.6249 
G01 X-44.4929 Y18.7521 
G01 X-44.4914 Y18.7559 
G01 X-44.4126 Y18.8738 
G01 X-44.3123 Y18.9741 
G01 X-43.7729 Y19.5135 
G01 X-43.7729 Y21.1263 
G01 X-44.9135 Y22.2669 
G01 X-46.5263 Y22.2669 
G01 X-47.2292 Y21.5640 
G01 X-47.3471 Y21.4852 
G01 X-47.4781 Y21.4310 
G01 X-47.6172 Y21.4033 
G01 X-47.7591 Y21.4033 
G01 X-48.9026 Y21.4033 
G01 X-49.0417 Y21.4310 
G01 X-49.1727 Y21.4852 
G01 X-49.2906 Y21.5640 
G01 X-49.3909 Y21.6643 
G01 X-49.5558 Y21.8292 
G01 X-49.6346 Y21.9471 
G01 X-49.6888 Y22.0781 
G01 X-49.7165 Y22.2172 
G01 X-49.7165 Y22.3591 
G01 X-49.7165 Y23.8421 
G01 X-49.7165 Y24.3454 
G01 X-49.8813 Y24.7436 
G01 X-50.1862 Y25.0485 
G01 X-50.5844 Y25.2133 
G01 X-51.2519 Y25.2133 
G01 X-51.3910 Y25.2410 
G01 X-51.5220 Y25.2952 
G01 X-51.6399 Y25.3740 
G01 X-51.7402 Y25.4743 
G01 X-51.8190 Y25.5922 
G01 X-51.8732 Y25.7232 
G01 X-51.8886 Y25.8007 
G01 X-52.2122 Y25.8816 
G01 X-52.7787 Y25.3150 
G01 X-53.9012 Y25.3150 
G01 X-54.5355 Y25.9494 
G01 X-55.5698 Y25.9494 
G01 X-55.7286 Y25.9494 
G01 X-55.8744 Y25.8519 
G01 X-56.0424 Y25.7823 
G01 X-56.2208 Y25.7468 
G01 X-58.0791 Y25.7468 
G01 X-58.2575 Y25.7823 
G01 X-58.4255 Y25.8519 
G01 X-58.5713 Y25.9494 
G01 X-58.7733 Y25.9494 
G01 X-58.7689 Y25.9160 
G01 X-58.7598 Y25.8702 
G01 X-58.7598 Y25.8466 
G01 X-58.7567 Y25.8231 
G01 X-58.7598 Y25.7759 
G01 X-58.7598 Y25.7283 
G01 X-58.7645 Y25.7049 
G01 X-58.7660 Y25.6815 
G01 X-58.7783 Y25.6357 
G01 X-58.7875 Y25.5892 
G01 X-58.7964 Y25.5677 
G01 X-58.8026 Y25.5445 
G01 X-58.8238 Y25.5017 
G01 X-58.8417 Y25.4582 
G01 X-58.8548 Y25.4386 
G01 X-58.8653 Y25.4173 
G01 X-58.8941 Y25.3798 
G01 X-58.9205 Y25.3403 
G01 X-58.9375 Y25.3234 
G01 X-58.9517 Y25.3048 
G01 X-58.9867 Y25.2741 
G01 X-59.2727 Y24.9882 
G01 X-59.5033 Y24.4313 
G01 X-59.5033 Y23.8285 
G01 X-59.2488 Y23.2141 
G01 X-59.2455 Y23.2093 
G01 X-59.2436 Y23.2049 
G01 X-59.2410 Y23.2010 
G01 X-59.2156 Y23.1395 
G01 X-59.1896 Y23.0790 
G01 X-59.1886 Y23.0744 
G01 X-59.1868 Y23.0700 
G01 X-59.1737 Y23.0038 
G01 X-59.1601 Y22.9402 
G01 X-59.1601 Y22.9356 
G01 X-59.1591 Y22.9309 
G01 X-59.1591 Y22.8657 
G01 X-59.1582 Y22.7984 
G01 X-59.1591 Y22.7936 
G01 X-59.1591 Y22.7890 
G01 X-59.1716 Y22.7264 
G01 X-59.1841 Y22.6589 
G01 X-59.1859 Y22.6544 
G01 X-59.1868 Y22.6499 
G01 X-59.2126 Y22.5877 
G01 X-59.2367 Y22.5272 
G01 X-59.2391 Y22.5236 
G01 X-59.2410 Y22.5189 
G01 X-59.2472 Y22.5097 
G01 X-59.5033 Y21.8913 
G01 X-59.5033 Y21.2885 
G01 X-59.2489 Y20.6741 
G01 X-59.2455 Y20.6693 
G01 X-59.2437 Y20.6649 
G01 X-59.2410 Y20.6610 
G01 X-59.2156 Y20.5995 
G01 X-59.1896 Y20.5390 
G01 X-59.1887 Y20.5344 
G01 X-59.1868 Y20.5300 
G01 X-59.1737 Y20.4638 
G01 X-59.1601 Y20.4002 
G01 X-59.1601 Y20.3956 
G01 X-59.1591 Y20.3909 
G01 X-59.1591 Y20.3257 
G01 X-59.1582 Y20.2584 
G01 X-59.1591 Y20.2536 
G01 X-59.1591 Y20.2490 
G01 X-59.1716 Y20.1864 
G01 X-59.1841 Y20.1189 
G01 X-59.1859 Y20.1144 
G01 X-59.1868 Y20.1099 
G01 X-59.2126 Y20.0477 
G01 X-59.2367 Y19.9872 
G01 X-59.2391 Y19.9836 
G01 X-59.2410 Y19.9789 
G01 X-59.2472 Y19.9697 
G01 X-59.5033 Y19.3513 
G01 X-59.5033 Y18.7485 
G01 X-59.2489 Y18.1341 
G01 X-59.2455 Y18.1293 
G01 X-59.2437 Y18.1249 
G01 X-59.2410 Y18.1210 
G01 X-59.2156 Y18.0595 
G01 X-59.1896 Y17.9990 
G01 X-59.1887 Y17.9944 
G01 X-59.1868 Y17.9900 
G01 X-59.1737 Y17.9238 
G01 X-59.1601 Y17.8602 
G01 X-59.1601 Y17.8556 
G01 X-59.1591 Y17.8509 
G01 X-59.1591 Y17.7857 
G01 X-59.1582 Y17.7184 
G01 X-59.1591 Y17.7136 
G01 X-59.1591 Y17.7090 
G01 X-59.1716 Y17.6464 
G01 X-59.1841 Y17.5789 
G01 X-59.1859 Y17.5744 
G01 X-59.1868 Y17.5699 
G01 X-59.2126 Y17.5077 
G01 X-59.2367 Y17.4472 
G01 X-59.2391 Y17.4436 
G01 X-59.2410 Y17.4389 
G01 X-59.2472 Y17.4297 
G01 X-59.5033 Y16.8113 
G01 X-59.5033 Y16.2085 
G01 X-59.2489 Y15.5941 
G01 X-59.2455 Y15.5893 
G01 X-59.2437 Y15.5849 
G01 X-59.2410 Y15.5810 
G01 X-59.2156 Y15.5195 
G01 X-59.1896 Y15.4590 
G01 X-59.1887 Y15.4544 
G01 X-59.1868 Y15.4500 
G01 X-59.1737 Y15.3838 
G01 X-59.1601 Y15.3202 
G01 X-59.1601 Y15.3156 
G01 X-59.1591 Y15.3109 
G01 X-59.1591 Y15.2457 
G01 X-59.1582 Y15.1784 
G01 X-59.1591 Y15.1736 
G01 X-59.1591 Y15.1690 
G01 X-59.1716 Y15.1064 
G01 X-59.1841 Y15.0389 
G01 X-59.1860 Y15.0344 
G01 X-59.1868 Y15.0299 
G01 X-59.2126 Y14.9677 
G01 X-59.2367 Y14.9072 
G01 X-59.2391 Y14.9036 
G01 X-59.2410 Y14.8989 
G01 X-59.2472 Y14.8897 
G01 X-59.5033 Y14.2713 
G01 X-59.5033 Y13.6685 
G01 X-59.2489 Y13.0541 
G01 X-59.2455 Y13.0493 
G01 X-59.2437 Y13.0449 
G01 X-59.2410 Y13.0410 
G01 X-59.2156 Y12.9795 
G01 X-59.1896 Y12.9190 
G01 X-59.1887 Y12.9144 
G01 X-59.1868 Y12.9100 
G01 X-59.1737 Y12.8438 
G01 X-59.1601 Y12.7802 
G01 X-59.1601 Y12.7756 
G01 X-59.1591 Y12.7709 
G01 X-59.1591 Y12.7057 
G01 X-59.1582 Y12.6384 
G01 X-59.1591 Y12.6336 
G01 X-59.1591 Y12.6290 
G01 X-59.1716 Y12.5664 
G01 X-59.1841 Y12.4989 
G01 X-59.1860 Y12.4944 
G01 X-59.1868 Y12.4899 
G01 X-59.2126 Y12.4277 
G01 X-59.2367 Y12.3672 
G01 X-59.2391 Y12.3636 
G01 X-59.2410 Y12.3589 
G01 X-59.2472 Y12.3497 
G01 X-59.5033 Y11.7314 
G01 X-59.5033 Y11.1285 
G01 X-59.2727 Y10.5716 
G01 X-58.8464 Y10.1453 
G01 X-58.2895 Y9.9147 
G01 X-56.0106 Y9.9147 
G01 X-55.9940 Y9.9216 
G01 X-55.9762 Y9.9251 
G01 X-55.9596 Y9.9311 
G01 X-55.9068 Y9.9389 
G01 X-55.8549 Y9.9493 
G01 X-55.8372 Y9.9493 
G01 X-55.8193 Y9.9520 
G01 X-55.7664 Y9.9494 
G01 X-55.7130 Y9.9495 
G01 X-55.6952 Y9.9459 
G01 X-55.6776 Y9.9451 
G01 X-55.6268 Y9.9324 
G01 X-55.5739 Y9.9219 
G01 X-55.5573 Y9.9150 
G01 X-54.4621 Y9.6411 
G01 X-54.4100 Y9.6308 
G01 X-54.3939 Y9.6241 
G01 X-54.3766 Y9.6198 
G01 X-54.3288 Y9.5972 
G01 X-54.2790 Y9.5766 
G01 X-54.2640 Y9.5666 
G01 X-54.2484 Y9.5592 
G01 X-54.2060 Y9.5278 
G01 X-54.1611 Y9.4978 
G01 X-54.1487 Y9.4853 
G01 X-54.1344 Y9.4748 
G01 X-54.0984 Y9.4351 
G01 X-53.0033 Y8.3399 
G01 X-51.1365 Y8.3399 
G01 X-50.1229 Y9.3535 
G01 X-50.1229 Y10.9663 
G01 X-51.1704 Y12.0137 
G00 Z2.0000 
G00 X-53.4249 Y9.5987 
G01 Z-0.1000 F254.00 
G01 X-53.4249 Y9.9923 
G01 X-55.8854 Y10.6074 
G01 X-56.0424 Y10.5423 
G01 X-56.2208 Y10.5068 
G01 X-58.0791 Y10.5068 
G01 X-58.2575 Y10.5423 
G01 X-58.4255 Y10.6119 
G01 X-58.5766 Y10.7129 
G01 X-58.7052 Y10.8415 
G01 X-58.8062 Y10.9926 
G01 X-58.8758 Y11.1606 
G01 X-58.9113 Y11.3390 
G01 X-58.9113 Y11.5209 
G01 X-58.8758 Y11.6993 
G01 X-58.8062 Y11.8673 
G01 X-58.7052 Y12.0184 
G01 X-58.5766 Y12.1470 
G01 X-58.4255 Y12.2480 
G01 X-58.2575 Y12.3176 
G01 X-58.0791 Y12.3531 
G01 X-56.2208 Y12.3531 
G01 X-56.0424 Y12.3176 
G01 X-55.8744 Y12.2480 
G01 X-55.7233 Y12.1470 
G01 X-55.5947 Y12.0184 
G01 X-55.4937 Y11.8673 
G01 X-55.4241 Y11.6993 
G01 X-55.3886 Y11.5209 
G01 X-55.3886 Y11.4960 
G01 X-53.1977 Y10.9483 
G01 X-52.6312 Y11.5149 
G01 X-51.5087 Y11.5149 
G01 X-50.7150 Y10.7212 
G01 X-50.7150 Y9.5987 
G01 X-51.5087 Y8.8050 
G01 X-52.6312 Y8.8050 
G01 X-53.4249 Y9.5987 
G00 Z2.0000 
G00 X-47.0749 Y15.9487 
G01 Z-0.1000 F254.00 
G01 X-47.0749 Y16.0186 
G01 X-48.1439 Y16.0186 
G01 X-49.4450 Y15.3681 
G01 X-49.4450 Y14.6787 
G01 X-50.2387 Y13.8850 
G01 X-51.3612 Y13.8850 
G01 X-52.1549 Y14.6787 
G01 X-52.1549 Y14.7486 
G01 X-53.4047 Y14.7486 
G01 X-53.5296 Y14.7821 
G01 X-53.6417 Y14.8468 
G01 X-53.7331 Y14.9382 
G01 X-53.7978 Y15.0503 
G01 X-53.8313 Y15.1752 
G01 X-53.8313 Y15.3047 
G01 X-53.8313 Y21.0986 
G01 X-55.5298 Y21.0986 
G01 X-55.5947 Y21.0015 
G01 X-55.7233 Y20.8729 
G01 X-55.8744 Y20.7719 
G01 X-56.0424 Y20.7023 
G01 X-56.2208 Y20.6668 
G01 X-58.0791 Y20.6668 
G01 X-58.2575 Y20.7023 
G01 X-58.4255 Y20.7719 
G01 X-58.5766 Y20.8729 
G01 X-58.7052 Y21.0015 
G01 X-58.8062 Y21.1526 
G01 X-58.8758 Y21.3206 
G01 X-58.9113 Y21.4990 
G01 X-58.9113 Y21.6809 
G01 X-58.8758 Y21.8593 
G01 X-58.8062 Y22.0273 
G01 X-58.7052 Y22.1784 
G01 X-58.5766 Y22.3070 
G01 X-58.4255 Y22.4080 
G01 X-58.2575 Y22.4776 
G01 X-58.0791 Y22.5131 
G01 X-56.2208 Y22.5131 
G01 X-56.0424 Y22.4776 
G01 X-55.8744 Y22.4080 
G01 X-55.7233 Y22.3070 
G01 X-55.5947 Y22.1784 
G01 X-55.5298 Y22.0813 
G01 X-53.4047 Y22.0813 
G01 X-53.2752 Y22.0813 
G01 X-53.1503 Y22.0478 
G01 X-53.0382 Y21.9831 
G01 X-52.9468 Y21.8917 
G01 X-52.8821 Y21.7796 
G01 X-52.8486 Y21.6547 
G01 X-52.8486 Y15.7313 
G01 X-52.1549 Y15.7313 
G01 X-52.1549 Y15.8012 
G01 X-51.3612 Y16.5949 
G01 X-50.2387 Y16.5949 
G01 X-49.8887 Y16.2449 
G01 X-48.4917 Y16.9435 
G01 X-48.4496 Y16.9678 
G01 X-48.4355 Y16.9715 
G01 X-48.4219 Y16.9784 
G01 X-48.3723 Y16.9885 
G01 X-48.3247 Y17.0013 
G01 X-48.3097 Y17.0013 
G01 X-48.2951 Y17.0043 
G01 X-48.2454 Y17.0013 
G01 X-47.0749 Y17.0013 
G01 X-47.0749 Y17.0712 
G01 X-46.2812 Y17.8649 
G01 X-45.1587 Y17.8649 
G01 X-44.3650 Y17.0712 
G01 X-44.3650 Y15.9487 
G01 X-45.1587 Y15.1550 
G01 X-46.2812 Y15.1550 
G01 X-47.0749 Y15.9487 
G00 Z2.0000 
G00 X-52.1549 Y19.7587 
G01 Z-0.1000 F254.00 
G01 X-52.1549 Y20.8812 
G01 X-51.3612 Y21.6749 
G01 X-51.2913 Y21.6749 
G01 X-51.2913 Y23.6386 
G01 X-55.5298 Y23.6386 
G01 X-55.5947 Y23.5415 
G01 X-55.7233 Y23.4129 
G01 X-55.8744 Y23.3119 
G01 X-56.0424 Y23.2423 
G01 X-56.2208 Y23.2068 
G01 X-58.0791 Y23.2068 
G01 X-58.2575 Y23.2423 
G01 X-58.4255 Y23.3119 
G01 X-58.5766 Y23.4129 
G01 X-58.7052 Y23.5415 
G01 X-58.8062 Y23.6926 
G01 X-58.8758 Y23.8606 
G01 X-58.9113 Y24.0390 
G01 X-58.9113 Y24.2209 
G01 X-58.8758 Y24.3993 
G01 X-58.8062 Y24.5673 
G01 X-58.7052 Y24.7184 
G01 X-58.5766 Y24.8470 
G01 X-58.4255 Y24.9480 
G01 X-58.2575 Y25.0176 
G01 X-58.0791 Y25.0531 
G01 X-56.2208 Y25.0531 
G01 X-56.0424 Y25.0176 
G01 X-55.8744 Y24.9480 
G01 X-55.7233 Y24.8470 
G01 X-55.5947 Y24.7184 
G01 X-55.5298 Y24.6213 
G01 X-50.7352 Y24.6213 
G01 X-50.6103 Y24.5878 
G01 X-50.4982 Y24.5231 
G01 X-50.4068 Y24.4317 
G01 X-50.3421 Y24.3196 
G01 X-50.3086 Y24.1947 
G01 X-50.3086 Y24.0652 
G01 X-50.3086 Y21.6749 
G01 X-50.2387 Y21.6749 
G01 X-49.4450 Y20.8812 
G01 X-49.4450 Y20.8113 
G01 X-47.0749 Y20.8113 
G01 X-47.0749 Y20.8812 
G01 X-46.2812 Y21.6749 
G01 X-45.1587 Y21.6749 
G01 X-44.3650 Y20.8812 
G01 X-44.3650 Y19.7587 
G01 X-45.1587 Y18.9650 
G01 X-46.2812 Y18.9650 
G01 X-47.0749 Y19.7587 
G01 X-47.0749 Y19.8286 
G01 X-49.4450 Y19.8286 
G01 X-49.4450 Y19.7587 
G01 X-50.2387 Y18.9650 
G01 X-51.3612 Y18.9650 
G01 X-52.1549 Y19.7587 
G00 Z2.0000 
G00 X-58.0791 Y14.8931 
G01 Z-0.1000 F254.00 
G01 X-56.2208 Y14.8931 
G01 X-56.0424 Y14.8576 
G01 X-55.8744 Y14.7880 
G01 X-55.7233 Y14.6870 
G01 X-55.5947 Y14.5584 
G01 X-55.4937 Y14.4073 
G01 X-55.4241 Y14.2393 
G01 X-55.3886 Y14.0609 
G01 X-55.3886 Y13.8790 
G01 X-55.4241 Y13.7006 
G01 X-55.4937 Y13.5326 
G01 X-55.5947 Y13.3815 
G01 X-55.7233 Y13.2529 
G01 X-55.8744 Y13.1519 
G01 X-56.0424 Y13.0823 
G01 X-56.2208 Y13.0468 
G01 X-58.0791 Y13.0468 
G01 X-58.2575 Y13.0823 
G01 X-58.4255 Y13.1519 
G01 X-58.5766 Y13.2529 
G01 X-58.7052 Y13.3815 
G01 X-58.8062 Y13.5326 
G01 X-58.8758 Y13.7006 
G01 X-58.9113 Y13.8790 
G01 X-58.9113 Y14.0609 
G01 X-58.8758 Y14.2393 
G01 X-58.8062 Y14.4073 
G01 X-58.7052 Y14.5584 
G01 X-58.5766 Y14.6870 
G01 X-58.4255 Y14.7880 
G01 X-58.2575 Y14.8576 
G01 X-58.0791 Y14.8931 
G00 Z2.0000 
G00 X-58.0791 Y17.4331 
G01 Z-0.1000 F254.00 
G01 X-56.2208 Y17.4331 
G01 X-56.0424 Y17.3976 
G01 X-55.8744 Y17.3280 
G01 X-55.7233 Y17.2270 
G01 X-55.5947 Y17.0984 
G01 X-55.4937 Y16.9473 
G01 X-55.4241 Y16.7793 
G01 X-55.3886 Y16.6009 
G01 X-55.3886 Y16.4190 
G01 X-55.4241 Y16.2406 
G01 X-55.4937 Y16.0726 
G01 X-55.5947 Y15.9215 
G01 X-55.7233 Y15.7929 
G01 X-55.8744 Y15.6919 
G01 X-56.0424 Y15.6223 
G01 X-56.2208 Y15.5868 
G01 X-58.0791 Y15.5868 
G01 X-58.2575 Y15.6223 
G01 X-58.4255 Y15.6919 
G01 X-58.5766 Y15.7929 
G01 X-58.7052 Y15.9215 
G01 X-58.8062 Y16.0726 
G01 X-58.8758 Y16.2406 
G01 X-58.9113 Y16.4190 
G01 X-58.9113 Y16.6009 
G01 X-58.8758 Y16.7793 
G01 X-58.8062 Y16.9473 
G01 X-58.7052 Y17.0984 
G01 X-58.5766 Y17.2270 
G01 X-58.4255 Y17.3280 
G01 X-58.2575 Y17.3976 
G01 X-58.0791 Y17.4331 
G00 Z2.0000 
G00 X-58.0791 Y19.9731 
G01 Z-0.1000 F254.00 
G01 X-56.2208 Y19.9731 
G01 X-56.0424 Y19.9376 
G01 X-55.8744 Y19.8680 
G01 X-55.7233 Y19.7670 
G01 X-55.5947 Y19.6384 
G01 X-55.4937 Y19.4873 
G01 X-55.4241 Y19.3193 
G01 X-55.3886 Y19.1409 
G01 X-55.3886 Y18.9590 
G01 X-55.4241 Y18.7806 
G01 X-55.4937 Y18.6126 
G01 X-55.5947 Y18.4615 
G01 X-55.7233 Y18.3329 
G01 X-55.8744 Y18.2319 
G01 X-56.0424 Y18.1623 
G01 X-56.2208 Y18.1268 
G01 X-58.0791 Y18.1268 
G01 X-58.2575 Y18.1623 
G01 X-58.4255 Y18.2319 
G01 X-58.5766 Y18.3329 
G01 X-58.7052 Y18.4615 
G01 X-58.8062 Y18.6126 
G01 X-58.8758 Y18.7806 
G01 X-58.9113 Y18.9590 
G01 X-58.9113 Y19.1409 
G01 X-58.8758 Y19.3193 
G01 X-58.8062 Y19.4873 
G01 X-58.7052 Y19.6384 
G01 X-58.5766 Y19.7670 
G01 X-58.4255 Y19.8680 
G01 X-58.2575 Y19.9376 
G01 X-58.0791 Y19.9731 
G00 Z2.0000 
G00 X-36.1094 Y12.3740 
G01 Z-0.1000 F254.00 
G01 X-35.8857 Y12.1503 
G01 X-35.7667 Y12.1503 
G01 X-36.1094 Y12.4930 
G01 X-36.1094 Y12.3740 
G00 Z2.0000 
G00 X-35.9440 Y10.6513 
G01 Z-0.1000 F254.00 
G01 X-35.8250 Y10.6513 
G01 X-35.7668 Y10.7094 
G01 X-35.8859 Y10.7094 
G01 X-35.9440 Y10.6513 
G00 Z2.0000 
G00 X-39.4441 Y17.2303 
G01 Z-0.1000 F254.00 
G01 X-39.3252 Y17.2303 
G01 X-39.9194 Y17.8244 
G01 X-39.9194 Y17.7056 
G01 X-39.4441 Y17.2303 
G00 Z2.0000 
G00 X-23.4083 Y36.0563 
G01 Z-0.1000 F254.00 
G01 X-23.5141 Y36.1173 
G01 X-23.6268 Y36.1640 
G01 X-23.6386 Y36.1672 
G01 X-23.6386 Y36.0779 
G01 X-23.5255 Y36.0311 
G01 X-23.4804 Y36.0009 
G01 X-23.3362 Y36.0009 
G01 X-23.4083 Y36.0563 
G00 Z2.0000 
G00 X-42.3973 Y47.8517 
G01 Z-0.1000 F254.00 
G01 X-42.4451 Y47.8715 
G01 X-42.4594 Y47.8572 
G01 X-42.4594 Y47.7382 
G01 X-42.3617 Y47.8359 
G01 X-42.3973 Y47.8517 
G00 Z2.0000 
G00 X-41.8609 Y49.3272 
G01 Z-0.1000 F254.00 
G01 X-41.7430 Y49.4060 
G01 X-41.6120 Y49.4602 
G01 X-41.4729 Y49.4879 
G01 X-41.3310 Y49.4879 
G01 X-38.6407 Y49.4879 
G01 X-38.6406 Y49.4879 
G01 X-38.4987 Y49.4879 
G01 X-38.3596 Y49.4602 
G01 X-38.2286 Y49.4060 
G01 X-38.1107 Y49.3272 
G01 X-38.0254 Y49.2419 
G01 X-37.5813 Y48.9855 
G01 X-37.0864 Y48.8529 
G01 X-36.5734 Y48.8529 
G01 X-36.0785 Y48.9855 
G01 X-35.6344 Y49.2419 
G01 X-35.2719 Y49.6044 
G01 X-35.0155 Y50.0485 
G01 X-34.8829 Y50.5434 
G01 X-34.8829 Y51.0564 
G01 X-35.0155 Y51.5513 
G01 X-35.2719 Y51.9954 
G01 X-35.6344 Y52.3579 
G01 X-36.0785 Y52.6143 
G01 X-36.5734 Y52.7469 
G01 X-37.0864 Y52.7469 
G01 X-37.5813 Y52.6143 
G01 X-38.0255 Y52.3579 
G01 X-38.1107 Y52.2726 
G01 X-38.2286 Y52.1938 
G01 X-38.3596 Y52.1396 
G01 X-38.4987 Y52.1119 
G01 X-38.6406 Y52.1119 
G01 X-42.7961 Y52.1119 
G01 X-43.7056 Y52.1119 
G01 X-47.8177 Y52.1119 
G01 X-47.8178 Y52.1119 
G01 X-47.9489 Y52.1381 
G01 X-47.9568 Y52.1396 
G01 X-48.0878 Y52.1938 
G01 X-48.2057 Y52.2726 
G01 X-48.3060 Y52.3729 
G01 X-48.3060 Y52.3730 
G01 X-48.7148 Y52.7819 
G01 X-49.2437 Y53.0009 
G01 X-49.8161 Y53.0009 
G01 X-50.3451 Y52.7818 
G01 X-50.6614 Y52.4654 
G01 X-50.6922 Y52.4302 
G01 X-50.7108 Y52.4160 
G01 X-50.7276 Y52.3991 
G01 X-50.7669 Y52.3729 
G01 X-50.8047 Y52.3438 
G01 X-50.8262 Y52.3333 
G01 X-50.8455 Y52.3203 
G01 X-50.8888 Y52.3024 
G01 X-50.9319 Y52.2811 
G01 X-50.9549 Y52.2750 
G01 X-50.9765 Y52.2660 
G01 X-51.0234 Y52.2567 
G01 X-51.0689 Y52.2445 
G01 X-51.0922 Y52.2430 
G01 X-51.1156 Y52.2383 
G01 X-51.1633 Y52.2383 
G01 X-51.2105 Y52.2352 
G01 X-51.2340 Y52.2383 
G01 X-51.2575 Y52.2383 
G01 X-51.3036 Y52.2475 
G01 X-51.3494 Y52.2535 
G01 X-51.3494 Y52.0081 
G01 X-51.3194 Y51.9632 
G01 X-51.2555 Y51.8090 
G01 X-51.2230 Y51.6454 
G01 X-51.2230 Y49.9545 
G01 X-51.2555 Y49.7909 
G01 X-51.2723 Y49.7504 
G01 X-49.3439 Y47.8221 
G01 X-48.8212 Y48.3449 
G01 X-47.7071 Y48.3449 
G01 X-47.6822 Y48.4700 
G01 X-47.6614 Y48.5201 
G01 X-47.6764 Y48.5564 
G01 X-47.6771 Y48.5579 
G01 X-47.7048 Y48.6970 
G01 X-47.7048 Y48.8389 
G01 X-47.7032 Y48.8467 
G01 X-47.6771 Y48.9780 
G01 X-47.6244 Y49.1052 
G01 X-47.6229 Y49.1090 
G01 X-47.5441 Y49.2269 
G01 X-47.4438 Y49.3272 
G01 X-47.4422 Y49.3282 
G01 X-47.3259 Y49.4060 
G01 X-47.1964 Y49.4595 
G01 X-47.1949 Y49.4602 
G01 X-47.0558 Y49.4879 
G01 X-46.9139 Y49.4879 
G01 X-44.8869 Y49.4879 
G01 X-44.7478 Y49.4602 
G01 X-44.6168 Y49.4060 
G01 X-44.4989 Y49.3272 
G01 X-44.4060 Y49.2343 
G01 X-44.2593 Y49.2343 
G01 X-44.1963 Y49.2359 
G01 X-44.1871 Y49.2343 
G01 X-44.1779 Y49.2343 
G01 X-44.1191 Y49.2226 
G01 X-44.0565 Y49.2118 
G01 X-44.0475 Y49.2083 
G01 X-44.0388 Y49.2066 
G01 X-44.0366 Y49.2056 
G01 X-44.0362 Y49.2056 
G01 X-43.9808 Y49.1826 
G01 X-43.9216 Y49.1599 
G01 X-43.9153 Y49.1559 
G01 X-43.5834 Y49.4879 
G01 X-42.7765 Y49.4879 
G01 X-42.4445 Y49.1558 
G01 X-42.4382 Y49.1599 
G01 X-42.3791 Y49.1826 
G01 X-42.3236 Y49.2056 
G01 X-42.3232 Y49.2056 
G01 X-42.3210 Y49.2066 
G01 X-42.3123 Y49.2083 
G01 X-42.3033 Y49.2118 
G01 X-42.2406 Y49.2226 
G01 X-42.1819 Y49.2343 
G01 X-42.1727 Y49.2343 
G01 X-42.1635 Y49.2359 
G01 X-42.1004 Y49.2343 
G01 X-41.9537 Y49.2343 
G01 X-41.8609 Y49.3272 
G00 Z2.0000 
G00 X-48.6830 Y51.6454 
G01 Z-0.1000 F254.00 
G01 X-48.6830 Y51.5199 
G01 X-43.1090 Y51.5199 
G01 X-37.9816 Y51.5199 
G01 X-37.8635 Y51.6827 
G01 X-37.7127 Y51.8335 
G01 X-37.5401 Y51.9588 
G01 X-37.3501 Y52.0556 
G01 X-37.1473 Y52.1215 
G01 X-36.9366 Y52.1549 
G01 X-36.7233 Y52.1549 
G01 X-36.5126 Y52.1215 
G01 X-36.3098 Y52.0556 
G01 X-36.1198 Y51.9588 
G01 X-35.9472 Y51.8335 
G01 X-35.7964 Y51.6827 
G01 X-35.6711 Y51.5101 
G01 X-35.5743 Y51.3201 
G01 X-35.5084 Y51.1173 
G01 X-35.4750 Y50.9066 
G01 X-35.4750 Y50.6933 
G01 X-35.5084 Y50.4826 
G01 X-35.5743 Y50.2798 
G01 X-35.6711 Y50.0898 
G01 X-35.7964 Y49.9172 
G01 X-35.9472 Y49.7664 
G01 X-36.1198 Y49.6411 
G01 X-36.3098 Y49.5443 
G01 X-36.5126 Y49.4784 
G01 X-36.7233 Y49.4450 
G01 X-36.9366 Y49.4450 
G01 X-37.1473 Y49.4784 
G01 X-37.3501 Y49.5443 
G01 X-37.5401 Y49.6411 
G01 X-37.7127 Y49.7664 
G01 X-37.8635 Y49.9172 
G01 X-37.9816 Y50.0800 
G01 X-42.3199 Y50.0800 
G01 X-42.4234 Y49.9251 
G01 X-42.5591 Y49.7894 
G01 X-42.7186 Y49.6828 
G01 X-42.8958 Y49.6094 
G01 X-43.0840 Y49.5720 
G01 X-43.2759 Y49.5720 
G01 X-43.4641 Y49.6094 
G01 X-43.6413 Y49.6828 
G01 X-43.8008 Y49.7894 
G01 X-43.9365 Y49.9251 
G01 X-44.0400 Y50.0800 
G01 X-48.6830 Y50.0800 
G01 X-48.6830 Y49.9545 
G01 X-48.7155 Y49.7909 
G01 X-48.7794 Y49.6367 
G01 X-48.8721 Y49.4980 
G01 X-48.9900 Y49.3801 
G01 X-49.1287 Y49.2874 
G01 X-49.2829 Y49.2235 
G01 X-49.4465 Y49.1910 
G01 X-49.6134 Y49.1910 
G01 X-49.7770 Y49.2235 
G01 X-49.9312 Y49.2874 
G01 X-50.0699 Y49.3801 
G01 X-50.1878 Y49.4980 
G01 X-50.2805 Y49.6367 
G01 X-50.3444 Y49.7909 
G01 X-50.3769 Y49.9545 
G01 X-50.3769 Y51.6454 
G01 X-50.3444 Y51.8090 
G01 X-50.2805 Y51.9632 
G01 X-50.1878 Y52.1019 
G01 X-50.0699 Y52.2198 
G01 X-49.9312 Y52.3125 
G01 X-49.7770 Y52.3764 
G01 X-49.6134 Y52.4089 
G01 X-49.4465 Y52.4089 
G01 X-49.2829 Y52.3764 
G01 X-49.1287 Y52.3125 
G01 X-48.9900 Y52.2198 
G01 X-48.8721 Y52.1019 
G01 X-48.7794 Y51.9632 
G01 X-48.7155 Y51.8090 
G01 X-48.6830 Y51.6454 
G00 Z2.0000 
G00 X-92.7949 Y20.8812 
G01 Z-0.1000 F254.00 
G01 X-92.0012 Y21.6749 
G01 X-90.8787 Y21.6749 
G01 X-90.0850 Y20.8812 
G01 X-90.0850 Y19.7587 
G01 X-90.7200 Y19.1237 
G01 X-90.7200 Y19.1210 
G01 X-90.7200 Y19.1209 
G01 X-90.7200 Y16.6496 
G01 X-90.7099 Y16.6598 
G01 X-90.5712 Y16.7525 
G01 X-90.4170 Y16.8164 
G01 X-90.2534 Y16.8489 
G01 X-90.0865 Y16.8489 
G01 X-89.9229 Y16.8164 
G01 X-89.7687 Y16.7525 
G01 X-89.6300 Y16.6598 
G01 X-89.5121 Y16.5419 
G01 X-89.4194 Y16.4032 
G01 X-89.3555 Y16.2490 
G01 X-89.3230 Y16.0854 
G01 X-89.3230 Y14.3945 
G01 X-89.3555 Y14.2309 
G01 X-89.4194 Y14.0767 
G01 X-89.5121 Y13.9380 
G01 X-89.6300 Y13.8201 
G01 X-89.7687 Y13.7274 
G01 X-89.9229 Y13.6635 
G01 X-90.0865 Y13.6310 
G01 X-90.2534 Y13.6310 
G01 X-90.4170 Y13.6635 
G01 X-90.5712 Y13.7274 
G01 X-90.7099 Y13.8201 
G01 X-90.8278 Y13.9380 
G01 X-90.9205 Y14.0767 
G01 X-90.9844 Y14.2309 
G01 X-91.0169 Y14.3945 
G01 X-91.0169 Y14.5200 
G01 X-91.3690 Y14.5200 
G01 X-91.5109 Y14.5200 
G01 X-91.6500 Y14.5477 
G01 X-91.7810 Y14.6019 
G01 X-91.8989 Y14.6807 
G01 X-91.9992 Y14.7810 
G01 X-92.0780 Y14.8989 
G01 X-92.1322 Y15.0299 
G01 X-92.1599 Y15.1690 
G01 X-92.1599 Y18.3300 
G01 X-94.4030 Y18.3300 
G01 X-94.4030 Y18.2045 
G01 X-94.4355 Y18.0409 
G01 X-94.4994 Y17.8867 
G01 X-94.5300 Y17.8409 
G01 X-94.5300 Y13.8590 
G01 X-94.5577 Y13.7199 
G01 X-94.6119 Y13.5889 
G01 X-94.6907 Y13.4710 
G01 X-94.7910 Y13.3707 
G01 X-94.9089 Y13.2919 
G01 X-95.0399 Y13.2377 
G01 X-95.1790 Y13.2100 
G01 X-95.3209 Y13.2100 
G01 X-97.0359 Y13.2100 
G01 X-97.0699 Y13.1631 
G01 X-97.2009 Y13.0321 
G01 X-97.3508 Y12.9232 
G01 X-97.5159 Y12.8390 
G01 X-97.6921 Y12.7818 
G01 X-97.8751 Y12.7528 
G01 X-100.2448 Y12.7528 
G01 X-100.4278 Y12.7818 
G01 X-100.6040 Y12.8390 
G01 X-100.7691 Y12.9232 
G01 X-100.9190 Y13.0321 
G01 X-101.0500 Y13.1631 
G01 X-101.1589 Y13.3130 
G01 X-101.2431 Y13.4781 
G01 X-101.3003 Y13.6543 
G01 X-101.3293 Y13.8373 
G01 X-101.3293 Y14.0226 
G01 X-101.3003 Y14.2056 
G01 X-101.2431 Y14.3818 
G01 X-101.1589 Y14.5469 
G01 X-101.0500 Y14.6968 
G01 X-100.9190 Y14.8278 
G01 X-100.7691 Y14.9367 
G01 X-100.6040 Y15.0209 
G01 X-100.4278 Y15.0781 
G01 X-100.2448 Y15.1071 
G01 X-97.8751 Y15.1071 
G01 X-97.6921 Y15.0781 
G01 X-97.5159 Y15.0209 
G01 X-97.3508 Y14.9367 
G01 X-97.2009 Y14.8278 
G01 X-97.0699 Y14.6968 
G01 X-97.0359 Y14.6499 
G01 X-95.9699 Y14.6499 
G01 X-95.9699 Y17.8409 
G01 X-96.0005 Y17.8867 
G01 X-96.0644 Y18.0409 
G01 X-96.0969 Y18.2045 
G01 X-96.0969 Y19.8954 
G01 X-96.0644 Y20.0590 
G01 X-96.0005 Y20.2132 
G01 X-95.9078 Y20.3519 
G01 X-95.7899 Y20.4698 
G01 X-95.6512 Y20.5625 
G01 X-95.4970 Y20.6264 
G01 X-95.3334 Y20.6589 
G01 X-95.1665 Y20.6589 
G01 X-95.0029 Y20.6264 
G01 X-94.8487 Y20.5625 
G01 X-94.7100 Y20.4698 
G01 X-94.5921 Y20.3519 
G01 X-94.4994 Y20.2132 
G01 X-94.4355 Y20.0590 
G01 X-94.4030 Y19.8954 
G01 X-94.4030 Y19.7699 
G01 X-92.7949 Y19.7699 
G01 X-92.7949 Y20.8812 
G00 Z2.0000 
G00 X-81.3649 Y12.1387 
G01 Z-0.1000 F254.00 
G01 X-81.3649 Y13.2612 
G01 X-80.5712 Y14.0549 
G01 X-79.4487 Y14.0549 
G01 X-78.6550 Y13.2612 
G01 X-78.6550 Y13.1913 
G01 X-77.9613 Y13.1913 
G01 X-77.9613 Y14.8898 
G01 X-78.0584 Y14.9547 
G01 X-78.1870 Y15.0833 
G01 X-78.2880 Y15.2344 
G01 X-78.3576 Y15.4024 
G01 X-78.3931 Y15.5808 
G01 X-78.3931 Y17.4391 
G01 X-78.3576 Y17.6175 
G01 X-78.2880 Y17.7855 
G01 X-78.1870 Y17.9366 
G01 X-78.0584 Y18.0652 
G01 X-77.9073 Y18.1662 
G01 X-77.7393 Y18.2358 
G01 X-77.5609 Y18.2713 
G01 X-77.3790 Y18.2713 
G01 X-77.2006 Y18.2358 
G01 X-77.0326 Y18.1662 
G01 X-76.8815 Y18.0652 
G01 X-76.7529 Y17.9366 
G01 X-76.6519 Y17.7855 
G01 X-76.5823 Y17.6175 
G01 X-76.5468 Y17.4391 
G01 X-76.5468 Y15.5808 
G01 X-76.5823 Y15.4024 
G01 X-76.6519 Y15.2344 
G01 X-76.7529 Y15.0833 
G01 X-76.8815 Y14.9547 
G01 X-76.9786 Y14.8898 
G01 X-76.9786 Y12.6352 
G01 X-77.0121 Y12.5103 
G01 X-77.0768 Y12.3982 
G01 X-77.1682 Y12.3068 
G01 X-77.2803 Y12.2421 
G01 X-77.4052 Y12.2086 
G01 X-77.5347 Y12.2086 
G01 X-78.6550 Y12.2086 
G01 X-78.6550 Y12.1387 
G01 X-79.4487 Y11.3450 
G01 X-80.5712 Y11.3450 
G01 X-81.3649 Y12.1387 
G00 Z2.0000 
G00 X-80.9331 Y15.5808 
G01 Z-0.1000 F254.00 
G01 X-80.9331 Y16.0186 
G01 X-84.2430 Y16.0186 
G01 X-84.2430 Y14.3945 
G01 X-84.2755 Y14.2309 
G01 X-84.3394 Y14.0767 
G01 X-84.4321 Y13.9380 
G01 X-84.5500 Y13.8201 
G01 X-84.6887 Y13.7274 
G01 X-84.8429 Y13.6635 
G01 X-85.0065 Y13.6310 
G01 X-85.1734 Y13.6310 
G01 X-85.3370 Y13.6635 
G01 X-85.4912 Y13.7274 
G01 X-85.6299 Y13.8201 
G01 X-85.7478 Y13.9380 
G01 X-85.8405 Y14.0767 
G01 X-85.9044 Y14.2309 
G01 X-85.9369 Y14.3945 
G01 X-85.9369 Y16.0854 
G01 X-85.9044 Y16.2490 
G01 X-85.8405 Y16.4032 
G01 X-85.8099 Y16.4490 
G01 X-85.8099 Y20.3909 
G01 X-85.7822 Y20.5300 
G01 X-85.7280 Y20.6610 
G01 X-85.6492 Y20.7789 
G01 X-85.5489 Y20.8792 
G01 X-85.4310 Y20.9580 
G01 X-85.3000 Y21.0122 
G01 X-85.1609 Y21.0399 
G01 X-85.0190 Y21.0399 
G01 X-85.0162 Y21.0399 
G01 X-84.3812 Y21.6749 
G01 X-83.2587 Y21.6749 
G01 X-82.4650 Y20.8812 
G01 X-82.4650 Y19.7587 
G01 X-83.2587 Y18.9650 
G01 X-84.3700 Y18.9650 
G01 X-84.3700 Y17.0013 
G01 X-80.9331 Y17.0013 
G01 X-80.9331 Y17.4391 
G01 X-80.8976 Y17.6175 
G01 X-80.8280 Y17.7855 
G01 X-80.7270 Y17.9366 
G01 X-80.5984 Y18.0652 
G01 X-80.4473 Y18.1662 
G01 X-80.2793 Y18.2358 
G01 X-80.1009 Y18.2713 
G01 X-79.9190 Y18.2713 
G01 X-79.7406 Y18.2358 
G01 X-79.5726 Y18.1662 
G01 X-79.4215 Y18.0652 
G01 X-79.2929 Y17.9366 
G01 X-79.1919 Y17.7855 
G01 X-79.1223 Y17.6175 
G01 X-79.0868 Y17.4391 
G01 X-79.0868 Y15.5808 
G01 X-79.1223 Y15.4024 
G01 X-79.1919 Y15.2344 
G01 X-79.2929 Y15.0833 
G01 X-79.4215 Y14.9547 
G01 X-79.5726 Y14.8537 
G01 X-79.7406 Y14.7841 
G01 X-79.9190 Y14.7486 
G01 X-80.1009 Y14.7486 
G01 X-80.2793 Y14.7841 
G01 X-80.4473 Y14.8537 
G01 X-80.5984 Y14.9547 
G01 X-80.7270 Y15.0833 
G01 X-80.8280 Y15.2344 
G01 X-80.8976 Y15.4024 
G01 X-80.9331 Y15.5808 
G00 Z2.0000 
G00 X-15.5250 Y14.2660 
G01 Z-0.1000 F254.00 
G01 X-17.4949 Y14.2660 
G01 X-17.6831 Y14.3034 
G01 X-17.8603 Y14.3768 
G01 X-18.0198 Y14.4834 
G01 X-18.1555 Y14.6191 
G01 X-18.2621 Y14.7786 
G01 X-18.3355 Y14.9558 
G01 X-18.3729 Y15.1440 
G01 X-18.3729 Y15.3359 
G01 X-18.3355 Y15.5241 
G01 X-18.3083 Y15.5897 
G01 X-26.7860 Y19.8286 
G01 X-32.9746 Y19.8286 
G01 X-32.9940 Y19.8250 
G01 X-33.0396 Y19.8286 
G01 X-33.0847 Y19.8286 
G01 X-33.1035 Y19.8337 
G01 X-33.1231 Y19.8352 
G01 X-33.1660 Y19.8504 
G01 X-33.2096 Y19.8621 
G01 X-33.2264 Y19.8718 
G01 X-33.2450 Y19.8784 
G01 X-33.2824 Y19.9042 
G01 X-33.3217 Y19.9268 
G01 X-33.3355 Y19.9407 
G01 X-53.4925 Y33.7986 
G01 X-55.5299 Y33.7986 
G01 X-55.5947 Y33.7015 
G01 X-55.7233 Y33.5729 
G01 X-55.8744 Y33.4719 
G01 X-56.0424 Y33.4023 
G01 X-56.2208 Y33.3668 
G01 X-58.0791 Y33.3668 
G01 X-58.2575 Y33.4023 
G01 X-58.4255 Y33.4719 
G01 X-58.5766 Y33.5729 
G01 X-58.7052 Y33.7015 
G01 X-58.8062 Y33.8526 
G01 X-58.8758 Y34.0206 
G01 X-58.9113 Y34.1990 
G01 X-58.9113 Y34.3809 
G01 X-58.8758 Y34.5593 
G01 X-58.8062 Y34.7273 
G01 X-58.7052 Y34.8784 
G01 X-58.5766 Y35.0070 
G01 X-58.4255 Y35.1080 
G01 X-58.2575 Y35.1776 
G01 X-58.0791 Y35.2131 
G01 X-56.2208 Y35.2131 
G01 X-56.0424 Y35.1776 
G01 X-55.8744 Y35.1080 
G01 X-55.7233 Y35.0070 
G01 X-55.5947 Y34.8784 
G01 X-55.5299 Y34.7813 
G01 X-53.3853 Y34.7813 
G01 X-53.3659 Y34.7849 
G01 X-53.3203 Y34.7813 
G01 X-53.2752 Y34.7813 
G01 X-53.2564 Y34.7762 
G01 X-53.2368 Y34.7747 
G01 X-53.1939 Y34.7595 
G01 X-53.1503 Y34.7478 
G01 X-53.1335 Y34.7381 
G01 X-53.1149 Y34.7315 
G01 X-53.0775 Y34.7057 
G01 X-53.0382 Y34.6831 
G01 X-53.0244 Y34.6692 
G01 X-32.8674 Y20.8113 
G01 X-26.6845 Y20.8113 
G01 X-26.6348 Y20.8143 
G01 X-26.6202 Y20.8113 
G01 X-26.6052 Y20.8113 
G01 X-26.5576 Y20.7985 
G01 X-26.5080 Y20.7884 
G01 X-26.4944 Y20.7815 
G01 X-26.4803 Y20.7778 
G01 X-26.4382 Y20.7535 
G01 X-17.3591 Y16.2139 
G01 X-15.5250 Y16.2139 
G01 X-15.3368 Y16.1765 
G01 X-15.1596 Y16.1031 
G01 X-15.0001 Y15.9965 
G01 X-14.8644 Y15.8608 
G01 X-14.7578 Y15.7013 
G01 X-14.6844 Y15.5241 
G01 X-14.6470 Y15.3359 
G01 X-14.6470 Y15.1440 
G01 X-14.6844 Y14.9558 
G01 X-14.7578 Y14.7786 
G01 X-14.8644 Y14.6191 
G01 X-15.0001 Y14.4834 
G01 X-15.1596 Y14.3768 
G01 X-15.3368 Y14.3034 
G01 X-15.5250 Y14.2660 
G00 Z2.0000 
G00 X-15.5250 Y16.8060 
G01 Z-0.1000 F254.00 
G01 X-17.4949 Y16.8060 
G01 X-17.6831 Y16.8434 
G01 X-17.8603 Y16.9168 
G01 X-18.0198 Y17.0234 
G01 X-18.1555 Y17.1591 
G01 X-18.2621 Y17.3186 
G01 X-18.3355 Y17.4958 
G01 X-18.3729 Y17.6840 
G01 X-18.3729 Y17.8759 
G01 X-18.3355 Y18.0641 
G01 X-18.3083 Y18.1297 
G01 X-26.7860 Y22.3686 
G01 X-32.9746 Y22.3686 
G01 X-32.9940 Y22.3650 
G01 X-33.0396 Y22.3686 
G01 X-33.0847 Y22.3686 
G01 X-33.1035 Y22.3737 
G01 X-33.1231 Y22.3752 
G01 X-33.1660 Y22.3904 
G01 X-33.2096 Y22.4021 
G01 X-33.2264 Y22.4119 
G01 X-33.2450 Y22.4184 
G01 X-33.2824 Y22.4442 
G01 X-33.3217 Y22.4668 
G01 X-33.3355 Y22.4807 
G01 X-53.4925 Y36.3386 
G01 X-55.5299 Y36.3386 
G01 X-55.5947 Y36.2415 
G01 X-55.7233 Y36.1129 
G01 X-55.8744 Y36.0119 
G01 X-56.0424 Y35.9423 
G01 X-56.2208 Y35.9068 
G01 X-58.0791 Y35.9068 
G01 X-58.2575 Y35.9423 
G01 X-58.4255 Y36.0119 
G01 X-58.5766 Y36.1129 
G01 X-58.7052 Y36.2415 
G01 X-58.8062 Y36.3926 
G01 X-58.8758 Y36.5606 
G01 X-58.9113 Y36.7390 
G01 X-58.9113 Y36.9209 
G01 X-58.8758 Y37.0993 
G01 X-58.8062 Y37.2673 
G01 X-58.7052 Y37.4184 
G01 X-58.5766 Y37.5470 
G01 X-58.4255 Y37.6480 
G01 X-58.2575 Y37.7176 
G01 X-58.0791 Y37.7531 
G01 X-56.2208 Y37.7531 
G01 X-56.0424 Y37.7176 
G01 X-55.8744 Y37.6480 
G01 X-55.7233 Y37.5470 
G01 X-55.5947 Y37.4184 
G01 X-55.5299 Y37.3213 
G01 X-53.3853 Y37.3213 
G01 X-53.3659 Y37.3249 
G01 X-53.3203 Y37.3213 
G01 X-53.2752 Y37.3213 
G01 X-53.2564 Y37.3162 
G01 X-53.2368 Y37.3147 
G01 X-53.1939 Y37.2995 
G01 X-53.1503 Y37.2878 
G01 X-53.1335 Y37.2781 
G01 X-53.1149 Y37.2715 
G01 X-53.0775 Y37.2457 
G01 X-53.0382 Y37.2231 
G01 X-53.0244 Y37.2092 
G01 X-32.8674 Y23.3513 
G01 X-26.6845 Y23.3513 
G01 X-26.6348 Y23.3543 
G01 X-26.6202 Y23.3513 
G01 X-26.6052 Y23.3513 
G01 X-26.5576 Y23.3385 
G01 X-26.5080 Y23.3284 
G01 X-26.4944 Y23.3215 
G01 X-26.4803 Y23.3178 
G01 X-26.4382 Y23.2935 
G01 X-17.3591 Y18.7539 
G01 X-15.5250 Y18.7539 
G01 X-15.3368 Y18.7165 
G01 X-15.1596 Y18.6431 
G01 X-15.0001 Y18.5365 
G01 X-14.8644 Y18.4008 
G01 X-14.7578 Y18.2413 
G01 X-14.6844 Y18.0641 
G01 X-14.6470 Y17.8759 
G01 X-14.6470 Y17.6840 
G01 X-14.6844 Y17.4958 
G01 X-14.7578 Y17.3186 
G01 X-14.8644 Y17.1591 
G01 X-15.0001 Y17.0234 
G01 X-15.1596 Y16.9168 
G01 X-15.3368 Y16.8434 
G01 X-15.5250 Y16.8060 
G00 Z2.0000 
G00 X-27.0108 Y14.3168 
G01 Z-0.1000 F254.00 
G01 X-28.8691 Y14.3168 
G01 X-29.0475 Y14.3523 
G01 X-29.2155 Y14.4219 
G01 X-29.3666 Y14.5229 
G01 X-29.4952 Y14.6515 
G01 X-29.5962 Y14.8026 
G01 X-29.6658 Y14.9706 
G01 X-29.7013 Y15.1490 
G01 X-29.7013 Y15.3309 
G01 X-29.6658 Y15.5093 
G01 X-29.5962 Y15.6773 
G01 X-29.4952 Y15.8284 
G01 X-29.3666 Y15.9570 
G01 X-29.2155 Y16.0580 
G01 X-29.0475 Y16.1276 
G01 X-28.8691 Y16.1631 
G01 X-27.0108 Y16.1631 
G01 X-26.8324 Y16.1276 
G01 X-26.6644 Y16.0580 
G01 X-26.5133 Y15.9570 
G01 X-26.3847 Y15.8284 
G01 X-26.3198 Y15.7313 
G01 X-21.5252 Y15.7313 
G01 X-21.4003 Y15.6978 
G01 X-21.2882 Y15.6331 
G01 X-21.1968 Y15.5417 
G01 X-21.1321 Y15.4296 
G01 X-21.0986 Y15.3047 
G01 X-21.0986 Y15.1752 
G01 X-21.0986 Y13.1913 
G01 X-18.2420 Y13.1913 
G01 X-18.1555 Y13.3208 
G01 X-18.0198 Y13.4565 
G01 X-17.8603 Y13.5631 
G01 X-17.6831 Y13.6365 
G01 X-17.4949 Y13.6739 
G01 X-15.5250 Y13.6739 
G01 X-15.3368 Y13.6365 
G01 X-15.1596 Y13.5631 
G01 X-15.0001 Y13.4565 
G01 X-14.8644 Y13.3208 
G01 X-14.7578 Y13.1613 
G01 X-14.6844 Y12.9841 
G01 X-14.6470 Y12.7959 
G01 X-14.6470 Y12.6040 
G01 X-14.6844 Y12.4158 
G01 X-14.7578 Y12.2386 
G01 X-14.8644 Y12.0791 
G01 X-15.0001 Y11.9434 
G01 X-15.1596 Y11.8368 
G01 X-15.3368 Y11.7634 
G01 X-15.5250 Y11.7260 
G01 X-17.4949 Y11.7260 
G01 X-17.6831 Y11.7634 
G01 X-17.8603 Y11.8368 
G01 X-18.0198 Y11.9434 
G01 X-18.1555 Y12.0791 
G01 X-18.2420 Y12.2086 
G01 X-21.5252 Y12.2086 
G01 X-21.6547 Y12.2086 
G01 X-21.7796 Y12.2421 
G01 X-21.8917 Y12.3068 
G01 X-21.9831 Y12.3982 
G01 X-22.0478 Y12.5103 
G01 X-22.0813 Y12.6352 
G01 X-22.0813 Y14.7486 
G01 X-26.3198 Y14.7486 
G01 X-26.3847 Y14.6515 
G01 X-26.5133 Y14.5229 
G01 X-26.6644 Y14.4219 
G01 X-26.8324 Y14.3523 
G01 X-27.0108 Y14.3168 
G00 Z2.0000 
G00 X-27.0108 Y11.7768 
G01 Z-0.1000 F254.00 
G01 X-28.8691 Y11.7768 
G01 X-29.0475 Y11.8123 
G01 X-29.2155 Y11.8819 
G01 X-29.3666 Y11.9829 
G01 X-29.4952 Y12.1115 
G01 X-29.5601 Y12.2086 
G01 X-32.9552 Y12.2086 
G01 X-33.0847 Y12.2086 
G01 X-33.2096 Y12.2421 
G01 X-33.3217 Y12.3068 
G01 X-33.4131 Y12.3982 
G01 X-33.4778 Y12.5103 
G01 X-33.5113 Y12.6352 
G01 X-33.5113 Y17.5215 
G01 X-52.5578 Y30.6160 
G01 X-52.6200 Y30.5538 
G01 X-52.6200 Y29.1390 
G01 X-52.6477 Y28.9999 
G01 X-52.7019 Y28.8689 
G01 X-52.7807 Y28.7510 
G01 X-52.8810 Y28.6507 
G01 X-52.9989 Y28.5719 
G01 X-53.1299 Y28.5177 
G01 X-53.2690 Y28.4900 
G01 X-53.4109 Y28.4900 
G01 X-55.7277 Y28.4900 
G01 X-55.8744 Y28.3919 
G01 X-56.0424 Y28.3223 
G01 X-56.2208 Y28.2868 
G01 X-58.0791 Y28.2868 
G01 X-58.2575 Y28.3223 
G01 X-58.4255 Y28.3919 
G01 X-58.5722 Y28.4900 
G01 X-59.6190 Y28.4900 
G01 X-59.7609 Y28.4900 
G01 X-59.9000 Y28.5177 
G01 X-60.0310 Y28.5719 
G01 X-60.1489 Y28.6507 
G01 X-60.2492 Y28.7510 
G01 X-60.3280 Y28.8689 
G01 X-60.3822 Y28.9999 
G01 X-60.4099 Y29.1390 
G01 X-60.4099 Y46.9190 
G01 X-60.4099 Y47.0609 
G01 X-60.3822 Y47.2000 
G01 X-60.3280 Y47.3310 
G01 X-60.2492 Y47.4489 
G01 X-60.1489 Y47.5492 
G01 X-60.0310 Y47.6280 
G01 X-59.9000 Y47.6822 
G01 X-59.7609 Y47.7099 
G01 X-55.3299 Y47.7099 
G01 X-55.3299 Y49.5909 
G01 X-55.3605 Y49.6367 
G01 X-55.4244 Y49.7909 
G01 X-55.4569 Y49.9545 
G01 X-55.4569 Y51.6454 
G01 X-55.4244 Y51.8090 
G01 X-55.3605 Y51.9632 
G01 X-55.2678 Y52.1019 
G01 X-55.1499 Y52.2198 
G01 X-55.0112 Y52.3125 
G01 X-54.8570 Y52.3764 
G01 X-54.6934 Y52.4089 
G01 X-54.5265 Y52.4089 
G01 X-54.3629 Y52.3764 
G01 X-54.2087 Y52.3125 
G01 X-54.0700 Y52.2198 
G01 X-53.9521 Y52.1019 
G01 X-53.8594 Y51.9632 
G01 X-53.7955 Y51.8090 
G01 X-53.7630 Y51.6454 
G01 X-53.7630 Y49.9545 
G01 X-53.7955 Y49.7909 
G01 X-53.8594 Y49.6367 
G01 X-53.8900 Y49.5909 
G01 X-53.8900 Y48.3449 
G01 X-52.7787 Y48.3449 
G01 X-51.9850 Y47.5512 
G01 X-51.9850 Y46.9519 
G01 X-49.3120 Y45.1699 
G01 X-45.7909 Y45.1699 
G01 X-45.6490 Y45.1699 
G01 X-45.5099 Y45.1422 
G01 X-45.3789 Y45.0880 
G01 X-45.2610 Y45.0092 
G01 X-45.1607 Y44.9089 
G01 X-45.0819 Y44.7910 
G01 X-45.0277 Y44.6600 
G01 X-45.0000 Y44.5209 
G01 X-45.0000 Y43.8999 
G01 X-44.0400 Y43.8999 
G01 X-43.9365 Y44.0548 
G01 X-43.8008 Y44.1905 
G01 X-43.6413 Y44.2971 
G01 X-43.4641 Y44.3705 
G01 X-43.2759 Y44.4079 
G01 X-43.0840 Y44.4079 
G01 X-42.8958 Y44.3705 
G01 X-42.7186 Y44.2971 
G01 X-42.5591 Y44.1905 
G01 X-42.5225 Y44.1539 
G01 X-37.4873 Y44.1539 
G01 X-37.4508 Y44.1905 
G01 X-37.2913 Y44.2971 
G01 X-37.1141 Y44.3705 
G01 X-36.9259 Y44.4079 
G01 X-36.7340 Y44.4079 
G01 X-36.5458 Y44.3705 
G01 X-36.3686 Y44.2971 
G01 X-36.2091 Y44.1905 
G01 X-36.0734 Y44.0548 
G01 X-35.9668 Y43.8953 
G01 X-35.8934 Y43.7181 
G01 X-35.8560 Y43.5299 
G01 X-35.8560 Y43.3380 
G01 X-35.8934 Y43.1498 
G01 X-35.9668 Y42.9726 
G01 X-36.0734 Y42.8131 
G01 X-36.1100 Y42.7766 
G01 X-36.1100 Y38.8199 
G01 X-35.4861 Y38.8199 
G01 X-34.8512 Y39.4549 
G01 X-33.7287 Y39.4549 
G01 X-32.9350 Y38.6612 
G01 X-32.9350 Y38.5913 
G01 X-28.0047 Y38.5913 
G01 X-27.8752 Y38.5913 
G01 X-27.7503 Y38.5578 
G01 X-27.6382 Y38.4931 
G01 X-27.5468 Y38.4017 
G01 X-27.4821 Y38.2896 
G01 X-27.4486 Y38.1647 
G01 X-27.4486 Y33.5113 
G01 X-19.1147 Y33.5113 
G01 X-18.9852 Y33.5113 
G01 X-18.8603 Y33.4778 
G01 X-18.7482 Y33.4131 
G01 X-18.6568 Y33.3217 
G01 X-18.5921 Y33.2096 
G01 X-18.5586 Y33.0847 
G01 X-18.5586 Y30.9713 
G01 X-18.2420 Y30.9713 
G01 X-18.1555 Y31.1008 
G01 X-18.0198 Y31.2365 
G01 X-17.8603 Y31.3431 
G01 X-17.6831 Y31.4165 
G01 X-17.4949 Y31.4539 
G01 X-15.5250 Y31.4539 
G01 X-15.3368 Y31.4165 
G01 X-15.1596 Y31.3431 
G01 X-15.0001 Y31.2365 
G01 X-14.8644 Y31.1008 
G01 X-14.7578 Y30.9413 
G01 X-14.6844 Y30.7641 
G01 X-14.6470 Y30.5759 
G01 X-14.6470 Y30.3840 
G01 X-14.6844 Y30.1958 
G01 X-14.7578 Y30.0186 
G01 X-14.8644 Y29.8591 
G01 X-15.0001 Y29.7234 
G01 X-15.1596 Y29.6168 
G01 X-15.3368 Y29.5434 
G01 X-15.5250 Y29.5060 
G01 X-17.4949 Y29.5060 
G01 X-17.6831 Y29.5434 
G01 X-17.8603 Y29.6168 
G01 X-18.0198 Y29.7234 
G01 X-18.1555 Y29.8591 
G01 X-18.2420 Y29.9886 
G01 X-19.1147 Y29.9886 
G01 X-19.2396 Y30.0221 
G01 X-19.3517 Y30.0868 
G01 X-19.4431 Y30.1782 
G01 X-19.5078 Y30.2903 
G01 X-19.5413 Y30.4152 
G01 X-19.5413 Y30.5447 
G01 X-19.5413 Y32.5286 
G01 X-28.0047 Y32.5286 
G01 X-28.1296 Y32.5621 
G01 X-28.2417 Y32.6268 
G01 X-28.3331 Y32.7182 
G01 X-28.3978 Y32.8303 
G01 X-28.4313 Y32.9552 
G01 X-28.4313 Y33.0847 
G01 X-28.4313 Y37.6086 
G01 X-32.9350 Y37.6086 
G01 X-32.9350 Y37.5387 
G01 X-33.7287 Y36.7450 
G01 X-34.8512 Y36.7450 
G01 X-35.4861 Y37.3800 
G01 X-36.9009 Y37.3800 
G01 X-37.0400 Y37.4077 
G01 X-37.1710 Y37.4619 
G01 X-37.2889 Y37.5407 
G01 X-37.3892 Y37.6410 
G01 X-37.4680 Y37.7589 
G01 X-37.5222 Y37.8899 
G01 X-37.5499 Y38.0290 
G01 X-37.5499 Y38.1709 
G01 X-37.5499 Y42.7140 
G01 X-42.5225 Y42.7140 
G01 X-42.5591 Y42.6774 
G01 X-42.7186 Y42.5708 
G01 X-42.8958 Y42.4974 
G01 X-43.0840 Y42.4600 
G01 X-43.1090 Y42.4600 
G01 X-45.7909 Y42.4600 
G01 X-45.9300 Y42.4877 
G01 X-46.0610 Y42.5419 
G01 X-46.1789 Y42.6207 
G01 X-46.2792 Y42.7210 
G01 X-46.3580 Y42.8389 
G01 X-46.4122 Y42.9699 
G01 X-46.4399 Y43.1090 
G01 X-46.4399 Y43.2509 
G01 X-46.4399 Y43.7300 
G01 X-49.5316 Y43.7300 
G01 X-49.6002 Y43.7299 
G01 X-49.6006 Y43.7300 
G01 X-49.6009 Y43.7300 
G01 X-49.6299 Y43.7358 
G01 X-49.7393 Y43.7574 
G01 X-49.8703 Y43.8116 
G01 X-49.8703 Y43.8117 
G01 X-49.8710 Y43.8119 
G01 X-49.9706 Y43.8785 
G01 X-52.7094 Y45.7044 
G01 X-52.7787 Y45.6350 
G01 X-53.9012 Y45.6350 
G01 X-54.5361 Y46.2700 
G01 X-58.9700 Y46.2700 
G01 X-58.9700 Y29.9299 
G01 X-58.5722 Y29.9299 
G01 X-58.4255 Y30.0280 
G01 X-58.2575 Y30.0976 
G01 X-58.0791 Y30.1331 
G01 X-56.2208 Y30.1331 
G01 X-56.0424 Y30.0976 
G01 X-55.8744 Y30.0280 
G01 X-55.7277 Y29.9299 
G01 X-54.0599 Y29.9299 
G01 X-54.0599 Y30.5538 
G01 X-54.6949 Y31.1887 
G01 X-54.6949 Y32.3112 
G01 X-53.9012 Y33.1049 
G01 X-52.7787 Y33.1049 
G01 X-51.9850 Y32.3112 
G01 X-51.9850 Y31.4147 
G01 X-32.7576 Y18.1958 
G01 X-32.7182 Y18.1731 
G01 X-32.7043 Y18.1592 
G01 X-32.6883 Y18.1482 
G01 X-32.6592 Y18.1140 
G01 X-32.6268 Y18.0817 
G01 X-32.6170 Y18.0646 
G01 X-32.6043 Y18.0498 
G01 X-32.5848 Y18.0088 
G01 X-32.5621 Y17.9696 
G01 X-32.5571 Y17.9508 
G01 X-32.5486 Y17.9331 
G01 X-32.5403 Y17.8882 
G01 X-32.5286 Y17.8447 
G01 X-32.5286 Y17.8253 
G01 X-32.5250 Y17.8059 
G01 X-32.5286 Y17.7603 
G01 X-32.5286 Y13.1913 
G01 X-29.5601 Y13.1913 
G01 X-29.4952 Y13.2884 
G01 X-29.3666 Y13.4170 
G01 X-29.2155 Y13.5180 
G01 X-29.0475 Y13.5876 
G01 X-28.8691 Y13.6231 
G01 X-27.0108 Y13.6231 
G01 X-26.8324 Y13.5876 
G01 X-26.6644 Y13.5180 
G01 X-26.5133 Y13.4170 
G01 X-26.3847 Y13.2884 
G01 X-26.2837 Y13.1373 
G01 X-26.2141 Y12.9693 
G01 X-26.1786 Y12.7909 
G01 X-26.1786 Y12.6090 
G01 X-26.2141 Y12.4306 
G01 X-26.2837 Y12.2626 
G01 X-26.3847 Y12.1115 
G01 X-26.5133 Y11.9829 
G01 X-26.6644 Y11.8819 
G01 X-26.8324 Y11.8123 
G01 X-27.0108 Y11.7768 
G00 Z2.0000 
G00 X-102.5849 Y22.5639 
G01 Z-0.1000 F254.00 
G01 X-100.6150 Y22.5639 
G01 X-100.4268 Y22.5265 
G01 X-100.2496 Y22.4531 
G01 X-100.0901 Y22.3465 
G01 X-99.9544 Y22.2108 
G01 X-99.8679 Y22.0813 
G01 X-94.4713 Y22.0813 
G01 X-94.4713 Y31.6852 
G01 X-94.4713 Y31.8147 
G01 X-94.4378 Y31.9396 
G01 X-94.3731 Y32.0517 
G01 X-94.2817 Y32.1431 
G01 X-94.1696 Y32.2078 
G01 X-94.0447 Y32.2413 
G01 X-88.8531 Y32.2413 
G01 X-88.7655 Y32.3289 
G01 X-88.6434 Y32.4105 
G01 X-88.5078 Y32.4667 
G01 X-88.3638 Y32.4953 
G01 X-86.8961 Y32.4953 
G01 X-86.7521 Y32.4667 
G01 X-86.6165 Y32.4105 
G01 X-86.4944 Y32.3289 
G01 X-86.3906 Y32.2251 
G01 X-86.3090 Y32.1030 
G01 X-86.2528 Y31.9674 
G01 X-86.2242 Y31.8234 
G01 X-86.2242 Y31.6765 
G01 X-86.2528 Y31.5325 
G01 X-86.3090 Y31.3969 
G01 X-86.3906 Y31.2748 
G01 X-86.4944 Y31.1710 
G01 X-86.6165 Y31.0894 
G01 X-86.7521 Y31.0332 
G01 X-86.8961 Y31.0046 
G01 X-88.3638 Y31.0046 
G01 X-88.5078 Y31.0332 
G01 X-88.6434 Y31.0894 
G01 X-88.7655 Y31.1710 
G01 X-88.8531 Y31.2586 
G01 X-93.4886 Y31.2586 
G01 X-93.4886 Y21.5252 
G01 X-93.5221 Y21.4003 
G01 X-93.5868 Y21.2882 
G01 X-93.6782 Y21.1968 
G01 X-93.7903 Y21.1321 
G01 X-93.9152 Y21.0986 
G01 X-94.0447 Y21.0986 
G01 X-99.8679 Y21.0986 
G01 X-99.9544 Y20.9691 
G01 X-100.0901 Y20.8334 
G01 X-100.2496 Y20.7268 
G01 X-100.4268 Y20.6534 
G01 X-100.6150 Y20.6160 
G01 X-102.5849 Y20.6160 
G01 X-102.7731 Y20.6534 
G01 X-102.9503 Y20.7268 
G01 X-103.1098 Y20.8334 
G01 X-103.2455 Y20.9691 
G01 X-103.3521 Y21.1286 
G01 X-103.4255 Y21.3058 
G01 X-103.4629 Y21.4940 
G01 X-103.4629 Y21.6859 
G01 X-103.4255 Y21.8741 
G01 X-103.3521 Y22.0513 
G01 X-103.2455 Y22.2108 
G01 X-103.1098 Y22.3465 
G01 X-102.9503 Y22.4531 
G01 X-102.7731 Y22.5265 
G01 X-102.5849 Y22.5639 
G00 Z2.0000 
G00 X-102.5849 Y27.6439 
G01 Z-0.1000 F254.00 
G01 X-100.6150 Y27.6439 
G01 X-100.4268 Y27.6065 
G01 X-100.2496 Y27.5331 
G01 X-100.0901 Y27.4265 
G01 X-99.9544 Y27.2908 
G01 X-99.8679 Y27.1613 
G01 X-97.0113 Y27.1613 
G01 X-97.0113 Y34.2252 
G01 X-97.0113 Y34.3547 
G01 X-96.9778 Y34.4796 
G01 X-96.9131 Y34.5917 
G01 X-96.8217 Y34.6831 
G01 X-96.7096 Y34.7478 
G01 X-96.5847 Y34.7813 
G01 X-91.9313 Y34.7813 
G01 X-91.9313 Y36.7652 
G01 X-91.9313 Y36.8947 
G01 X-91.8978 Y37.0196 
G01 X-91.8331 Y37.1317 
G01 X-91.7417 Y37.2231 
G01 X-91.6296 Y37.2878 
G01 X-91.5047 Y37.3213 
G01 X-88.8531 Y37.3213 
G01 X-88.7655 Y37.4089 
G01 X-88.6434 Y37.4905 
G01 X-88.5078 Y37.5467 
G01 X-88.3638 Y37.5753 
G01 X-86.8961 Y37.5753 
G01 X-86.7521 Y37.5467 
G01 X-86.6165 Y37.4905 
G01 X-86.4944 Y37.4089 
G01 X-86.3906 Y37.3051 
G01 X-86.3090 Y37.1830 
G01 X-86.2528 Y37.0474 
G01 X-86.2242 Y36.9034 
G01 X-86.2242 Y36.7565 
G01 X-86.2528 Y36.6125 
G01 X-86.3090 Y36.4769 
G01 X-86.3906 Y36.3548 
G01 X-86.4944 Y36.2510 
G01 X-86.6165 Y36.1694 
G01 X-86.7521 Y36.1132 
G01 X-86.8961 Y36.0846 
G01 X-88.3638 Y36.0846 
G01 X-88.5078 Y36.1132 
G01 X-88.6434 Y36.1694 
G01 X-88.7655 Y36.2510 
G01 X-88.8531 Y36.3386 
G01 X-90.9486 Y36.3386 
G01 X-90.9486 Y34.2252 
G01 X-90.9821 Y34.1003 
G01 X-91.0468 Y33.9882 
G01 X-91.1382 Y33.8968 
G01 X-91.2503 Y33.8321 
G01 X-91.3752 Y33.7986 
G01 X-91.5047 Y33.7986 
G01 X-96.0286 Y33.7986 
G01 X-96.0286 Y26.6052 
G01 X-96.0621 Y26.4803 
G01 X-96.1268 Y26.3682 
G01 X-96.2182 Y26.2768 
G01 X-96.3303 Y26.2121 
G01 X-96.4552 Y26.1786 
G01 X-96.5847 Y26.1786 
G01 X-99.8679 Y26.1786 
G01 X-99.9544 Y26.0491 
G01 X-100.0901 Y25.9134 
G01 X-100.2496 Y25.8068 
G01 X-100.4268 Y25.7334 
G01 X-100.6150 Y25.6960 
G01 X-102.5849 Y25.6960 
G01 X-102.7731 Y25.7334 
G01 X-102.9503 Y25.8068 
G01 X-103.1098 Y25.9134 
G01 X-103.2455 Y26.0491 
G01 X-103.3521 Y26.2086 
G01 X-103.4255 Y26.3858 
G01 X-103.4629 Y26.5740 
G01 X-103.4629 Y26.7659 
G01 X-103.4255 Y26.9541 
G01 X-103.3521 Y27.1313 
G01 X-103.2455 Y27.2908 
G01 X-103.1098 Y27.4265 
G01 X-102.9503 Y27.5331 
G01 X-102.7731 Y27.6065 
G01 X-102.5849 Y27.6439 
G00 Z2.0000 
G00 X-102.5849 Y32.7239 
G01 Z-0.1000 F254.00 
G01 X-102.3199 Y32.7239 
G01 X-102.3199 Y33.3160 
G01 X-102.5849 Y33.3160 
G01 X-102.7731 Y33.3534 
G01 X-102.9503 Y33.4268 
G01 X-103.1098 Y33.5334 
G01 X-103.1463 Y33.5700 
G01 X-105.3390 Y33.5700 
G01 X-105.4809 Y33.5700 
G01 X-105.6200 Y33.5977 
G01 X-105.7510 Y33.6519 
G01 X-105.8689 Y33.7307 
G01 X-105.9692 Y33.8310 
G01 X-106.0480 Y33.9489 
G01 X-106.1022 Y34.0799 
G01 X-106.1299 Y34.2190 
G01 X-106.1299 Y48.1890 
G01 X-106.1299 Y48.3309 
G01 X-106.1022 Y48.4700 
G01 X-106.0480 Y48.6010 
G01 X-105.9692 Y48.7189 
G01 X-105.8689 Y48.8192 
G01 X-105.7510 Y48.8980 
G01 X-105.6200 Y48.9522 
G01 X-105.4809 Y48.9799 
G01 X-103.1463 Y48.9799 
G01 X-103.1098 Y49.0165 
G01 X-102.9503 Y49.1231 
G01 X-102.7731 Y49.1965 
G01 X-102.5849 Y49.2339 
G01 X-102.3199 Y49.2339 
G01 X-102.3199 Y49.8260 
G01 X-102.5849 Y49.8260 
G01 X-102.7731 Y49.8634 
G01 X-102.9503 Y49.9368 
G01 X-103.1098 Y50.0434 
G01 X-103.2455 Y50.1791 
G01 X-103.3521 Y50.3386 
G01 X-103.4255 Y50.5158 
G01 X-103.4629 Y50.7040 
G01 X-103.4629 Y50.8959 
G01 X-103.4255 Y51.0841 
G01 X-103.3521 Y51.2613 
G01 X-103.2455 Y51.4208 
G01 X-103.1098 Y51.5565 
G01 X-102.9503 Y51.6631 
G01 X-102.7731 Y51.7365 
G01 X-102.5849 Y51.7739 
G01 X-102.3199 Y51.7739 
G01 X-102.3199 Y53.4109 
G01 X-102.2922 Y53.5500 
G01 X-102.2380 Y53.6810 
G01 X-102.1592 Y53.7989 
G01 X-102.0589 Y53.8992 
G01 X-101.9410 Y53.9780 
G01 X-101.8100 Y54.0322 
G01 X-101.6709 Y54.0599 
G01 X-101.5290 Y54.0599 
G01 X-85.0190 Y54.0599 
G01 X-84.8799 Y54.0322 
G01 X-84.7489 Y53.9780 
G01 X-84.6310 Y53.8992 
G01 X-84.5307 Y53.7989 
G01 X-84.4519 Y53.6810 
G01 X-84.3977 Y53.5500 
G01 X-84.3700 Y53.4109 
G01 X-84.3700 Y53.2690 
G01 X-84.3700 Y29.1390 
G01 X-84.3977 Y28.9999 
G01 X-84.4519 Y28.8689 
G01 X-84.5307 Y28.7510 
G01 X-84.6310 Y28.6507 
G01 X-84.7489 Y28.5719 
G01 X-84.8799 Y28.5177 
G01 X-85.0190 Y28.4900 
G01 X-85.1609 Y28.4900 
G01 X-86.7683 Y28.4900 
G01 X-86.8961 Y28.4646 
G01 X-86.9100 Y28.4646 
G01 X-86.9100 Y16.4489 
G01 X-86.8794 Y16.4032 
G01 X-86.8155 Y16.2490 
G01 X-86.7830 Y16.0854 
G01 X-86.7830 Y14.3945 
G01 X-86.8155 Y14.2309 
G01 X-86.8794 Y14.0767 
G01 X-86.9100 Y14.0310 
G01 X-86.9100 Y10.0890 
G01 X-86.9377 Y9.9499 
G01 X-86.9919 Y9.8189 
G01 X-87.0707 Y9.7010 
G01 X-87.1710 Y9.6007 
G01 X-87.2889 Y9.5219 
G01 X-87.4199 Y9.4677 
G01 X-87.5590 Y9.4400 
G01 X-87.7009 Y9.4400 
G01 X-91.5582 Y9.4400 
G01 X-91.6764 Y9.2772 
G01 X-91.8272 Y9.1264 
G01 X-91.9998 Y9.0011 
G01 X-92.1898 Y8.9043 
G01 X-92.3926 Y8.8384 
G01 X-92.6033 Y8.8050 
G01 X-92.8166 Y8.8050 
G01 X-93.0273 Y8.8384 
G01 X-93.2301 Y8.9043 
G01 X-93.4201 Y9.0011 
G01 X-93.5927 Y9.1264 
G01 X-93.7435 Y9.2772 
G01 X-93.8688 Y9.4498 
G01 X-93.9656 Y9.6398 
G01 X-94.0315 Y9.8426 
G01 X-94.0649 Y10.0533 
G01 X-94.0649 Y10.2666 
G01 X-94.0315 Y10.4773 
G01 X-93.9656 Y10.6801 
G01 X-93.8688 Y10.8701 
G01 X-93.7435 Y11.0427 
G01 X-93.5927 Y11.1935 
G01 X-93.4201 Y11.3188 
G01 X-93.2301 Y11.4156 
G01 X-93.0273 Y11.4815 
G01 X-92.8166 Y11.5149 
G01 X-92.6033 Y11.5149 
G01 X-92.3926 Y11.4815 
G01 X-92.1898 Y11.4156 
G01 X-91.9998 Y11.3188 
G01 X-91.8272 Y11.1935 
G01 X-91.6764 Y11.0427 
G01 X-91.5582 Y10.8799 
G01 X-88.3499 Y10.8799 
G01 X-88.3499 Y14.0310 
G01 X-88.3805 Y14.0767 
G01 X-88.4444 Y14.2309 
G01 X-88.4769 Y14.3945 
G01 X-88.4769 Y16.0854 
G01 X-88.4444 Y16.2490 
G01 X-88.3805 Y16.4032 
G01 X-88.3499 Y16.4489 
G01 X-88.3499 Y28.4646 
G01 X-88.3638 Y28.4646 
G01 X-88.5078 Y28.4932 
G01 X-88.6434 Y28.5494 
G01 X-88.7655 Y28.6310 
G01 X-88.8693 Y28.7348 
G01 X-88.9509 Y28.8569 
G01 X-89.0071 Y28.9925 
G01 X-89.0357 Y29.1365 
G01 X-89.0357 Y29.2834 
G01 X-89.0071 Y29.4274 
G01 X-88.9509 Y29.5630 
G01 X-88.8693 Y29.6851 
G01 X-88.7655 Y29.7889 
G01 X-88.6434 Y29.8705 
G01 X-88.5078 Y29.9267 
G01 X-88.3638 Y29.9553 
G01 X-86.8961 Y29.9553 
G01 X-86.7683 Y29.9299 
G01 X-85.8099 Y29.9299 
G01 X-85.8099 Y52.6200 
G01 X-100.8800 Y52.6200 
G01 X-100.8800 Y51.7739 
G01 X-100.6150 Y51.7739 
G01 X-100.4268 Y51.7365 
G01 X-100.2496 Y51.6631 
G01 X-100.0901 Y51.5565 
G01 X-99.9544 Y51.4208 
G01 X-99.8478 Y51.2613 
G01 X-99.7744 Y51.0841 
G01 X-99.7370 Y50.8959 
G01 X-99.7370 Y50.7040 
G01 X-99.7744 Y50.5158 
G01 X-99.8478 Y50.3386 
G01 X-99.9544 Y50.1791 
G01 X-100.0901 Y50.0434 
G01 X-100.2496 Y49.9368 
G01 X-100.4268 Y49.8634 
G01 X-100.6150 Y49.8260 
G01 X-100.8800 Y49.8260 
G01 X-100.8800 Y49.2339 
G01 X-100.6150 Y49.2339 
G01 X-100.4268 Y49.1965 
G01 X-100.2496 Y49.1231 
G01 X-100.0901 Y49.0165 
G01 X-99.9544 Y48.8808 
G01 X-99.8478 Y48.7213 
G01 X-99.7744 Y48.5441 
G01 X-99.7370 Y48.3559 
G01 X-99.7370 Y48.1640 
G01 X-99.7744 Y47.9758 
G01 X-99.8478 Y47.7986 
G01 X-99.9544 Y47.6391 
G01 X-100.0901 Y47.5034 
G01 X-100.2496 Y47.3968 
G01 X-100.4268 Y47.3234 
G01 X-100.6150 Y47.2860 
G01 X-102.5849 Y47.2860 
G01 X-102.7731 Y47.3234 
G01 X-102.9503 Y47.3968 
G01 X-103.1098 Y47.5034 
G01 X-103.1463 Y47.5400 
G01 X-104.6900 Y47.5400 
G01 X-104.6900 Y35.0099 
G01 X-103.1463 Y35.0099 
G01 X-103.1098 Y35.0465 
G01 X-102.9503 Y35.1531 
G01 X-102.7731 Y35.2265 
G01 X-102.5849 Y35.2639 
G01 X-100.6150 Y35.2639 
G01 X-100.4268 Y35.2265 
G01 X-100.2496 Y35.1531 
G01 X-100.0901 Y35.0465 
G01 X-99.9544 Y34.9108 
G01 X-99.8478 Y34.7513 
G01 X-99.7744 Y34.5741 
G01 X-99.7370 Y34.3859 
G01 X-99.7370 Y34.1940 
G01 X-99.7744 Y34.0058 
G01 X-99.8478 Y33.8286 
G01 X-99.9544 Y33.6691 
G01 X-100.0901 Y33.5334 
G01 X-100.2496 Y33.4268 
G01 X-100.4268 Y33.3534 
G01 X-100.6150 Y33.3160 
G01 X-100.8800 Y33.3160 
G01 X-100.8800 Y32.7239 
G01 X-100.6150 Y32.7239 
G01 X-100.4268 Y32.6865 
G01 X-100.2496 Y32.6131 
G01 X-100.0901 Y32.5065 
G01 X-99.9544 Y32.3708 
G01 X-99.8478 Y32.2113 
G01 X-99.7744 Y32.0341 
G01 X-99.7370 Y31.8459 
G01 X-99.7370 Y31.6540 
G01 X-99.7744 Y31.4658 
G01 X-99.8478 Y31.2886 
G01 X-99.9544 Y31.1291 
G01 X-100.0901 Y30.9934 
G01 X-100.2496 Y30.8868 
G01 X-100.4268 Y30.8134 
G01 X-100.6150 Y30.7760 
G01 X-102.5849 Y30.7760 
G01 X-102.7731 Y30.8134 
G01 X-102.9503 Y30.8868 
G01 X-103.1098 Y30.9934 
G01 X-103.2455 Y31.1291 
G01 X-103.3521 Y31.2886 
G01 X-103.4255 Y31.4658 
G01 X-103.4629 Y31.6540 
G01 X-103.4629 Y31.8459 
G01 X-103.4255 Y32.0341 
G01 X-103.3521 Y32.2113 
G01 X-103.2455 Y32.3708 
G01 X-103.1098 Y32.5065 
G01 X-102.9503 Y32.6131 
G01 X-102.7731 Y32.6865 
G01 X-102.5849 Y32.7239 
G00 Z2.0000 
G00 X-102.5849 Y39.0739 
G01 Z-0.1000 F254.00 
G01 X-100.6150 Y39.0739 
G01 X-100.4268 Y39.0365 
G01 X-100.2496 Y38.9631 
G01 X-100.0901 Y38.8565 
G01 X-99.9544 Y38.7208 
G01 X-99.8679 Y38.5913 
G01 X-94.4713 Y38.5913 
G01 X-94.4713 Y41.8451 
G01 X-94.4713 Y41.8452 
G01 X-94.4713 Y41.9747 
G01 X-94.4378 Y42.0996 
G01 X-94.3731 Y42.2117 
G01 X-94.2817 Y42.3031 
G01 X-94.1696 Y42.3678 
G01 X-94.0447 Y42.4013 
G01 X-88.8531 Y42.4013 
G01 X-88.7655 Y42.4889 
G01 X-88.6434 Y42.5705 
G01 X-88.5078 Y42.6267 
G01 X-88.3638 Y42.6553 
G01 X-86.8961 Y42.6553 
G01 X-86.7521 Y42.6267 
G01 X-86.6165 Y42.5705 
G01 X-86.4944 Y42.4889 
G01 X-86.3906 Y42.3851 
G01 X-86.3090 Y42.2630 
G01 X-86.2528 Y42.1274 
G01 X-86.2242 Y41.9834 
G01 X-86.2242 Y41.8365 
G01 X-86.2528 Y41.6925 
G01 X-86.3090 Y41.5569 
G01 X-86.3906 Y41.4348 
G01 X-86.4944 Y41.3310 
G01 X-86.6165 Y41.2494 
G01 X-86.7521 Y41.1932 
G01 X-86.8961 Y41.1646 
G01 X-88.3638 Y41.1646 
G01 X-88.5078 Y41.1932 
G01 X-88.6434 Y41.2494 
G01 X-88.7655 Y41.3310 
G01 X-88.8531 Y41.4186 
G01 X-93.4886 Y41.4186 
G01 X-93.4886 Y38.1647 
G01 X-93.4886 Y38.0352 
G01 X-93.5221 Y37.9103 
G01 X-93.5868 Y37.7982 
G01 X-93.6782 Y37.7068 
G01 X-93.7903 Y37.6421 
G01 X-93.9152 Y37.6086 
G01 X-99.8679 Y37.6086 
G01 X-99.9544 Y37.4791 
G01 X-100.0901 Y37.3434 
G01 X-100.2496 Y37.2368 
G01 X-100.4268 Y37.1634 
G01 X-100.6150 Y37.1260 
G01 X-102.5849 Y37.1260 
G01 X-102.7731 Y37.1634 
G01 X-102.9503 Y37.2368 
G01 X-103.1098 Y37.3434 
G01 X-103.2455 Y37.4791 
G01 X-103.3521 Y37.6386 
G01 X-103.4255 Y37.8158 
G01 X-103.4629 Y38.0040 
G01 X-103.4629 Y38.1959 
G01 X-103.4255 Y38.3841 
G01 X-103.3521 Y38.5613 
G01 X-103.2455 Y38.7208 
G01 X-103.1098 Y38.8565 
G01 X-102.9503 Y38.9631 
G01 X-102.7731 Y39.0365 
G01 X-102.5849 Y39.0739 
G00 Z2.0000 
G00 X-102.5849 Y44.1539 
G01 Z-0.1000 F254.00 
G01 X-100.6150 Y44.1539 
G01 X-100.4268 Y44.1165 
G01 X-100.2496 Y44.0431 
G01 X-100.0901 Y43.9365 
G01 X-99.9544 Y43.8008 
G01 X-99.8679 Y43.6713 
G01 X-97.0113 Y43.6713 
G01 X-97.0113 Y47.0547 
G01 X-96.9778 Y47.1796 
G01 X-96.9131 Y47.2917 
G01 X-96.8217 Y47.3831 
G01 X-96.7096 Y47.4478 
G01 X-96.5847 Y47.4813 
G01 X-96.4552 Y47.4813 
G01 X-88.8531 Y47.4813 
G01 X-88.7655 Y47.5689 
G01 X-88.6434 Y47.6505 
G01 X-88.5078 Y47.7067 
G01 X-88.3638 Y47.7353 
G01 X-86.8961 Y47.7353 
G01 X-86.7521 Y47.7067 
G01 X-86.6165 Y47.6505 
G01 X-86.4944 Y47.5689 
G01 X-86.3906 Y47.4651 
G01 X-86.3090 Y47.3430 
G01 X-86.2528 Y47.2074 
G01 X-86.2242 Y47.0634 
G01 X-86.2242 Y46.9165 
G01 X-86.2528 Y46.7725 
G01 X-86.3090 Y46.6369 
G01 X-86.3906 Y46.5148 
G01 X-86.4944 Y46.4110 
G01 X-86.6165 Y46.3294 
G01 X-86.7521 Y46.2732 
G01 X-86.8961 Y46.2446 
G01 X-88.3638 Y46.2446 
G01 X-88.5078 Y46.2732 
G01 X-88.6434 Y46.3294 
G01 X-88.7655 Y46.4110 
G01 X-88.8531 Y46.4986 
G01 X-96.0286 Y46.4986 
G01 X-96.0286 Y43.2447 
G01 X-96.0286 Y43.1152 
G01 X-96.0621 Y42.9903 
G01 X-96.1268 Y42.8782 
G01 X-96.2182 Y42.7868 
G01 X-96.3303 Y42.7221 
G01 X-96.4552 Y42.6886 
G01 X-99.8679 Y42.6886 
G01 X-99.9544 Y42.5591 
G01 X-100.0901 Y42.4234 
G01 X-100.2496 Y42.3168 
G01 X-100.4268 Y42.2434 
G01 X-100.6150 Y42.2060 
G01 X-102.5849 Y42.2060 
G01 X-102.7731 Y42.2434 
G01 X-102.9503 Y42.3168 
G01 X-103.1098 Y42.4234 
G01 X-103.2455 Y42.5591 
G01 X-103.3521 Y42.7186 
G01 X-103.4255 Y42.8958 
G01 X-103.4629 Y43.0840 
G01 X-103.4629 Y43.2759 
G01 X-103.4255 Y43.4641 
G01 X-103.3521 Y43.6413 
G01 X-103.2455 Y43.8008 
G01 X-103.1098 Y43.9365 
G01 X-102.9503 Y44.0431 
G01 X-102.7731 Y44.1165 
G01 X-102.5849 Y44.1539 
G00 Z2.0000 
G00 X-88.3638 Y50.2753 
G01 Z-0.1000 F254.00 
G01 X-86.8961 Y50.2753 
G01 X-86.7521 Y50.2467 
G01 X-86.6165 Y50.1905 
G01 X-86.4944 Y50.1089 
G01 X-86.3906 Y50.0051 
G01 X-86.3090 Y49.8830 
G01 X-86.2528 Y49.7474 
G01 X-86.2242 Y49.6034 
G01 X-86.2242 Y49.4565 
G01 X-86.2528 Y49.3125 
G01 X-86.3090 Y49.1769 
G01 X-86.3906 Y49.0548 
G01 X-86.4944 Y48.9510 
G01 X-86.6165 Y48.8694 
G01 X-86.7521 Y48.8132 
G01 X-86.8961 Y48.7846 
G01 X-88.3638 Y48.7846 
G01 X-88.5078 Y48.8132 
G01 X-88.6434 Y48.8694 
G01 X-88.7655 Y48.9510 
G01 X-88.8531 Y49.0386 
G01 X-97.2986 Y49.0386 
G01 X-97.2986 Y45.7847 
G01 X-97.2986 Y45.6552 
G01 X-97.3321 Y45.5303 
G01 X-97.3968 Y45.4182 
G01 X-97.4882 Y45.3268 
G01 X-97.6003 Y45.2621 
G01 X-97.7252 Y45.2286 
G01 X-99.8679 Y45.2286 
G01 X-99.9544 Y45.0991 
G01 X-100.0901 Y44.9634 
G01 X-100.2496 Y44.8568 
G01 X-100.4268 Y44.7834 
G01 X-100.6150 Y44.7460 
G01 X-102.5849 Y44.7460 
G01 X-102.7731 Y44.7834 
G01 X-102.9503 Y44.8568 
G01 X-103.1098 Y44.9634 
G01 X-103.2455 Y45.0991 
G01 X-103.3521 Y45.2586 
G01 X-103.4255 Y45.4358 
G01 X-103.4629 Y45.6240 
G01 X-103.4629 Y45.8159 
G01 X-103.4255 Y46.0041 
G01 X-103.3521 Y46.1813 
G01 X-103.2455 Y46.3408 
G01 X-103.1098 Y46.4765 
G01 X-102.9503 Y46.5831 
G01 X-102.7731 Y46.6565 
G01 X-102.5849 Y46.6939 
G01 X-100.6150 Y46.6939 
G01 X-100.4268 Y46.6565 
G01 X-100.2496 Y46.5831 
G01 X-100.0901 Y46.4765 
G01 X-99.9544 Y46.3408 
G01 X-99.8679 Y46.2113 
G01 X-98.2813 Y46.2113 
G01 X-98.2813 Y49.5947 
G01 X-98.2478 Y49.7196 
G01 X-98.1831 Y49.8317 
G01 X-98.0917 Y49.9231 
G01 X-97.9796 Y49.9878 
G01 X-97.8547 Y50.0213 
G01 X-97.7252 Y50.0213 
G01 X-88.8531 Y50.0213 
G01 X-88.7655 Y50.1089 
G01 X-88.6434 Y50.1905 
G01 X-88.5078 Y50.2467 
G01 X-88.3638 Y50.2753 
G00 Z2.0000 
G00 X-88.3638 Y45.1953 
G01 Z-0.1000 F254.00 
G01 X-86.8961 Y45.1953 
G01 X-86.7521 Y45.1667 
G01 X-86.6165 Y45.1105 
G01 X-86.4944 Y45.0289 
G01 X-86.3906 Y44.9251 
G01 X-86.3090 Y44.8030 
G01 X-86.2528 Y44.6674 
G01 X-86.2242 Y44.5234 
G01 X-86.2242 Y44.3765 
G01 X-86.2528 Y44.2325 
G01 X-86.3090 Y44.0969 
G01 X-86.3906 Y43.9748 
G01 X-86.4944 Y43.8710 
G01 X-86.6165 Y43.7894 
G01 X-86.7521 Y43.7332 
G01 X-86.8961 Y43.7046 
G01 X-88.3638 Y43.7046 
G01 X-88.5078 Y43.7332 
G01 X-88.6434 Y43.7894 
G01 X-88.7655 Y43.8710 
G01 X-88.8531 Y43.9586 
G01 X-94.7586 Y43.9586 
G01 X-94.7586 Y40.7047 
G01 X-94.7586 Y40.5752 
G01 X-94.7921 Y40.4503 
G01 X-94.8568 Y40.3382 
G01 X-94.9482 Y40.2468 
G01 X-95.0603 Y40.1821 
G01 X-95.1852 Y40.1486 
G01 X-99.8679 Y40.1486 
G01 X-99.9544 Y40.0191 
G01 X-100.0901 Y39.8834 
G01 X-100.2496 Y39.7768 
G01 X-100.4268 Y39.7034 
G01 X-100.6150 Y39.6660 
G01 X-102.5849 Y39.6660 
G01 X-102.7731 Y39.7034 
G01 X-102.9503 Y39.7768 
G01 X-103.1098 Y39.8834 
G01 X-103.2455 Y40.0191 
G01 X-103.3521 Y40.1786 
G01 X-103.4255 Y40.3558 
G01 X-103.4629 Y40.5440 
G01 X-103.4629 Y40.7359 
G01 X-103.4255 Y40.9241 
G01 X-103.3521 Y41.1013 
G01 X-103.2455 Y41.2608 
G01 X-103.1098 Y41.3965 
G01 X-102.9503 Y41.5031 
G01 X-102.7731 Y41.5765 
G01 X-102.5849 Y41.6139 
G01 X-100.6150 Y41.6139 
G01 X-100.4268 Y41.5765 
G01 X-100.2496 Y41.5031 
G01 X-100.0901 Y41.3965 
G01 X-99.9544 Y41.2608 
G01 X-99.8679 Y41.1313 
G01 X-95.7413 Y41.1313 
G01 X-95.7413 Y44.5147 
G01 X-95.7078 Y44.6396 
G01 X-95.6431 Y44.7517 
G01 X-95.5517 Y44.8431 
G01 X-95.4396 Y44.9078 
G01 X-95.3147 Y44.9413 
G01 X-95.1852 Y44.9413 
G01 X-88.8531 Y44.9413 
G01 X-88.7655 Y45.0289 
G01 X-88.6434 Y45.1105 
G01 X-88.5078 Y45.1667 
G01 X-88.3638 Y45.1953 
G00 Z2.0000 
G00 X-88.3638 Y40.1153 
G01 Z-0.1000 F254.00 
G01 X-86.8961 Y40.1153 
G01 X-86.7521 Y40.0867 
G01 X-86.6165 Y40.0305 
G01 X-86.4944 Y39.9489 
G01 X-86.3906 Y39.8451 
G01 X-86.3090 Y39.7230 
G01 X-86.2528 Y39.5874 
G01 X-86.2242 Y39.4434 
G01 X-86.2242 Y39.2965 
G01 X-86.2528 Y39.1525 
G01 X-86.3090 Y39.0169 
G01 X-86.3906 Y38.8948 
G01 X-86.4944 Y38.7910 
G01 X-86.6165 Y38.7094 
G01 X-86.7521 Y38.6532 
G01 X-86.8961 Y38.6246 
G01 X-88.3638 Y38.6246 
G01 X-88.5078 Y38.6532 
G01 X-88.6434 Y38.7094 
G01 X-88.7655 Y38.7910 
G01 X-88.8531 Y38.8786 
G01 X-92.2186 Y38.8786 
G01 X-92.2186 Y35.6247 
G01 X-92.2186 Y35.4952 
G01 X-92.2521 Y35.3703 
G01 X-92.3168 Y35.2582 
G01 X-92.4082 Y35.1668 
G01 X-92.5203 Y35.1021 
G01 X-92.6452 Y35.0686 
G01 X-97.2986 Y35.0686 
G01 X-97.2986 Y29.2747 
G01 X-97.2986 Y29.1452 
G01 X-97.3321 Y29.0203 
G01 X-97.3968 Y28.9082 
G01 X-97.4882 Y28.8168 
G01 X-97.6003 Y28.7521 
G01 X-97.7252 Y28.7186 
G01 X-99.8679 Y28.7186 
G01 X-99.9544 Y28.5891 
G01 X-100.0901 Y28.4534 
G01 X-100.2496 Y28.3468 
G01 X-100.4268 Y28.2734 
G01 X-100.6150 Y28.2360 
G01 X-102.5849 Y28.2360 
G01 X-102.7731 Y28.2734 
G01 X-102.9503 Y28.3468 
G01 X-103.1098 Y28.4534 
G01 X-103.2455 Y28.5891 
G01 X-103.3521 Y28.7486 
G01 X-103.4255 Y28.9258 
G01 X-103.4629 Y29.1140 
G01 X-103.4629 Y29.3059 
G01 X-103.4255 Y29.4941 
G01 X-103.3521 Y29.6713 
G01 X-103.2455 Y29.8308 
G01 X-103.1098 Y29.9665 
G01 X-102.9503 Y30.0731 
G01 X-102.7731 Y30.1465 
G01 X-102.5849 Y30.1839 
G01 X-100.6150 Y30.1839 
G01 X-100.4268 Y30.1465 
G01 X-100.2496 Y30.0731 
G01 X-100.0901 Y29.9665 
G01 X-99.9544 Y29.8308 
G01 X-99.8679 Y29.7013 
G01 X-98.2813 Y29.7013 
G01 X-98.2813 Y35.6247 
G01 X-98.2478 Y35.7496 
G01 X-98.1831 Y35.8617 
G01 X-98.0917 Y35.9531 
G01 X-97.9796 Y36.0178 
G01 X-97.8547 Y36.0513 
G01 X-97.7252 Y36.0513 
G01 X-93.2013 Y36.0513 
G01 X-93.2013 Y39.4347 
G01 X-93.1678 Y39.5596 
G01 X-93.1031 Y39.6717 
G01 X-93.0117 Y39.7631 
G01 X-92.8996 Y39.8278 
G01 X-92.7747 Y39.8613 
G01 X-92.6452 Y39.8613 
G01 X-88.8531 Y39.8613 
G01 X-88.7655 Y39.9489 
G01 X-88.6434 Y40.0305 
G01 X-88.5078 Y40.0867 
G01 X-88.3638 Y40.1153 
G00 Z2.0000 
G00 X-88.3638 Y35.0353 
G01 Z-0.1000 F254.00 
G01 X-86.8961 Y35.0353 
G01 X-86.7521 Y35.0067 
G01 X-86.6165 Y34.9505 
G01 X-86.4944 Y34.8689 
G01 X-86.3906 Y34.7651 
G01 X-86.3090 Y34.6430 
G01 X-86.2528 Y34.5074 
G01 X-86.2242 Y34.3634 
G01 X-86.2242 Y34.2165 
G01 X-86.2528 Y34.0725 
G01 X-86.3090 Y33.9369 
G01 X-86.3906 Y33.8148 
G01 X-86.4944 Y33.7110 
G01 X-86.6165 Y33.6294 
G01 X-86.7521 Y33.5732 
G01 X-86.8961 Y33.5446 
G01 X-88.3638 Y33.5446 
G01 X-88.5078 Y33.5732 
G01 X-88.6434 Y33.6294 
G01 X-88.7655 Y33.7110 
G01 X-88.8531 Y33.7986 
G01 X-89.6786 Y33.7986 
G01 X-89.6786 Y33.0847 
G01 X-89.6786 Y32.9552 
G01 X-89.7121 Y32.8303 
G01 X-89.7768 Y32.7182 
G01 X-89.8682 Y32.6268 
G01 X-89.9803 Y32.5621 
G01 X-90.1052 Y32.5286 
G01 X-94.7586 Y32.5286 
G01 X-94.7586 Y24.1947 
G01 X-94.7586 Y24.0652 
G01 X-94.7921 Y23.9403 
G01 X-94.8568 Y23.8282 
G01 X-94.9482 Y23.7368 
G01 X-95.0603 Y23.6721 
G01 X-95.1852 Y23.6386 
G01 X-99.8679 Y23.6386 
G01 X-99.9544 Y23.5091 
G01 X-100.0901 Y23.3734 
G01 X-100.2496 Y23.2668 
G01 X-100.4268 Y23.1934 
G01 X-100.6150 Y23.1560 
G01 X-102.5849 Y23.1560 
G01 X-102.7731 Y23.1934 
G01 X-102.9503 Y23.2668 
G01 X-103.1098 Y23.3734 
G01 X-103.2455 Y23.5091 
G01 X-103.3521 Y23.6686 
G01 X-103.4255 Y23.8458 
G01 X-103.4629 Y24.0340 
G01 X-103.4629 Y24.2259 
G01 X-103.4255 Y24.4141 
G01 X-103.3521 Y24.5913 
G01 X-103.2455 Y24.7508 
G01 X-103.1098 Y24.8865 
G01 X-102.9503 Y24.9931 
G01 X-102.7731 Y25.0665 
G01 X-102.5849 Y25.1039 
G01 X-100.6150 Y25.1039 
G01 X-100.4268 Y25.0665 
G01 X-100.2496 Y24.9931 
G01 X-100.0901 Y24.8865 
G01 X-99.9544 Y24.7508 
G01 X-99.8679 Y24.6213 
G01 X-95.7413 Y24.6213 
G01 X-95.7413 Y33.0847 
G01 X-95.7078 Y33.2096 
G01 X-95.6431 Y33.3217 
G01 X-95.5517 Y33.4131 
G01 X-95.4396 Y33.4778 
G01 X-95.3147 Y33.5113 
G01 X-95.1852 Y33.5113 
G01 X-90.6613 Y33.5113 
G01 X-90.6613 Y34.3547 
G01 X-90.6278 Y34.4796 
G01 X-90.5631 Y34.5917 
G01 X-90.4717 Y34.6831 
G01 X-90.3596 Y34.7478 
G01 X-90.2347 Y34.7813 
G01 X-90.1052 Y34.7813 
G01 X-88.8531 Y34.7813 
G01 X-88.7655 Y34.8689 
G01 X-88.6434 Y34.9505 
G01 X-88.5078 Y35.0067 
G01 X-88.3638 Y35.0353 
G00 Z2.0000 
G00 X-80.7438 Y37.5753 
G01 Z-0.1000 F254.00 
G01 X-79.2761 Y37.5753 
G01 X-79.1321 Y37.5467 
G01 X-78.9965 Y37.4905 
G01 X-78.8744 Y37.4089 
G01 X-78.7868 Y37.3213 
G01 X-74.9947 Y37.3213 
G01 X-74.8652 Y37.3213 
G01 X-74.7403 Y37.2878 
G01 X-74.6282 Y37.2231 
G01 X-74.5368 Y37.1317 
G01 X-74.4721 Y37.0196 
G01 X-74.4386 Y36.8947 
G01 X-74.4386 Y29.7013 
G01 X-68.6447 Y29.7013 
G01 X-68.5152 Y29.7013 
G01 X-68.3903 Y29.6678 
G01 X-68.2782 Y29.6031 
G01 X-68.1868 Y29.5117 
G01 X-68.1221 Y29.3996 
G01 X-68.0886 Y29.2747 
G01 X-68.0886 Y19.5413 
G01 X-66.3901 Y19.5413 
G01 X-66.3252 Y19.6384 
G01 X-66.1966 Y19.7670 
G01 X-66.0455 Y19.8680 
G01 X-65.8775 Y19.9376 
G01 X-65.6991 Y19.9731 
G01 X-63.8408 Y19.9731 
G01 X-63.6624 Y19.9376 
G01 X-63.4944 Y19.8680 
G01 X-63.3433 Y19.7670 
G01 X-63.2147 Y19.6384 
G01 X-63.1137 Y19.4873 
G01 X-63.0441 Y19.3193 
G01 X-63.0086 Y19.1409 
G01 X-63.0086 Y18.9590 
G01 X-63.0441 Y18.7806 
G01 X-63.1137 Y18.6126 
G01 X-63.2147 Y18.4615 
G01 X-63.3433 Y18.3329 
G01 X-63.4944 Y18.2319 
G01 X-63.6624 Y18.1623 
G01 X-63.8408 Y18.1268 
G01 X-65.6991 Y18.1268 
G01 X-65.8775 Y18.1623 
G01 X-66.0455 Y18.2319 
G01 X-66.1966 Y18.3329 
G01 X-66.3252 Y18.4615 
G01 X-66.3901 Y18.5586 
G01 X-68.6447 Y18.5586 
G01 X-68.7696 Y18.5921 
G01 X-68.8817 Y18.6568 
G01 X-68.9731 Y18.7482 
G01 X-69.0378 Y18.8603 
G01 X-69.0713 Y18.9852 
G01 X-69.0713 Y19.1147 
G01 X-69.0713 Y28.7186 
G01 X-74.9947 Y28.7186 
G01 X-75.1196 Y28.7521 
G01 X-75.2317 Y28.8168 
G01 X-75.3231 Y28.9082 
G01 X-75.3878 Y29.0203 
G01 X-75.4213 Y29.1452 
G01 X-75.4213 Y29.2747 
G01 X-75.4213 Y36.3386 
G01 X-78.7868 Y36.3386 
G01 X-78.8744 Y36.2510 
G01 X-78.9965 Y36.1694 
G01 X-79.1321 Y36.1132 
G01 X-79.2761 Y36.0846 
G01 X-80.7438 Y36.0846 
G01 X-80.8878 Y36.1132 
G01 X-81.0234 Y36.1694 
G01 X-81.1455 Y36.2510 
G01 X-81.2493 Y36.3548 
G01 X-81.3309 Y36.4769 
G01 X-81.3871 Y36.6125 
G01 X-81.4157 Y36.7565 
G01 X-81.4157 Y36.9034 
G01 X-81.3871 Y37.0474 
G01 X-81.3309 Y37.1830 
G01 X-81.2493 Y37.3051 
G01 X-81.1455 Y37.4089 
G01 X-81.0234 Y37.4905 
G01 X-80.8878 Y37.5467 
G01 X-80.7438 Y37.5753 
G00 Z2.0000 
G00 X-80.7438 Y42.6553 
G01 Z-0.1000 F254.00 
G01 X-79.2761 Y42.6553 
G01 X-79.1321 Y42.6267 
G01 X-78.9965 Y42.5705 
G01 X-78.8744 Y42.4889 
G01 X-78.7868 Y42.4013 
G01 X-72.3252 Y42.4013 
G01 X-72.2003 Y42.3678 
G01 X-72.0882 Y42.3031 
G01 X-71.9968 Y42.2117 
G01 X-71.9321 Y42.0996 
G01 X-71.8986 Y41.9747 
G01 X-71.8986 Y41.8452 
G01 X-71.8986 Y32.2413 
G01 X-66.3901 Y32.2413 
G01 X-66.3252 Y32.3384 
G01 X-66.1966 Y32.4670 
G01 X-66.0455 Y32.5680 
G01 X-65.8775 Y32.6376 
G01 X-65.6991 Y32.6731 
G01 X-63.8408 Y32.6731 
G01 X-63.6624 Y32.6376 
G01 X-63.4944 Y32.5680 
G01 X-63.3433 Y32.4670 
G01 X-63.2147 Y32.3384 
G01 X-63.1137 Y32.1873 
G01 X-63.0441 Y32.0193 
G01 X-63.0086 Y31.8409 
G01 X-63.0086 Y31.6590 
G01 X-63.0441 Y31.4806 
G01 X-63.1137 Y31.3126 
G01 X-63.2147 Y31.1615 
G01 X-63.3433 Y31.0329 
G01 X-63.4944 Y30.9319 
G01 X-63.6624 Y30.8623 
G01 X-63.8408 Y30.8268 
G01 X-65.6991 Y30.8268 
G01 X-65.8775 Y30.8623 
G01 X-66.0455 Y30.9319 
G01 X-66.1966 Y31.0329 
G01 X-66.3252 Y31.1615 
G01 X-66.3901 Y31.2586 
G01 X-72.3252 Y31.2586 
G01 X-72.4547 Y31.2586 
G01 X-72.5796 Y31.2921 
G01 X-72.6917 Y31.3568 
G01 X-72.7831 Y31.4482 
G01 X-72.8478 Y31.5603 
G01 X-72.8813 Y31.6852 
G01 X-72.8813 Y41.4186 
G01 X-78.7868 Y41.4186 
G01 X-78.8744 Y41.3310 
G01 X-78.9965 Y41.2494 
G01 X-79.1321 Y41.1932 
G01 X-79.2761 Y41.1646 
G01 X-80.7438 Y41.1646 
G01 X-80.8878 Y41.1932 
G01 X-81.0234 Y41.2494 
G01 X-81.1455 Y41.3310 
G01 X-81.2493 Y41.4348 
G01 X-81.3309 Y41.5569 
G01 X-81.3871 Y41.6925 
G01 X-81.4157 Y41.8365 
G01 X-81.4157 Y41.9834 
G01 X-81.3871 Y42.1274 
G01 X-81.3309 Y42.2630 
G01 X-81.2493 Y42.3851 
G01 X-81.1455 Y42.4889 
G01 X-81.0234 Y42.5705 
G01 X-80.8878 Y42.6267 
G01 X-80.7438 Y42.6553 
G00 Z2.0000 
G00 X-80.7438 Y32.4953 
G01 Z-0.1000 F254.00 
G01 X-79.2761 Y32.4953 
G01 X-79.1321 Y32.4667 
G01 X-78.9965 Y32.4105 
G01 X-78.8744 Y32.3289 
G01 X-78.7868 Y32.2413 
G01 X-77.5347 Y32.2413 
G01 X-77.4052 Y32.2413 
G01 X-77.2803 Y32.2078 
G01 X-77.1682 Y32.1431 
G01 X-77.0768 Y32.0517 
G01 X-77.0121 Y31.9396 
G01 X-76.9786 Y31.8147 
G01 X-76.9786 Y27.1613 
G01 X-71.1847 Y27.1613 
G01 X-71.0552 Y27.1613 
G01 X-70.9303 Y27.1278 
G01 X-70.8182 Y27.0631 
G01 X-70.7268 Y26.9717 
G01 X-70.6621 Y26.8596 
G01 X-70.6286 Y26.7347 
G01 X-70.6286 Y15.7313 
G01 X-67.3747 Y15.7313 
G01 X-67.2452 Y15.7313 
G01 X-67.1203 Y15.6978 
G01 X-67.0082 Y15.6331 
G01 X-66.9168 Y15.5417 
G01 X-66.8521 Y15.4296 
G01 X-66.8186 Y15.3047 
G01 X-66.8186 Y14.4613 
G01 X-66.3901 Y14.4613 
G01 X-66.3252 Y14.5584 
G01 X-66.1966 Y14.6870 
G01 X-66.0455 Y14.7880 
G01 X-65.8775 Y14.8576 
G01 X-65.6991 Y14.8931 
G01 X-63.8408 Y14.8931 
G01 X-63.6624 Y14.8576 
G01 X-63.4944 Y14.7880 
G01 X-63.3433 Y14.6870 
G01 X-63.2147 Y14.5584 
G01 X-63.1137 Y14.4073 
G01 X-63.0441 Y14.2393 
G01 X-63.0086 Y14.0609 
G01 X-63.0086 Y13.8790 
G01 X-63.0441 Y13.7006 
G01 X-63.1137 Y13.5326 
G01 X-63.2147 Y13.3815 
G01 X-63.3433 Y13.2529 
G01 X-63.4944 Y13.1519 
G01 X-63.6624 Y13.0823 
G01 X-63.8408 Y13.0468 
G01 X-65.6991 Y13.0468 
G01 X-65.8775 Y13.0823 
G01 X-66.0455 Y13.1519 
G01 X-66.1966 Y13.2529 
G01 X-66.3252 Y13.3815 
G01 X-66.3901 Y13.4786 
G01 X-67.3747 Y13.4786 
G01 X-67.4996 Y13.5121 
G01 X-67.6117 Y13.5768 
G01 X-67.7031 Y13.6682 
G01 X-67.7678 Y13.7803 
G01 X-67.8013 Y13.9052 
G01 X-67.8013 Y14.0347 
G01 X-67.8013 Y14.7486 
G01 X-71.1847 Y14.7486 
G01 X-71.3096 Y14.7821 
G01 X-71.4217 Y14.8468 
G01 X-71.5131 Y14.9382 
G01 X-71.5778 Y15.0503 
G01 X-71.6113 Y15.1752 
G01 X-71.6113 Y15.3047 
G01 X-71.6113 Y26.1786 
G01 X-77.5347 Y26.1786 
G01 X-77.6596 Y26.2121 
G01 X-77.7717 Y26.2768 
G01 X-77.8631 Y26.3682 
G01 X-77.9278 Y26.4803 
G01 X-77.9613 Y26.6052 
G01 X-77.9613 Y26.7347 
G01 X-77.9613 Y31.2586 
G01 X-78.7868 Y31.2586 
G01 X-78.8744 Y31.1710 
G01 X-78.9965 Y31.0894 
G01 X-79.1321 Y31.0332 
G01 X-79.2761 Y31.0046 
G01 X-80.7438 Y31.0046 
G01 X-80.8878 Y31.0332 
G01 X-81.0234 Y31.0894 
G01 X-81.1455 Y31.1710 
G01 X-81.2493 Y31.2748 
G01 X-81.3309 Y31.3969 
G01 X-81.3871 Y31.5325 
G01 X-81.4157 Y31.6765 
G01 X-81.4157 Y31.8234 
G01 X-81.3871 Y31.9674 
G01 X-81.3309 Y32.1030 
G01 X-81.2493 Y32.2251 
G01 X-81.1455 Y32.3289 
G01 X-81.0234 Y32.4105 
G01 X-80.8878 Y32.4667 
G01 X-80.7438 Y32.4953 
G00 Z2.0000 
G00 X-80.7438 Y47.7353 
G01 Z-0.1000 F254.00 
G01 X-79.2761 Y47.7353 
G01 X-79.1321 Y47.7067 
G01 X-78.9965 Y47.6505 
G01 X-78.8744 Y47.5689 
G01 X-78.7869 Y47.4813 
G01 X-69.7852 Y47.4813 
G01 X-69.6603 Y47.4478 
G01 X-69.5482 Y47.3831 
G01 X-69.4568 Y47.2917 
G01 X-69.3921 Y47.1796 
G01 X-69.3586 Y47.0547 
G01 X-69.3586 Y46.9252 
G01 X-69.3586 Y37.3213 
G01 X-66.3901 Y37.3213 
G01 X-66.3252 Y37.4184 
G01 X-66.1966 Y37.5470 
G01 X-66.0455 Y37.6480 
G01 X-65.8775 Y37.7176 
G01 X-65.6991 Y37.7531 
G01 X-63.8408 Y37.7531 
G01 X-63.6624 Y37.7176 
G01 X-63.4944 Y37.6480 
G01 X-63.3433 Y37.5470 
G01 X-63.2147 Y37.4184 
G01 X-63.1137 Y37.2673 
G01 X-63.0441 Y37.0993 
G01 X-63.0086 Y36.9209 
G01 X-63.0086 Y36.7390 
G01 X-63.0441 Y36.5606 
G01 X-63.1137 Y36.3926 
G01 X-63.2147 Y36.2415 
G01 X-63.3433 Y36.1129 
G01 X-63.4944 Y36.0119 
G01 X-63.6624 Y35.9423 
G01 X-63.8408 Y35.9068 
G01 X-65.6991 Y35.9068 
G01 X-65.8775 Y35.9423 
G01 X-66.0455 Y36.0119 
G01 X-66.1966 Y36.1129 
G01 X-66.3252 Y36.2415 
G01 X-66.3901 Y36.3386 
G01 X-69.7852 Y36.3386 
G01 X-69.9147 Y36.3386 
G01 X-70.0396 Y36.3721 
G01 X-70.1517 Y36.4368 
G01 X-70.2431 Y36.5282 
G01 X-70.3078 Y36.6403 
G01 X-70.3413 Y36.7652 
G01 X-70.3413 Y46.4986 
G01 X-78.7869 Y46.4986 
G01 X-78.8744 Y46.4110 
G01 X-78.9965 Y46.3294 
G01 X-79.1321 Y46.2732 
G01 X-79.2761 Y46.2446 
G01 X-80.7438 Y46.2446 
G01 X-80.8878 Y46.2732 
G01 X-81.0234 Y46.3294 
G01 X-81.1455 Y46.4110 
G01 X-81.2493 Y46.5148 
G01 X-81.3309 Y46.6369 
G01 X-81.3871 Y46.7725 
G01 X-81.4157 Y46.9165 
G01 X-81.4157 Y47.0634 
G01 X-81.3871 Y47.2074 
G01 X-81.3309 Y47.3430 
G01 X-81.2493 Y47.4651 
G01 X-81.1455 Y47.5689 
G01 X-81.0234 Y47.6505 
G01 X-80.8878 Y47.7067 
G01 X-80.7438 Y47.7353 
G00 Z2.0000 
G00 X-22.9449 Y24.8387 
G01 Z-0.1000 F254.00 
G01 X-22.9449 Y25.9612 
G01 X-22.1512 Y26.7549 
G01 X-21.0287 Y26.7549 
G01 X-20.2350 Y25.9612 
G01 X-20.2350 Y25.2719 
G01 X-17.3591 Y23.8339 
G01 X-15.5250 Y23.8339 
G01 X-15.3368 Y23.7965 
G01 X-15.1596 Y23.7231 
G01 X-15.0001 Y23.6165 
G01 X-14.8644 Y23.4808 
G01 X-14.7578 Y23.3213 
G01 X-14.6844 Y23.1441 
G01 X-14.6470 Y22.9559 
G01 X-14.6470 Y22.7640 
G01 X-14.6844 Y22.5758 
G01 X-14.7578 Y22.3986 
G01 X-14.8644 Y22.2391 
G01 X-15.0001 Y22.1034 
G01 X-15.1596 Y21.9968 
G01 X-15.3368 Y21.9234 
G01 X-15.5250 Y21.8860 
G01 X-17.4949 Y21.8860 
G01 X-17.6831 Y21.9234 
G01 X-17.8603 Y21.9968 
G01 X-18.0198 Y22.1034 
G01 X-18.1555 Y22.2391 
G01 X-18.2621 Y22.3986 
G01 X-18.3355 Y22.5758 
G01 X-18.3729 Y22.7640 
G01 X-18.3729 Y22.9559 
G01 X-18.3355 Y23.1441 
G01 X-18.3083 Y23.2097 
G01 X-20.6788 Y24.3950 
G01 X-21.0287 Y24.0450 
G01 X-22.1512 Y24.0450 
G01 X-22.9449 Y24.8387 
G00 Z2.0000 
G00 X-17.4949 Y26.3739 
G01 Z-0.1000 F254.00 
G01 X-15.5250 Y26.3739 
G01 X-15.3368 Y26.3365 
G01 X-15.1596 Y26.2631 
G01 X-15.0001 Y26.1565 
G01 X-14.8644 Y26.0208 
G01 X-14.7779 Y25.8913 
G01 X-14.0347 Y25.8913 
G01 X-13.9052 Y25.8913 
G01 X-13.7803 Y25.8578 
G01 X-13.6682 Y25.7931 
G01 X-13.5768 Y25.7017 
G01 X-13.5121 Y25.5896 
G01 X-13.4786 Y25.4647 
G01 X-13.4786 Y20.3847 
G01 X-13.4786 Y20.2552 
G01 X-13.5121 Y20.1303 
G01 X-13.5768 Y20.0182 
G01 X-13.6682 Y19.9268 
G01 X-13.7803 Y19.8621 
G01 X-13.9052 Y19.8286 
G01 X-17.7654 Y19.8286 
G01 X-17.8151 Y19.8256 
G01 X-17.8297 Y19.8286 
G01 X-17.8447 Y19.8286 
G01 X-17.8923 Y19.8414 
G01 X-17.9419 Y19.8515 
G01 X-17.9555 Y19.8584 
G01 X-17.9696 Y19.8621 
G01 X-18.0117 Y19.8864 
G01 X-28.0560 Y24.9086 
G01 X-32.9745 Y24.9086 
G01 X-32.9940 Y24.9050 
G01 X-33.0400 Y24.9086 
G01 X-33.0847 Y24.9086 
G01 X-33.1033 Y24.9137 
G01 X-33.1231 Y24.9152 
G01 X-33.1664 Y24.9306 
G01 X-33.2096 Y24.9421 
G01 X-33.2262 Y24.9518 
G01 X-33.2450 Y24.9584 
G01 X-33.2828 Y24.9844 
G01 X-33.3217 Y25.0068 
G01 X-33.3354 Y25.0206 
G01 X-53.4925 Y38.8786 
G01 X-55.5299 Y38.8786 
G01 X-55.5947 Y38.7815 
G01 X-55.7233 Y38.6529 
G01 X-55.8744 Y38.5519 
G01 X-56.0424 Y38.4823 
G01 X-56.2208 Y38.4468 
G01 X-58.0791 Y38.4468 
G01 X-58.2575 Y38.4823 
G01 X-58.4255 Y38.5519 
G01 X-58.5766 Y38.6529 
G01 X-58.7052 Y38.7815 
G01 X-58.8062 Y38.9326 
G01 X-58.8758 Y39.1006 
G01 X-58.9113 Y39.2790 
G01 X-58.9113 Y39.4609 
G01 X-58.8758 Y39.6393 
G01 X-58.8062 Y39.8073 
G01 X-58.7052 Y39.9584 
G01 X-58.5766 Y40.0870 
G01 X-58.4255 Y40.1880 
G01 X-58.2575 Y40.2576 
G01 X-58.0791 Y40.2931 
G01 X-56.2208 Y40.2931 
G01 X-56.0424 Y40.2576 
G01 X-55.8744 Y40.1880 
G01 X-55.7233 Y40.0870 
G01 X-55.5947 Y39.9584 
G01 X-55.5299 Y39.8613 
G01 X-53.3853 Y39.8613 
G01 X-53.3659 Y39.8649 
G01 X-53.3203 Y39.8613 
G01 X-53.2752 Y39.8613 
G01 X-53.2564 Y39.8562 
G01 X-53.2368 Y39.8547 
G01 X-53.1939 Y39.8395 
G01 X-53.1503 Y39.8278 
G01 X-53.1335 Y39.8181 
G01 X-53.1149 Y39.8115 
G01 X-53.0775 Y39.7857 
G01 X-53.0382 Y39.7631 
G01 X-53.0244 Y39.7492 
G01 X-32.8673 Y25.8913 
G01 X-27.9545 Y25.8913 
G01 X-27.9048 Y25.8943 
G01 X-27.8902 Y25.8913 
G01 X-27.8752 Y25.8913 
G01 X-27.8276 Y25.8785 
G01 X-27.7780 Y25.8684 
G01 X-27.7644 Y25.8615 
G01 X-27.7503 Y25.8578 
G01 X-27.7082 Y25.8334 
G01 X-17.6639 Y20.8113 
G01 X-14.4613 Y20.8113 
G01 X-14.4613 Y24.9086 
G01 X-14.7779 Y24.9086 
G01 X-14.8644 Y24.7791 
G01 X-15.0001 Y24.6434 
G01 X-15.1596 Y24.5368 
G01 X-15.3368 Y24.4634 
G01 X-15.5250 Y24.4260 
G01 X-17.4949 Y24.4260 
G01 X-17.6831 Y24.4634 
G01 X-17.8603 Y24.5368 
G01 X-18.0198 Y24.6434 
G01 X-18.1555 Y24.7791 
G01 X-18.2621 Y24.9386 
G01 X-18.3355 Y25.1158 
G01 X-18.3729 Y25.3040 
G01 X-18.3729 Y25.4959 
G01 X-18.3355 Y25.6841 
G01 X-18.2621 Y25.8613 
G01 X-18.1555 Y26.0208 
G01 X-18.0198 Y26.1565 
G01 X-17.8603 Y26.2631 
G01 X-17.6831 Y26.3365 
G01 X-17.4949 Y26.3739 
G00 Z2.0000 
G00 X-65.6991 Y45.3731 
G01 Z-0.1000 F254.00 
G01 X-63.8408 Y45.3731 
G01 X-63.6624 Y45.3376 
G01 X-63.4944 Y45.2680 
G01 X-63.3433 Y45.1670 
G01 X-63.2147 Y45.0384 
G01 X-63.1137 Y44.8873 
G01 X-63.0441 Y44.7193 
G01 X-63.0086 Y44.5409 
G01 X-63.0086 Y44.3590 
G01 X-63.0441 Y44.1806 
G01 X-63.1137 Y44.0126 
G01 X-63.2147 Y43.8615 
G01 X-63.3433 Y43.7329 
G01 X-63.4944 Y43.6319 
G01 X-63.6624 Y43.5623 
G01 X-63.8408 Y43.5268 
G01 X-65.6991 Y43.5268 
G01 X-65.8775 Y43.5623 
G01 X-66.0455 Y43.6319 
G01 X-66.1966 Y43.7329 
G01 X-66.3252 Y43.8615 
G01 X-66.4262 Y44.0126 
G01 X-66.4958 Y44.1806 
G01 X-66.5313 Y44.3590 
G01 X-66.5313 Y44.5409 
G01 X-66.4958 Y44.7193 
G01 X-66.4262 Y44.8873 
G01 X-66.3252 Y45.0384 
G01 X-66.1966 Y45.1670 
G01 X-66.0455 Y45.2680 
G01 X-65.8775 Y45.3376 
G01 X-65.6991 Y45.3731 
G00 Z2.0000 
G00 X-65.6991 Y42.8331 
G01 Z-0.1000 F254.00 
G01 X-63.8408 Y42.8331 
G01 X-63.6624 Y42.7976 
G01 X-63.4944 Y42.7280 
G01 X-63.3433 Y42.6270 
G01 X-63.2147 Y42.4984 
G01 X-63.1137 Y42.3473 
G01 X-63.0441 Y42.1793 
G01 X-63.0086 Y42.0009 
G01 X-63.0086 Y41.8190 
G01 X-63.0441 Y41.6406 
G01 X-63.1137 Y41.4726 
G01 X-63.2147 Y41.3215 
G01 X-63.3433 Y41.1929 
G01 X-63.4944 Y41.0919 
G01 X-63.6624 Y41.0223 
G01 X-63.8408 Y40.9868 
G01 X-65.6991 Y40.9868 
G01 X-65.8775 Y41.0223 
G01 X-66.0455 Y41.0919 
G01 X-66.1966 Y41.1929 
G01 X-66.3252 Y41.3215 
G01 X-66.4262 Y41.4726 
G01 X-66.4958 Y41.6406 
G01 X-66.5313 Y41.8190 
G01 X-66.5313 Y42.0009 
G01 X-66.4958 Y42.1793 
G01 X-66.4262 Y42.3473 
G01 X-66.3252 Y42.4984 
G01 X-66.1966 Y42.6270 
G01 X-66.0455 Y42.7280 
G01 X-65.8775 Y42.7976 
G01 X-65.6991 Y42.8331 
G00 Z2.0000 
G00 X-65.6991 Y40.2931 
G01 Z-0.1000 F254.00 
G01 X-63.8408 Y40.2931 
G01 X-63.6624 Y40.2576 
G01 X-63.4944 Y40.1880 
G01 X-63.3433 Y40.0870 
G01 X-63.2147 Y39.9584 
G01 X-63.1137 Y39.8073 
G01 X-63.0441 Y39.6393 
G01 X-63.0086 Y39.4609 
G01 X-63.0086 Y39.2790 
G01 X-63.0441 Y39.1006 
G01 X-63.1137 Y38.9326 
G01 X-63.2147 Y38.7815 
G01 X-63.3433 Y38.6529 
G01 X-63.4944 Y38.5519 
G01 X-63.6624 Y38.4823 
G01 X-63.8408 Y38.4468 
G01 X-65.6991 Y38.4468 
G01 X-65.8775 Y38.4823 
G01 X-66.0455 Y38.5519 
G01 X-66.1966 Y38.6529 
G01 X-66.3252 Y38.7815 
G01 X-66.3901 Y38.8786 
G01 X-68.5152 Y38.8786 
G01 X-68.6447 Y38.8786 
G01 X-68.7696 Y38.9121 
G01 X-68.8817 Y38.9768 
G01 X-68.9731 Y39.0682 
G01 X-69.0378 Y39.1803 
G01 X-69.0713 Y39.3052 
G01 X-69.0713 Y49.0386 
G01 X-78.7869 Y49.0386 
G01 X-78.8744 Y48.9510 
G01 X-78.9965 Y48.8694 
G01 X-79.1321 Y48.8132 
G01 X-79.2761 Y48.7846 
G01 X-80.7438 Y48.7846 
G01 X-80.8878 Y48.8132 
G01 X-81.0234 Y48.8694 
G01 X-81.1455 Y48.9510 
G01 X-81.2493 Y49.0548 
G01 X-81.3309 Y49.1769 
G01 X-81.3871 Y49.3125 
G01 X-81.4157 Y49.4565 
G01 X-81.4157 Y49.6034 
G01 X-81.3871 Y49.7474 
G01 X-81.3309 Y49.8830 
G01 X-81.2493 Y50.0051 
G01 X-81.1455 Y50.1089 
G01 X-81.0234 Y50.1905 
G01 X-80.8878 Y50.2467 
G01 X-80.7438 Y50.2753 
G01 X-79.2761 Y50.2753 
G01 X-79.1321 Y50.2467 
G01 X-78.9965 Y50.1905 
G01 X-78.8744 Y50.1089 
G01 X-78.7869 Y50.0213 
G01 X-68.5152 Y50.0213 
G01 X-68.3903 Y49.9878 
G01 X-68.2782 Y49.9231 
G01 X-68.1868 Y49.8317 
G01 X-68.1221 Y49.7196 
G01 X-68.0886 Y49.5947 
G01 X-68.0886 Y49.4652 
G01 X-68.0886 Y39.8613 
G01 X-66.3901 Y39.8613 
G01 X-66.3252 Y39.9584 
G01 X-66.1966 Y40.0870 
G01 X-66.0455 Y40.1880 
G01 X-65.8775 Y40.2576 
G01 X-65.6991 Y40.2931 
G00 Z2.0000 
G00 X-65.6991 Y35.2131 
G01 Z-0.1000 F254.00 
G01 X-63.8408 Y35.2131 
G01 X-63.6624 Y35.1776 
G01 X-63.4944 Y35.1080 
G01 X-63.3433 Y35.0070 
G01 X-63.2147 Y34.8784 
G01 X-63.1137 Y34.7273 
G01 X-63.0441 Y34.5593 
G01 X-63.0086 Y34.3809 
G01 X-63.0086 Y34.1990 
G01 X-63.0441 Y34.0206 
G01 X-63.1137 Y33.8526 
G01 X-63.2147 Y33.7015 
G01 X-63.3433 Y33.5729 
G01 X-63.4944 Y33.4719 
G01 X-63.6624 Y33.4023 
G01 X-63.8408 Y33.3668 
G01 X-65.6991 Y33.3668 
G01 X-65.8775 Y33.4023 
G01 X-66.0455 Y33.4719 
G01 X-66.1966 Y33.5729 
G01 X-66.3252 Y33.7015 
G01 X-66.3901 Y33.7986 
G01 X-71.0552 Y33.7986 
G01 X-71.1847 Y33.7986 
G01 X-71.3096 Y33.8321 
G01 X-71.4217 Y33.8968 
G01 X-71.5131 Y33.9882 
G01 X-71.5778 Y34.1003 
G01 X-71.6113 Y34.2252 
G01 X-71.6113 Y43.9586 
G01 X-78.7868 Y43.9586 
G01 X-78.8744 Y43.8710 
G01 X-78.9965 Y43.7894 
G01 X-79.1321 Y43.7332 
G01 X-79.2761 Y43.7046 
G01 X-80.7438 Y43.7046 
G01 X-80.8878 Y43.7332 
G01 X-81.0234 Y43.7894 
G01 X-81.1455 Y43.8710 
G01 X-81.2493 Y43.9748 
G01 X-81.3309 Y44.0969 
G01 X-81.3871 Y44.2325 
G01 X-81.4157 Y44.3765 
G01 X-81.4157 Y44.5234 
G01 X-81.3871 Y44.6674 
G01 X-81.3309 Y44.8030 
G01 X-81.2493 Y44.9251 
G01 X-81.1455 Y45.0289 
G01 X-81.0234 Y45.1105 
G01 X-80.8878 Y45.1667 
G01 X-80.7438 Y45.1953 
G01 X-79.2761 Y45.1953 
G01 X-79.1321 Y45.1667 
G01 X-78.9965 Y45.1105 
G01 X-78.8744 Y45.0289 
G01 X-78.7868 Y44.9413 
G01 X-71.1848 Y44.9413 
G01 X-71.1847 Y44.9413 
G01 X-71.0552 Y44.9413 
G01 X-70.9303 Y44.9078 
G01 X-70.8182 Y44.8431 
G01 X-70.7268 Y44.7517 
G01 X-70.6621 Y44.6396 
G01 X-70.6286 Y44.5147 
G01 X-70.6286 Y34.7813 
G01 X-66.3901 Y34.7813 
G01 X-66.3252 Y34.8784 
G01 X-66.1966 Y35.0070 
G01 X-66.0455 Y35.1080 
G01 X-65.8775 Y35.1776 
G01 X-65.6991 Y35.2131 
G00 Z2.0000 
G00 X-65.6991 Y30.1331 
G01 Z-0.1000 F254.00 
G01 X-63.8408 Y30.1331 
G01 X-63.6624 Y30.0976 
G01 X-63.4944 Y30.0280 
G01 X-63.3483 Y29.9303 
G01 X-63.1464 Y29.9303 
G01 X-63.1507 Y29.9626 
G01 X-63.1601 Y30.0097 
G01 X-63.1601 Y30.0329 
G01 X-63.1632 Y30.0562 
G01 X-63.1601 Y30.1039 
G01 X-63.1601 Y30.1516 
G01 X-63.1555 Y30.1746 
G01 X-63.1540 Y30.1978 
G01 X-63.1418 Y30.2433 
G01 X-63.1324 Y30.2907 
G01 X-63.1233 Y30.3125 
G01 X-63.1174 Y30.3348 
G01 X-63.0965 Y30.3772 
G01 X-63.0781 Y30.4217 
G01 X-63.0651 Y30.4411 
G01 X-63.0548 Y30.4621 
G01 X-63.0258 Y30.4999 
G01 X-62.9993 Y30.5396 
G01 X-62.9827 Y30.5561 
G01 X-62.9686 Y30.5746 
G01 X-62.9328 Y30.6060 
G01 X-62.6471 Y30.8916 
G01 X-62.3599 Y31.5854 
G01 X-62.2811 Y31.7033 
G01 X-62.1808 Y31.8036 
G01 X-62.1792 Y31.8046 
G01 X-62.0629 Y31.8824 
G01 X-61.9334 Y31.9359 
G01 X-61.9319 Y31.9366 
G01 X-61.7928 Y31.9643 
G01 X-61.6509 Y31.9643 
G01 X-61.6431 Y31.9627 
G01 X-61.5118 Y31.9366 
G01 X-61.3846 Y31.8839 
G01 X-61.3808 Y31.8824 
G01 X-61.2629 Y31.8036 
G01 X-61.1626 Y31.7033 
G01 X-61.1616 Y31.7017 
G01 X-61.0838 Y31.5854 
G01 X-61.0303 Y31.4559 
G01 X-61.0296 Y31.4544 
G01 X-61.0019 Y31.3153 
G01 X-61.0019 Y31.1734 
G01 X-61.0019 Y28.9489 
G01 X-60.8023 Y28.4667 
G01 X-60.4331 Y28.0975 
G01 X-59.9509 Y27.8979 
G01 X-59.6874 Y27.8979 
G01 X-59.6639 Y27.9010 
G01 X-59.6167 Y27.8979 
G01 X-59.5691 Y27.8979 
G01 X-59.5457 Y27.8932 
G01 X-59.5223 Y27.8917 
G01 X-59.4765 Y27.8794 
G01 X-59.4300 Y27.8702 
G01 X-59.4085 Y27.8612 
G01 X-59.3853 Y27.8551 
G01 X-59.3425 Y27.8339 
G01 X-59.2990 Y27.8160 
G01 X-59.2794 Y27.8028 
G01 X-59.2581 Y27.7924 
G01 X-59.2203 Y27.7633 
G01 X-59.1811 Y27.7372 
G01 X-59.1645 Y27.7205 
G01 X-59.1456 Y27.7061 
G01 X-59.1143 Y27.6703 
G01 X-59.0808 Y27.6369 
G01 X-59.0677 Y27.6172 
G01 X-59.0521 Y27.5995 
G01 X-59.0284 Y27.5584 
G01 X-59.0020 Y27.5190 
G01 X-58.9931 Y27.4973 
G01 X-58.9811 Y27.4767 
G01 X-58.9656 Y27.4309 
G01 X-58.9488 Y27.3903 
G01 X-58.5716 Y27.3903 
G01 X-58.4255 Y27.4880 
G01 X-58.2575 Y27.5576 
G01 X-58.0791 Y27.5931 
G01 X-56.2208 Y27.5931 
G01 X-56.0424 Y27.5576 
G01 X-55.8744 Y27.4880 
G01 X-55.7283 Y27.3903 
G01 X-55.5698 Y27.3903 
G01 X-54.5357 Y27.3903 
G01 X-53.9012 Y28.0249 
G01 X-52.7787 Y28.0249 
G01 X-52.1442 Y27.3903 
G01 X-52.0253 Y27.3903 
G01 X-52.1058 Y27.4707 
G01 X-52.1065 Y27.4712 
G01 X-52.1762 Y27.5411 
G01 X-52.2057 Y27.5706 
G01 X-52.2059 Y27.5709 
G01 X-52.2066 Y27.5716 
G01 X-52.2483 Y27.6343 
G01 X-52.2845 Y27.6885 
G01 X-52.2848 Y27.6893 
G01 X-52.2851 Y27.6897 
G01 X-52.3078 Y27.7448 
G01 X-52.3388 Y27.8195 
G01 X-52.3389 Y27.8202 
G01 X-52.3392 Y27.8208 
G01 X-52.3520 Y27.8858 
G01 X-52.3665 Y27.9586 
G01 X-52.3665 Y27.9594 
G01 X-52.3666 Y27.9599 
G01 X-52.3665 Y28.0301 
G01 X-52.3665 Y28.1005 
G01 X-52.3664 Y28.1010 
G01 X-52.3664 Y28.1018 
G01 X-52.3518 Y28.1745 
G01 X-52.3389 Y28.2396 
G01 X-52.3386 Y28.2402 
G01 X-52.3385 Y28.2409 
G01 X-52.3074 Y28.3155 
G01 X-52.2846 Y28.3706 
G01 X-52.2843 Y28.3710 
G01 X-52.2840 Y28.3718 
G01 X-52.2394 Y28.4383 
G01 X-52.2051 Y28.5211 
G01 X-52.2041 Y28.5258 
G01 X-52.1779 Y28.5867 
G01 X-52.1527 Y28.6476 
G01 X-52.1500 Y28.6515 
G01 X-52.1481 Y28.6561 
G01 X-52.1081 Y28.7143 
G01 X-52.0739 Y28.7655 
G01 X-52.0708 Y28.7685 
G01 X-52.0678 Y28.7730 
G01 X-52.0173 Y28.8221 
G01 X-51.9737 Y28.8658 
G01 X-51.9697 Y28.8684 
G01 X-51.9662 Y28.8719 
G01 X-51.9108 Y28.9078 
G01 X-51.8558 Y28.9446 
G01 X-51.8512 Y28.9465 
G01 X-51.8472 Y28.9491 
G01 X-51.7853 Y28.9738 
G01 X-51.7248 Y28.9989 
G01 X-51.7202 Y28.9998 
G01 X-51.7155 Y29.0017 
G01 X-51.6481 Y29.0141 
G01 X-51.5857 Y29.0266 
G01 X-51.5809 Y29.0266 
G01 X-51.5761 Y29.0275 
G01 X-51.5090 Y29.0266 
G01 X-51.4438 Y29.0266 
G01 X-51.4391 Y29.0256 
G01 X-51.4342 Y29.0256 
G01 X-51.3709 Y29.0121 
G01 X-51.3047 Y28.9990 
G01 X-51.3001 Y28.9970 
G01 X-51.2955 Y28.9961 
G01 X-51.2358 Y28.9704 
G01 X-51.1737 Y28.9447 
G01 X-51.1698 Y28.9420 
G01 X-51.1652 Y28.9401 
G01 X-51.1088 Y28.9013 
G01 X-51.0558 Y28.8659 
G01 X-51.0526 Y28.8626 
G01 X-41.7407 Y22.4608 
G01 X-41.6878 Y22.4255 
G01 X-41.6846 Y22.4222 
G01 X-41.6804 Y22.4194 
G01 X-41.6328 Y22.3704 
G01 X-41.5875 Y22.3252 
G01 X-41.5849 Y22.3212 
G01 X-41.5815 Y22.3178 
G01 X-41.5466 Y22.2640 
G01 X-41.5087 Y22.2073 
G01 X-41.5068 Y22.2025 
G01 X-41.5043 Y22.1988 
G01 X-41.4797 Y22.1371 
G01 X-41.4545 Y22.0763 
G01 X-41.4537 Y22.0719 
G01 X-41.4517 Y22.0671 
G01 X-41.4390 Y21.9981 
G01 X-41.4268 Y21.9372 
G01 X-41.4268 Y21.9325 
G01 X-41.4259 Y21.9277 
G01 X-41.4268 Y21.8604 
G01 X-41.4268 Y21.7953 
G01 X-41.4278 Y21.7907 
G01 X-41.4278 Y21.7858 
G01 X-41.4418 Y21.7200 
G01 X-41.4545 Y21.6562 
G01 X-41.4563 Y21.6519 
G01 X-41.4573 Y21.6471 
G01 X-41.4832 Y21.5869 
G01 X-41.5087 Y21.5252 
G01 X-41.5115 Y21.5211 
G01 X-41.5133 Y21.5168 
G01 X-41.5247 Y21.5003 
G01 X-41.4353 Y21.4407 
G01 X-41.2012 Y21.6749 
G01 X-40.0787 Y21.6749 
G01 X-39.2850 Y20.8812 
G01 X-39.2850 Y19.7587 
G01 X-39.9194 Y19.1244 
G01 X-39.9194 Y19.0053 
G01 X-39.0841 Y19.8406 
G01 X-39.0813 Y19.8448 
G01 X-39.0324 Y19.8923 
G01 X-38.9871 Y19.9377 
G01 X-38.9831 Y19.9403 
G01 X-38.9797 Y19.9437 
G01 X-38.9260 Y19.9785 
G01 X-38.8692 Y20.0165 
G01 X-38.8644 Y20.0184 
G01 X-38.8607 Y20.0209 
G01 X-38.7992 Y20.0454 
G01 X-38.7382 Y20.0707 
G01 X-38.7338 Y20.0715 
G01 X-38.7290 Y20.0735 
G01 X-38.6602 Y20.0862 
G01 X-38.5991 Y20.0984 
G01 X-38.5944 Y20.0984 
G01 X-38.5896 Y20.0993 
G01 X-38.5225 Y20.0984 
G01 X-38.4572 Y20.0984 
G01 X-38.4525 Y20.0974 
G01 X-38.4477 Y20.0974 
G01 X-38.3820 Y20.0834 
G01 X-38.3181 Y20.0707 
G01 X-38.3138 Y20.0689 
G01 X-38.3090 Y20.0679 
G01 X-38.2489 Y20.0420 
G01 X-38.1871 Y20.0165 
G01 X-38.1830 Y20.0137 
G01 X-38.1787 Y20.0119 
G01 X-38.1258 Y19.9754 
G01 X-38.0692 Y19.9377 
G01 X-38.0658 Y19.9342 
G01 X-34.4198 Y17.4276 
G01 X-34.3643 Y17.3906 
G01 X-34.3609 Y17.3872 
G01 X-34.3569 Y17.3845 
G01 X-34.3113 Y17.3376 
G01 X-34.2640 Y17.2903 
G01 X-34.2613 Y17.2862 
G01 X-34.2580 Y17.2829 
G01 X-34.2247 Y17.2315 
G01 X-34.1852 Y17.1724 
G01 X-34.1832 Y17.1674 
G01 X-34.1808 Y17.1639 
G01 X-34.1574 Y17.1052 
G01 X-34.1310 Y17.0414 
G01 X-34.1301 Y17.0368 
G01 X-34.1282 Y17.0322 
G01 X-34.1160 Y16.9661 
G01 X-34.1033 Y16.9023 
G01 X-34.1033 Y16.8974 
G01 X-34.1024 Y16.8928 
G01 X-34.1033 Y16.8285 
G01 X-34.1033 Y12.4844 
G01 X-33.9384 Y12.0862 
G01 X-33.6336 Y11.7814 
G01 X-33.2354 Y11.6165 
G01 X-32.5902 Y11.6165 
G01 X-30.2714 Y11.6165 
G01 X-30.2710 Y11.6165 
G01 X-30.1618 Y11.5947 
G01 X-30.1323 Y11.5888 
G01 X-30.1322 Y11.5887 
G01 X-30.1319 Y11.5887 
G01 X-30.0477 Y11.5538 
G01 X-30.0013 Y11.5346 
G01 X-30.0012 Y11.5345 
G01 X-30.0009 Y11.5344 
G01 X-29.9543 Y11.5032 
G01 X-29.8834 Y11.4558 
G01 X-29.7831 Y11.3555 
G01 X-29.7043 Y11.2376 
G01 X-29.7042 Y11.2373 
G01 X-29.7041 Y11.2372 
G01 X-29.6499 Y11.1062 
G01 X-29.6335 Y11.0232 
G01 X-29.6224 Y10.9675 
G01 X-29.6224 Y10.8803 
G01 X-29.3616 Y10.8803 
G01 X-29.2155 Y10.9780 
G01 X-29.0475 Y11.0476 
G01 X-28.8691 Y11.0831 
G01 X-27.0108 Y11.0831 
G01 X-26.8324 Y11.0476 
G01 X-26.6644 Y10.9780 
G01 X-26.5183 Y10.8803 
G01 X-26.3164 Y10.8803 
G01 X-26.3207 Y10.9126 
G01 X-26.3301 Y10.9597 
G01 X-26.3301 Y10.9829 
G01 X-26.3332 Y11.0062 
G01 X-26.3301 Y11.0539 
G01 X-26.3301 Y11.1016 
G01 X-26.3255 Y11.1246 
G01 X-26.3240 Y11.1478 
G01 X-26.3118 Y11.1934 
G01 X-26.3024 Y11.2407 
G01 X-26.2933 Y11.2625 
G01 X-26.2874 Y11.2848 
G01 X-26.2665 Y11.3272 
G01 X-26.2481 Y11.3717 
G01 X-26.2351 Y11.3911 
G01 X-26.2248 Y11.4121 
G01 X-26.1958 Y11.4499 
G01 X-26.1693 Y11.4896 
G01 X-26.1527 Y11.5061 
G01 X-26.1386 Y11.5246 
G01 X-26.1028 Y11.5560 
G01 X-25.8172 Y11.8415 
G01 X-25.5865 Y12.3985 
G01 X-25.5865 Y13.0013 
G01 X-25.6254 Y13.0954 
G01 X-25.6256 Y13.0955 
G01 X-25.6538 Y13.1639 
G01 X-25.6798 Y13.2264 
G01 X-25.7075 Y13.3655 
G01 X-25.7075 Y13.5074 
G01 X-25.7075 Y13.5075 
G01 X-25.7023 Y13.5335 
G01 X-25.6799 Y13.6465 
G01 X-25.6474 Y13.7248 
G01 X-25.6256 Y13.7776 
G01 X-25.5468 Y13.8955 
G01 X-25.4481 Y13.9941 
G01 X-25.4466 Y13.9957 
G01 X-25.4465 Y13.9958 
G01 X-25.3286 Y14.0746 
G01 X-25.2534 Y14.1057 
G01 X-25.1977 Y14.1288 
G01 X-25.0586 Y14.1565 
G01 X-24.9167 Y14.1565 
G01 X-23.3223 Y14.1565 
G01 X-23.1832 Y14.1288 
G01 X-23.0522 Y14.0746 
G01 X-22.9343 Y13.9958 
G01 X-22.8340 Y13.8955 
G01 X-22.7552 Y13.7776 
G01 X-22.7010 Y13.6466 
G01 X-22.6733 Y13.5075 
G01 X-22.6733 Y13.3656 
G01 X-22.6733 Y12.4844 
G01 X-22.5084 Y12.0862 
G01 X-22.2036 Y11.7814 
G01 X-21.8054 Y11.6165 
G01 X-21.1602 Y11.6165 
G01 X-18.9472 Y11.6165 
G01 X-18.9468 Y11.6165 
G01 X-18.8376 Y11.5946 
G01 X-18.8081 Y11.5888 
G01 X-18.8080 Y11.5887 
G01 X-18.8077 Y11.5887 
G01 X-18.7235 Y11.5537 
G01 X-18.6771 Y11.5346 
G01 X-18.6770 Y11.5345 
G01 X-18.6767 Y11.5344 
G01 X-18.6301 Y11.5031 
G01 X-18.5592 Y11.4558 
G01 X-18.4589 Y11.3555 
G01 X-18.3801 Y11.2376 
G01 X-18.3800 Y11.2373 
G01 X-18.3799 Y11.2372 
G01 X-18.3257 Y11.1062 
G01 X-18.3093 Y11.0232 
G01 X-18.2982 Y10.9675 
G01 X-18.2982 Y10.8803 
G01 X-18.0560 Y10.8803 
G01 X-18.0198 Y10.9165 
G01 X-17.8603 Y11.0231 
G01 X-17.6831 Y11.0965 
G01 X-17.4949 Y11.1339 
G01 X-15.5250 Y11.1339 
G01 X-15.3368 Y11.0965 
G01 X-15.1596 Y11.0231 
G01 X-15.0001 Y10.9165 
G01 X-14.9639 Y10.8803 
G01 X-14.7732 Y10.8803 
G01 X-14.7764 Y10.9050 
G01 X-14.7857 Y10.9512 
G01 X-14.7857 Y10.9746 
G01 X-14.7888 Y10.9980 
G01 X-14.7857 Y11.0457 
G01 X-14.7857 Y11.0931 
G01 X-14.7811 Y11.1160 
G01 X-14.7796 Y11.1396 
G01 X-14.7671 Y11.1860 
G01 X-14.7580 Y11.2322 
G01 X-14.7491 Y11.2536 
G01 X-14.7430 Y11.2766 
G01 X-14.7220 Y11.3191 
G01 X-14.7038 Y11.3632 
G01 X-14.6905 Y11.3830 
G01 X-14.6803 Y11.4038 
G01 X-14.6516 Y11.4412 
G01 X-14.6250 Y11.4811 
G01 X-14.6084 Y11.4976 
G01 X-14.5941 Y11.5164 
G01 X-14.5582 Y11.5478 
G01 X-14.2932 Y11.8128 
G01 X-14.0549 Y12.3884 
G01 X-14.0549 Y13.0113 
G01 X-14.3106 Y13.6287 
G01 X-14.3107 Y13.6289 
G01 X-14.3636 Y13.7569 
G01 X-14.3649 Y13.7599 
G01 X-14.3926 Y13.8990 
G01 X-14.3926 Y14.0409 
G01 X-14.3649 Y14.1800 
G01 X-14.3107 Y14.3110 
G01 X-14.3105 Y14.3112 
G01 X-14.0549 Y14.9284 
G01 X-14.0549 Y15.5514 
G01 X-14.3105 Y16.1687 
G01 X-14.3107 Y16.1689 
G01 X-14.3636 Y16.2969 
G01 X-14.3649 Y16.2999 
G01 X-14.3926 Y16.4390 
G01 X-14.3926 Y16.5809 
G01 X-14.3649 Y16.7200 
G01 X-14.3107 Y16.8510 
G01 X-14.3105 Y16.8512 
G01 X-14.0549 Y17.4684 
G01 X-14.0549 Y18.0914 
G01 X-14.1132 Y18.2320 
G01 X-14.1675 Y18.3630 
G01 X-14.1838 Y18.4452 
G01 X-14.1951 Y18.5019 
G01 X-14.1951 Y18.6438 
G01 X-14.1951 Y18.6440 
G01 X-14.1844 Y18.6976 
G01 X-14.1675 Y18.7829 
G01 X-14.1132 Y18.9139 
G01 X-14.1131 Y18.9139 
G01 X-14.1131 Y18.9141 
G01 X-14.0877 Y18.9520 
G01 X-14.0345 Y19.0318 
G01 X-13.9342 Y19.1321 
G01 X-13.9340 Y19.1323 
G01 X-13.8573 Y19.1834 
G01 X-13.8163 Y19.2109 
G01 X-13.8161 Y19.2109 
G01 X-13.8161 Y19.2110 
G01 X-13.7759 Y19.2276 
G01 X-13.6853 Y19.2652 
G01 X-13.6851 Y19.2652 
G01 X-13.4199 Y19.3751 
G01 X-13.4199 Y26.3447 
G01 X-13.6851 Y26.4546 
G01 X-13.6853 Y26.4546 
G01 X-13.7699 Y26.4897 
G01 X-13.8161 Y26.5088 
G01 X-13.8161 Y26.5089 
G01 X-13.8163 Y26.5089 
G01 X-13.8542 Y26.5343 
G01 X-13.9340 Y26.5875 
G01 X-14.0343 Y26.6878 
G01 X-14.0345 Y26.6880 
G01 X-14.0856 Y26.7647 
G01 X-14.1131 Y26.8057 
G01 X-14.1131 Y26.8059 
G01 X-14.1132 Y26.8059 
G01 X-14.1675 Y26.9369 
G01 X-14.1838 Y27.0191 
G01 X-14.1951 Y27.0758 
G01 X-14.1951 Y27.2177 
G01 X-14.1951 Y27.2179 
G01 X-14.1844 Y27.2715 
G01 X-14.1675 Y27.3568 
G01 X-14.1132 Y27.4878 
G01 X-14.1131 Y27.4878 
G01 X-14.0549 Y27.6284 
G01 X-14.0549 Y28.2514 
G01 X-14.3105 Y28.8687 
G01 X-14.3107 Y28.8689 
G01 X-14.3636 Y28.9969 
G01 X-14.3649 Y28.9999 
G01 X-14.3926 Y29.1390 
G01 X-14.3926 Y29.2809 
G01 X-14.3649 Y29.4200 
G01 X-14.3107 Y29.5510 
G01 X-14.3105 Y29.5512 
G01 X-14.0549 Y30.1684 
G01 X-14.0549 Y30.7914 
G01 X-14.2932 Y31.3670 
G01 X-14.5583 Y31.6320 
G01 X-14.5941 Y31.6634 
G01 X-14.6084 Y31.6822 
G01 X-14.6250 Y31.6987 
G01 X-14.6516 Y31.7386 
G01 X-14.6803 Y31.7760 
G01 X-14.6905 Y31.7968 
G01 X-14.7038 Y31.8166 
G01 X-14.7220 Y31.8607 
G01 X-14.7430 Y31.9032 
G01 X-14.7491 Y31.9262 
G01 X-14.7580 Y31.9476 
G01 X-14.7672 Y31.9938 
