( This gcode generated by /home/mattvenn/.eagle/ulp/pcb-gcode.ulp )
( Copyright 2005 by John Johnson. See readme.txt for licensing terms. )

( This file generated from the board /home/mattvenn/eagle-circuit-designs/energy plotter/polarplotter.brd )
( This file generated 19/12/2011 17:51 )

( T01 0.609600 )
( T02 0.812800 )
( T03 1.016000 )
( T04 1.117600 )
( T05 1.193800 )
( T06 3.200000 )
G21

G90
M05
G00 X0.0000 Y0.0000 Z10.0000 
M06 T01  ; 0.6096 
G00 Z2.0000 
M03
G04 P3.000000
G82 X-50.8000 Y15.2400 Z-2.0000 F127.00 R2.0000 P0.100000
G82 X-50.8000 Y20.3200 
M05
G00 X0.0000 Y0.0000 Z10.0000 
M06 T02  ; 0.8128 
G00 Z2.0000 
M03
G04 P3.000000
G82 X-21.5900 Y25.4000 Z-2.0000 F127.00 R2.0000 P0.100000
G82 X-21.5900 Y30.4800 
G82 X-27.9400 Y10.1600 
G82 X-27.9400 Y12.7000 
G82 X-27.9400 Y15.2400 
G82 X-29.2100 Y41.4020 
G82 X-29.2100 Y44.9580 
G82 X-34.2900 Y38.1000 
G82 X-36.8300 Y11.4300 
G82 X-36.8300 Y43.4340 
G82 X-36.8300 Y45.4660 
G82 X-39.3700 Y11.4300 
G82 X-40.6400 Y16.5100 
G82 X-40.6400 Y20.3200 
G82 X-41.9100 Y38.1000 
G82 X-43.1800 Y43.4340 
G82 X-43.1800 Y45.4660 
G82 X-43.1800 Y48.5140 
G82 X-43.1800 Y50.5460 
G82 X-44.4500 Y10.1600 
G82 X-45.7200 Y16.5100 
G82 X-45.7200 Y20.3200 
G82 X-48.2600 Y46.9900 
G82 X-52.0700 Y10.1600 
G82 X-53.3400 Y26.6700 
G82 X-53.3400 Y31.7500 
G82 X-53.3400 Y46.9900 
G82 X-57.1500 Y11.4300 
G82 X-57.1500 Y13.9700 
G82 X-57.1500 Y16.5100 
G82 X-57.1500 Y19.0500 
G82 X-57.1500 Y21.5900 
G82 X-57.1500 Y24.1300 
G82 X-57.1500 Y26.6700 
G82 X-57.1500 Y29.2100 
G82 X-57.1500 Y31.7500 
G82 X-57.1500 Y34.2900 
G82 X-57.1500 Y36.8300 
G82 X-57.1500 Y39.3700 
G82 X-57.1500 Y41.9100 
G82 X-57.1500 Y44.4500 
G82 X-64.7700 Y11.4300 
G82 X-64.7700 Y13.9700 
G82 X-64.7700 Y16.5100 
G82 X-64.7700 Y19.0500 
G82 X-64.7700 Y21.5900 
G82 X-64.7700 Y24.1300 
G82 X-64.7700 Y26.6700 
G82 X-64.7700 Y29.2100 
G82 X-64.7700 Y31.7500 
G82 X-64.7700 Y34.2900 
G82 X-64.7700 Y36.8300 
G82 X-64.7700 Y39.3700 
G82 X-64.7700 Y41.9100 
G82 X-64.7700 Y44.4500 
G82 X-72.3900 Y12.7000 
G82 X-74.9300 Y16.5100 
G82 X-77.4700 Y16.5100 
G82 X-80.0100 Y12.7000 
G82 X-80.0100 Y16.5100 
G82 X-80.0100 Y29.2100 
G82 X-80.0100 Y31.7500 
G82 X-80.0100 Y34.2900 
G82 X-80.0100 Y36.8300 
G82 X-80.0100 Y39.3700 
G82 X-80.0100 Y41.9100 
G82 X-80.0100 Y44.4500 
G82 X-80.0100 Y46.9900 
G82 X-80.0100 Y49.5300 
G82 X-83.8200 Y20.3200 
G82 X-87.6300 Y29.2100 
G82 X-87.6300 Y31.7500 
G82 X-87.6300 Y34.2900 
G82 X-87.6300 Y36.8300 
G82 X-87.6300 Y39.3700 
G82 X-87.6300 Y41.9100 
G82 X-87.6300 Y44.4500 
G82 X-87.6300 Y46.9900 
G82 X-87.6300 Y49.5300 
G82 X-91.4400 Y20.3200 
M05
G00 X0.0000 Y0.0000 Z10.0000 
M06 T03  ; 1.0160 
G00 Z2.0000 
M03
G04 P3.000000
G82 X-101.6000 Y21.5900 Z-2.0000 F127.00 R2.0000 P0.100000
G82 X-101.6000 Y24.1300 
G82 X-101.6000 Y26.6700 
G82 X-101.6000 Y29.2100 
G82 X-101.6000 Y31.7500 
G82 X-101.6000 Y34.2900 
G82 X-101.6000 Y38.1000 
G82 X-101.6000 Y40.6400 
G82 X-101.6000 Y43.1800 
G82 X-101.6000 Y45.7200 
G82 X-101.6000 Y48.2600 
G82 X-101.6000 Y50.8000 
G82 X-16.5100 Y10.1600 
G82 X-16.5100 Y12.7000 
G82 X-16.5100 Y15.2400 
G82 X-16.5100 Y17.7800 
G82 X-16.5100 Y22.8600 
G82 X-16.5100 Y25.4000 
G82 X-16.5100 Y27.9400 
G82 X-16.5100 Y30.4800 
G82 X-16.5100 Y33.0200 
G82 X-16.5100 Y35.5600 
G82 X-24.6888 Y30.7594 
G82 X-24.6888 Y35.2806 
G82 X-31.1912 Y30.7594 
G82 X-31.1912 Y35.2806 
G82 X-49.5300 Y50.8000 
G82 X-52.0700 Y50.8000 
G82 X-54.6100 Y50.8000 
G82 X-85.0900 Y15.2400 
G82 X-87.6300 Y15.2400 
G82 X-90.1700 Y15.2400 
G82 X-95.2500 Y19.0500 
G82 X-97.7900 Y19.0500 
M05
G00 X0.0000 Y0.0000 Z10.0000 
M06 T04  ; 1.1176 
G00 Z2.0000 
M03
G04 P3.000000
G82 X-26.6700 Y50.8000 Z-2.0000 F127.00 R2.0000 P0.100000
G82 X-36.8300 Y50.8000 
G82 X-82.5500 Y10.1600 
G82 X-92.7100 Y10.1600 
M05
G00 X0.0000 Y0.0000 Z10.0000 
M06 T05  ; 1.1938 
G00 Z2.0000 
M03
G04 P3.000000
G82 X-17.7800 Y44.4900 Z-2.0000 F127.00 R2.0000 P0.100000
G82 X-17.7800 Y49.4900 
G82 X-99.0600 Y8.9300 
G82 X-99.0600 Y13.9300 
M05
G00 X0.0000 Y0.0000 Z10.0000 
M06 T06  ; 3.2000 
G00 Z2.0000 
M03
G04 P3.000000
G82 X-6.3500 Y6.3500 Z-2.0000 F127.00 R2.0000 P0.100000
G82 X-6.3500 Y52.0700 
G82 X-107.9500 Y6.3500 
G82 X-107.9500 Y52.0700 
(File Footer)
T01 
G00 Z10.0000 
M05
M02
