( This gcode generated by /home/mattvenn/.eagle/ulp/pcb-gcode.ulp )
( Copyright 2005 by John Johnson. See readme.txt for licensing terms. )

( This file generated from the board /home/mattvenn/eagle-circuit-designs/pcb miller test/stuart.brd )
( This file generated 19/12/2011 15:36 )

G21

G90
G00 Z10.0000 
G00 X0 Y0
M03
G04 P3.000000
G00 Z2.0000 
G00 X14.9959 Y9.7350 
G01 Z-0.1000 F254.00 
G01 X14.9959 Y10.5849 
G01 X14.5542 Y11.0265 
G01 X14.5393 Y11.0626 
G01 X14.5007 Y11.1012 
G01 X14.4646 Y11.1161 
G01 X14.3949 Y11.1859 
G01 X13.5450 Y11.1859 
G01 X13.5360 Y11.1768 
G01 X3.7177 Y11.1768 
G01 X3.3369 Y11.5577 
G01 X3.1849 Y11.5577 
G01 X3.1849 Y19.2248 
G01 X3.3061 Y19.1035 
G01 X4.3138 Y19.1035 
G01 X5.0264 Y19.8161 
G01 X5.0264 Y20.8238 
G01 X4.3138 Y21.5364 
G01 X3.3061 Y21.5364 
G01 X2.7346 Y20.9649 
G01 X2.4764 Y20.9649 
G01 X2.3518 Y20.9401 
G01 X2.2344 Y20.8915 
G01 X2.1288 Y20.8209 
G01 X2.0390 Y20.7311 
G01 X1.9684 Y20.6255 
G01 X1.9198 Y20.5081 
G01 X1.8950 Y20.3835 
G01 X1.8950 Y20.2564 
G01 X1.8950 Y10.9656 
G01 X1.8861 Y10.9568 
G01 X1.8861 Y10.1069 
G01 X2.4870 Y9.5060 
G01 X3.3369 Y9.5060 
G01 X3.7177 Y9.8869 
G01 X12.9440 Y9.8869 
G01 X12.9440 Y9.7350 
G01 X13.5450 Y9.1340 
G01 X14.3949 Y9.1340 
G01 X14.9959 Y9.7350 
G00 Z2.0000 
G00 X22.6159 Y3.3850 
G01 Z-0.1000 F254.00 
G01 X22.6159 Y4.2349 
G01 X22.2349 Y4.6158 
G01 X22.2349 Y19.5141 
G01 X22.6159 Y19.8950 
G01 X22.6159 Y20.7449 
G01 X22.0149 Y21.3459 
G01 X21.1650 Y21.3459 
G01 X20.5640 Y20.7449 
G01 X20.5640 Y20.2061 
G01 X20.0528 Y19.6949 
G01 X6.2864 Y19.6949 
G01 X6.1618 Y19.6701 
G01 X6.0444 Y19.6215 
G01 X5.9388 Y19.5509 
G01 X5.8490 Y19.4611 
G01 X5.8490 Y19.4610 
G01 X4.2071 Y17.8192 
G01 X4.1365 Y17.7136 
G01 X4.0879 Y17.5962 
G01 X4.0631 Y17.4716 
G01 X4.0631 Y17.3445 
G01 X4.0631 Y13.1338 
G01 X3.6822 Y12.7529 
G01 X3.6822 Y11.9030 
G01 X4.2831 Y11.3021 
G01 X5.1330 Y11.3021 
G01 X5.5138 Y11.6830 
G01 X13.5361 Y11.6830 
G01 X13.5450 Y11.6740 
G01 X14.3949 Y11.6740 
G01 X14.9959 Y12.2750 
G01 X14.9959 Y13.1249 
G01 X14.3949 Y13.7259 
G01 X13.5450 Y13.7259 
G01 X12.9440 Y13.1249 
G01 X12.9440 Y12.9729 
G01 X5.5138 Y12.9729 
G01 X5.3530 Y13.1338 
G01 X5.3530 Y17.1409 
G01 X6.6171 Y18.4050 
G01 X20.2564 Y18.4050 
G01 X20.3835 Y18.4050 
G01 X20.5081 Y18.4298 
G01 X20.6255 Y18.4784 
G01 X20.7311 Y18.5490 
G01 X20.9450 Y18.7630 
G01 X20.9450 Y4.6158 
G01 X20.5640 Y4.2349 
G01 X20.5640 Y3.3850 
G01 X21.1650 Y2.7840 
G01 X22.0149 Y2.7840 
G01 X22.6159 Y3.3850 
G00 Z2.0000 
G00 X31.5059 Y19.8950 
G01 Z-0.1000 F254.00 
G01 X31.5059 Y20.7449 
G01 X30.9049 Y21.3459 
G01 X30.0550 Y21.3459 
G01 X29.6741 Y20.9649 
G01 X24.9358 Y20.9649 
G01 X24.5549 Y21.3459 
G01 X23.7050 Y21.3459 
G01 X23.1040 Y20.7449 
G01 X23.1040 Y19.8950 
G01 X23.4850 Y19.5141 
G01 X23.4850 Y4.6158 
G01 X23.1040 Y4.2349 
G01 X23.1040 Y3.3850 
G01 X23.7050 Y2.7840 
G01 X24.5549 Y2.7840 
G01 X25.1559 Y3.3850 
G01 X25.1559 Y4.2349 
G01 X24.7749 Y4.6158 
G01 X24.7749 Y19.5141 
G01 X24.9358 Y19.6750 
G01 X29.6741 Y19.6750 
G01 X29.8350 Y19.5141 
G01 X29.8350 Y7.1558 
G01 X29.4540 Y6.7749 
G01 X29.4540 Y5.9250 
G01 X30.0550 Y5.3240 
G01 X30.9049 Y5.3240 
G01 X31.5059 Y5.9250 
G01 X31.5059 Y6.7749 
G01 X31.1249 Y7.1558 
G01 X31.1249 Y19.5141 
G01 X31.5059 Y19.8950 
G00 Z2.0000 
G00 X34.0459 Y5.9250 
G01 Z-0.1000 F254.00 
G01 X34.0459 Y6.7749 
G01 X33.6649 Y7.1558 
G01 X33.6649 Y19.5141 
G01 X34.0459 Y19.8950 
G01 X34.0459 Y20.7449 
G01 X33.4449 Y21.3459 
G01 X32.5950 Y21.3459 
G01 X31.9940 Y20.7449 
G01 X31.9940 Y19.8950 
G01 X32.3750 Y19.5141 
G01 X32.3750 Y7.1558 
G01 X31.9940 Y6.7749 
G01 X31.9940 Y5.9250 
G01 X32.3750 Y5.5441 
G01 X32.3750 Y5.0164 
G01 X32.3998 Y4.8918 
G01 X32.4484 Y4.7744 
G01 X32.5190 Y4.6688 
G01 X32.6088 Y4.5790 
G01 X32.7144 Y4.5084 
G01 X32.8318 Y4.4598 
G01 X32.9564 Y4.4350 
G01 X33.0835 Y4.4350 
G01 X39.8341 Y4.4350 
G01 X40.2150 Y4.0540 
G01 X41.0649 Y4.0540 
G01 X41.6659 Y4.6550 
G01 X41.6659 Y5.5049 
G01 X41.2849 Y5.8858 
G01 X41.2849 Y14.4341 
G01 X41.6659 Y14.8150 
G01 X41.6659 Y15.6649 
G01 X41.0649 Y16.2659 
G01 X40.2150 Y16.2659 
G01 X39.6140 Y15.6649 
G01 X39.6140 Y14.8150 
G01 X39.9950 Y14.4341 
G01 X39.9950 Y5.8858 
G01 X39.8341 Y5.7249 
G01 X33.8457 Y5.7249 
G01 X34.0459 Y5.9250 
G00 Z2.0000 
G00 X42.4138 Y21.5364 
G01 Z-0.1000 F254.00 
G01 X41.4061 Y21.5364 
G01 X40.6935 Y20.8238 
G01 X40.6935 Y19.8161 
G01 X41.4061 Y19.1035 
G01 X42.4138 Y19.1035 
G01 X42.5350 Y19.2248 
G01 X42.5350 Y16.0458 
G01 X42.1540 Y15.6649 
G01 X42.1540 Y14.8150 
G01 X42.5350 Y14.4341 
G01 X42.5350 Y5.8858 
G01 X42.1540 Y5.5049 
G01 X42.1540 Y4.6550 
G01 X42.7550 Y4.0540 
G01 X43.6049 Y4.0540 
G01 X44.2059 Y4.6550 
G01 X44.2059 Y5.5049 
G01 X43.8249 Y5.8858 
G01 X43.8249 Y14.4341 
G01 X44.2059 Y14.8150 
G01 X44.2059 Y15.6649 
G01 X43.8249 Y16.0458 
G01 X43.8249 Y20.3835 
G01 X43.8001 Y20.5081 
G01 X43.7515 Y20.6255 
G01 X43.6809 Y20.7311 
G01 X43.5911 Y20.8209 
G01 X43.4855 Y20.8915 
G01 X43.3681 Y20.9401 
G01 X43.2435 Y20.9649 
G01 X43.1164 Y20.9649 
G01 X42.9852 Y20.9649 
G01 X42.4138 Y21.5364 
G00 Z2.0000 
G00 X19.1135 Y22.2349 
G01 Z-0.1000 F254.00 
G01 X6.2864 Y22.2349 
G01 X6.1618 Y22.2101 
G01 X6.0444 Y22.1615 
G01 X5.9388 Y22.0909 
G01 X5.8490 Y22.0011 
G01 X5.7784 Y21.8955 
G01 X5.7298 Y21.7781 
G01 X5.7050 Y21.6535 
G01 X5.7050 Y21.5264 
G01 X5.7298 Y21.4018 
G01 X5.7784 Y21.2844 
G01 X5.8490 Y21.1788 
G01 X5.9388 Y21.0890 
G01 X6.0444 Y21.0184 
G01 X6.1618 Y20.9698 
G01 X6.2864 Y20.9450 
G01 X19.1135 Y20.9450 
G01 X19.2381 Y20.9698 
G01 X19.3555 Y21.0184 
G01 X19.4611 Y21.0890 
G01 X19.5509 Y21.1788 
G01 X19.6215 Y21.2844 
G01 X19.6701 Y21.4018 
G01 X19.6949 Y21.5264 
G01 X19.6949 Y21.6535 
G01 X19.6701 Y21.7781 
G01 X19.6215 Y21.8955 
G01 X19.5509 Y22.0011 
G01 X19.4611 Y22.0909 
G01 X19.3555 Y22.1615 
G01 X19.2381 Y22.2101 
G01 X19.1135 Y22.2349 
G00 Z2.0000 
G00 X15.3035 Y5.7249 
G01 Z-0.1000 F254.00 
G01 X2.4764 Y5.7249 
G01 X2.3518 Y5.7001 
G01 X2.2344 Y5.6515 
G01 X2.1288 Y5.5809 
G01 X2.0390 Y5.4911 
G01 X1.9684 Y5.3855 
G01 X1.9198 Y5.2681 
G01 X1.8950 Y5.1435 
G01 X1.8950 Y5.0164 
G01 X1.9198 Y4.8918 
G01 X1.9684 Y4.7744 
G01 X2.0390 Y4.6688 
G01 X2.1288 Y4.5790 
G01 X2.2344 Y4.5084 
G01 X2.3518 Y4.4598 
G01 X2.4764 Y4.4350 
G01 X15.3035 Y4.4350 
G01 X15.4281 Y4.4598 
G01 X15.5455 Y4.5084 
G01 X15.6511 Y4.5790 
G01 X15.7409 Y4.6688 
G01 X15.8115 Y4.7744 
G01 X15.8601 Y4.8918 
G01 X15.8849 Y5.0164 
G01 X15.8849 Y5.1435 
G01 X15.8601 Y5.2681 
G01 X15.8115 Y5.3855 
G01 X15.7409 Y5.4911 
G01 X15.6511 Y5.5809 
G01 X15.5455 Y5.6515 
G01 X15.4281 Y5.7001 
G01 X15.3035 Y5.7249 
G00 Z2.0000 
G00 X22.7159 Y3.3436 
G01 Z-0.1000 F254.00 
G01 X22.7159 Y4.2763 
G01 X22.3349 Y4.6572 
G01 X22.3349 Y19.4727 
G01 X22.7159 Y19.8536 
G01 X22.7159 Y20.7863 
G01 X22.0563 Y21.4459 
G01 X21.1236 Y21.4459 
G01 X20.4640 Y20.7863 
G01 X20.4640 Y20.2475 
G01 X20.0114 Y19.7949 
G01 X6.2765 Y19.7949 
G01 X6.1326 Y19.7663 
G01 X5.9971 Y19.7101 
G01 X5.8751 Y19.6286 
G01 X5.7713 Y19.5248 
G01 X5.7713 Y19.5247 
G01 X4.1294 Y17.8829 
G01 X4.0479 Y17.7609 
G01 X3.9917 Y17.6254 
G01 X3.9631 Y17.4815 
G01 X3.9631 Y17.3346 
G01 X3.9631 Y13.1753 
G01 X3.5822 Y12.7944 
G01 X3.5822 Y11.8615 
G01 X4.1670 Y11.2768 
G01 X3.7592 Y11.2768 
G01 X3.3784 Y11.6577 
G01 X3.2849 Y11.6577 
G01 X3.2849 Y19.0035 
G01 X4.3552 Y19.0035 
G01 X5.1264 Y19.7747 
G01 X5.1264 Y20.8652 
G01 X4.3552 Y21.6364 
G01 X3.2647 Y21.6364 
G01 X2.6932 Y21.0649 
G01 X2.4665 Y21.0649 
G01 X2.3226 Y21.0363 
G01 X2.1871 Y20.9801 
G01 X2.0651 Y20.8986 
G01 X1.9613 Y20.7948 
G01 X1.8798 Y20.6728 
G01 X1.8236 Y20.5373 
G01 X1.7950 Y20.3934 
G01 X1.7950 Y20.2465 
G01 X1.7950 Y11.0071 
G01 X1.7861 Y10.9983 
G01 X1.7861 Y10.0654 
G01 X2.4455 Y9.4060 
G01 X3.3784 Y9.4060 
G01 X3.7592 Y9.7869 
G01 X12.8440 Y9.7869 
G01 X12.8440 Y9.6936 
G01 X13.5036 Y9.0340 
G01 X14.4363 Y9.0340 
G01 X15.0959 Y9.6936 
G01 X15.0959 Y10.6263 
G01 X14.6390 Y11.0831 
G01 X14.6240 Y11.1193 
G01 X14.5574 Y11.1859 
G01 X14.5212 Y11.2009 
G01 X14.4363 Y11.2859 
G01 X13.5036 Y11.2859 
G01 X13.4946 Y11.2768 
G01 X5.2491 Y11.2768 
G01 X5.5553 Y11.5830 
G01 X13.4947 Y11.5830 
G01 X13.5036 Y11.5740 
G01 X14.4363 Y11.5740 
G01 X15.0959 Y12.2336 
G01 X15.0959 Y13.1663 
G01 X14.4363 Y13.8259 
G01 X13.5036 Y13.8259 
G01 X12.8440 Y13.1663 
G01 X12.8440 Y13.0729 
G01 X5.5553 Y13.0729 
G01 X5.4530 Y13.1753 
G01 X5.4530 Y17.0995 
G01 X6.6585 Y18.3050 
G01 X20.2465 Y18.3050 
G01 X20.3934 Y18.3050 
G01 X20.5373 Y18.3336 
G01 X20.6728 Y18.3898 
G01 X20.7948 Y18.4713 
G01 X20.8450 Y18.5216 
G01 X20.8450 Y4.6572 
G01 X20.4640 Y4.2763 
G01 X20.4640 Y3.3436 
G01 X21.1236 Y2.6840 
G01 X22.0563 Y2.6840 
G01 X22.7159 Y3.3436 
G00 Z2.0000 
G00 X31.6059 Y19.8536 
G01 Z-0.1000 F254.00 
G01 X31.6059 Y20.7863 
G01 X30.9463 Y21.4459 
G01 X30.0136 Y21.4459 
G01 X29.6327 Y21.0649 
G01 X24.9772 Y21.0649 
G01 X24.5963 Y21.4459 
G01 X23.6636 Y21.4459 
G01 X23.0040 Y20.7863 
G01 X23.0040 Y19.8536 
G01 X23.3850 Y19.4727 
G01 X23.3850 Y4.6572 
G01 X23.0040 Y4.2763 
G01 X23.0040 Y3.3436 
G01 X23.6636 Y2.6840 
G01 X24.5963 Y2.6840 
G01 X25.2559 Y3.3436 
G01 X25.2559 Y4.2763 
G01 X24.8749 Y4.6572 
G01 X24.8749 Y19.4727 
G01 X24.9772 Y19.5750 
G01 X29.6327 Y19.5750 
G01 X29.7350 Y19.4727 
G01 X29.7350 Y7.1972 
G01 X29.3540 Y6.8163 
G01 X29.3540 Y5.8836 
G01 X30.0136 Y5.2240 
G01 X30.9463 Y5.2240 
G01 X31.6059 Y5.8836 
G01 X31.6059 Y6.8163 
G01 X31.2249 Y7.1972 
G01 X31.2249 Y19.4727 
G01 X31.6059 Y19.8536 
G00 Z2.0000 
G00 X34.1459 Y5.8836 
G01 Z-0.1000 F254.00 
G01 X34.1459 Y6.8163 
G01 X33.7649 Y7.1972 
G01 X33.7649 Y19.4727 
G01 X34.1459 Y19.8536 
G01 X34.1459 Y20.7863 
G01 X33.4863 Y21.4459 
G01 X32.5536 Y21.4459 
G01 X31.8940 Y20.7863 
G01 X31.8940 Y19.8536 
G01 X32.2750 Y19.4727 
G01 X32.2750 Y7.1972 
G01 X31.8940 Y6.8163 
G01 X31.8940 Y5.8836 
G01 X32.2750 Y5.5027 
G01 X32.2750 Y5.0065 
G01 X32.3036 Y4.8626 
G01 X32.3598 Y4.7271 
G01 X32.4413 Y4.6051 
G01 X32.5451 Y4.5013 
G01 X32.6671 Y4.4198 
G01 X32.8026 Y4.3636 
G01 X32.9465 Y4.3350 
G01 X33.0934 Y4.3350 
G01 X39.7927 Y4.3350 
G01 X40.1736 Y3.9540 
G01 X41.1063 Y3.9540 
G01 X41.7659 Y4.6136 
G01 X41.7659 Y5.5463 
G01 X41.3849 Y5.9272 
G01 X41.3849 Y14.3927 
G01 X41.7659 Y14.7736 
G01 X41.7659 Y15.7063 
G01 X41.1063 Y16.3659 
G01 X40.1736 Y16.3659 
G01 X39.5140 Y15.7063 
G01 X39.5140 Y14.7736 
G01 X39.8950 Y14.3927 
G01 X39.8950 Y5.9272 
G01 X39.7927 Y5.8249 
G01 X34.0871 Y5.8249 
G01 X34.1459 Y5.8836 
G00 Z2.0000 
G00 X42.4552 Y21.6364 
G01 Z-0.1000 F254.00 
G01 X41.3647 Y21.6364 
G01 X40.5935 Y20.8652 
G01 X40.5935 Y19.7747 
G01 X41.3647 Y19.0035 
G01 X42.4350 Y19.0035 
G01 X42.4350 Y16.0872 
G01 X42.0540 Y15.7063 
G01 X42.0540 Y14.7736 
G01 X42.4350 Y14.3927 
G01 X42.4350 Y5.9272 
G01 X42.0540 Y5.5463 
G01 X42.0540 Y4.6136 
G01 X42.7136 Y3.9540 
G01 X43.6463 Y3.9540 
G01 X44.3059 Y4.6136 
G01 X44.3059 Y5.5463 
G01 X43.9249 Y5.9272 
G01 X43.9249 Y14.3927 
G01 X44.3059 Y14.7736 
G01 X44.3059 Y15.7063 
G01 X43.9249 Y16.0872 
G01 X43.9249 Y20.3934 
G01 X43.8963 Y20.5373 
G01 X43.8401 Y20.6728 
G01 X43.7586 Y20.7948 
G01 X43.6548 Y20.8986 
G01 X43.5328 Y20.9801 
G01 X43.3973 Y21.0363 
G01 X43.2534 Y21.0649 
G01 X43.1065 Y21.0649 
G01 X43.0266 Y21.0649 
G01 X42.4552 Y21.6364 
G00 Z2.0000 
G00 X19.1234 Y22.3349 
G01 Z-0.1000 F254.00 
G01 X6.2765 Y22.3349 
G01 X6.1326 Y22.3063 
G01 X5.9971 Y22.2501 
G01 X5.8751 Y22.1686 
G01 X5.7713 Y22.0648 
G01 X5.6898 Y21.9428 
G01 X5.6336 Y21.8073 
G01 X5.6050 Y21.6634 
G01 X5.6050 Y21.5165 
G01 X5.6336 Y21.3726 
G01 X5.6898 Y21.2371 
G01 X5.7713 Y21.1151 
G01 X5.8751 Y21.0113 
G01 X5.9971 Y20.9298 
G01 X6.1326 Y20.8736 
G01 X6.2765 Y20.8450 
G01 X19.1234 Y20.8450 
G01 X19.2673 Y20.8736 
G01 X19.4028 Y20.9298 
G01 X19.5248 Y21.0113 
G01 X19.6286 Y21.1151 
G01 X19.7101 Y21.2371 
G01 X19.7663 Y21.3726 
G01 X19.7949 Y21.5165 
G01 X19.7949 Y21.6634 
G01 X19.7663 Y21.8073 
G01 X19.7101 Y21.9428 
G01 X19.6286 Y22.0648 
G01 X19.5248 Y22.1686 
G01 X19.4028 Y22.2501 
G01 X19.2673 Y22.3063 
G01 X19.1234 Y22.3349 
G00 Z2.0000 
G00 X15.3134 Y5.8249 
G01 Z-0.1000 F254.00 
G01 X2.4665 Y5.8249 
G01 X2.3226 Y5.7963 
G01 X2.1871 Y5.7401 
G01 X2.0651 Y5.6586 
G01 X1.9613 Y5.5548 
G01 X1.8798 Y5.4328 
G01 X1.8236 Y5.2973 
G01 X1.7950 Y5.1534 
G01 X1.7950 Y5.0065 
G01 X1.8236 Y4.8626 
G01 X1.8798 Y4.7271 
G01 X1.9613 Y4.6051 
G01 X2.0651 Y4.5013 
G01 X2.1871 Y4.4198 
G01 X2.3226 Y4.3636 
G01 X2.4665 Y4.3350 
G01 X15.3134 Y4.3350 
G01 X15.4573 Y4.3636 
G01 X15.5928 Y4.4198 
G01 X15.7148 Y4.5013 
G01 X15.8186 Y4.6051 
G01 X15.9001 Y4.7271 
G01 X15.9563 Y4.8626 
G01 X15.9849 Y5.0065 
G01 X15.9849 Y5.1534 
G01 X15.9563 Y5.2973 
G01 X15.9001 Y5.4328 
G01 X15.8186 Y5.5548 
G01 X15.7148 Y5.6586 
G01 X15.5928 Y5.7401 
G01 X15.4573 Y5.7963 
G01 X15.3134 Y5.8249 
G00 Z2.0000 
G00 X22.8159 Y3.3022 
G01 Z-0.1000 F254.00 
G01 X22.8159 Y4.3177 
G01 X22.4349 Y4.6986 
G01 X22.4349 Y19.4313 
G01 X22.8159 Y19.8122 
G01 X22.8159 Y20.8277 
G01 X22.0977 Y21.5459 
G01 X21.0822 Y21.5459 
G01 X20.3640 Y20.8277 
G01 X20.3640 Y20.2890 
G01 X19.9699 Y19.8949 
G01 X6.2667 Y19.8949 
G01 X6.1035 Y19.8624 
G01 X5.9497 Y19.7987 
G01 X5.8113 Y19.7063 
G01 X5.6936 Y19.5886 
G01 X5.6936 Y19.5885 
G01 X4.0517 Y17.9467 
G01 X3.9593 Y17.8083 
G01 X3.8956 Y17.6545 
G01 X3.8631 Y17.4913 
G01 X3.8631 Y17.3248 
G01 X3.8631 Y13.2167 
G01 X3.4822 Y12.8358 
G01 X3.4822 Y11.8201 
G01 X3.9256 Y11.3768 
G01 X3.8006 Y11.3768 
G01 X3.4198 Y11.7577 
G01 X3.3849 Y11.7577 
G01 X3.3849 Y18.9035 
G01 X4.3966 Y18.9035 
G01 X5.2264 Y19.7333 
G01 X5.2264 Y20.9066 
G01 X4.3966 Y21.7364 
G01 X3.2233 Y21.7364 
G01 X2.6518 Y21.1649 
G01 X2.4567 Y21.1649 
G01 X2.2935 Y21.1324 
G01 X2.1397 Y21.0687 
G01 X2.0013 Y20.9763 
G01 X1.8836 Y20.8586 
G01 X1.7912 Y20.7202 
G01 X1.7275 Y20.5664 
G01 X1.6950 Y20.4032 
G01 X1.6950 Y20.2367 
G01 X1.6950 Y11.0485 
G01 X1.6861 Y11.0397 
G01 X1.6861 Y10.0240 
G01 X2.4041 Y9.3060 
G01 X3.4198 Y9.3060 
G01 X3.8006 Y9.6869 
G01 X12.7440 Y9.6869 
G01 X12.7440 Y9.6522 
G01 X13.4622 Y8.9340 
G01 X14.4777 Y8.9340 
G01 X15.1959 Y9.6522 
G01 X15.1959 Y10.6677 
G01 X14.7217 Y11.1418 
G01 X14.6928 Y11.1920 
G01 X14.6301 Y11.2547 
G01 X14.5799 Y11.2836 
G01 X14.4777 Y11.3859 
G01 X13.4622 Y11.3859 
G01 X13.4532 Y11.3768 
G01 X5.4905 Y11.3768 
G01 X5.5967 Y11.4830 
G01 X13.4533 Y11.4830 
G01 X13.4622 Y11.4740 
G01 X14.4777 Y11.4740 
G01 X15.1959 Y12.1922 
G01 X15.1959 Y13.2077 
G01 X14.4777 Y13.9259 
G01 X13.4622 Y13.9259 
G01 X12.7440 Y13.2077 
G01 X12.7440 Y13.1729 
G01 X5.5967 Y13.1729 
G01 X5.5530 Y13.2167 
G01 X5.5530 Y17.0580 
G01 X6.7000 Y18.2050 
G01 X20.2367 Y18.2050 
G01 X20.4032 Y18.2050 
G01 X20.5664 Y18.2375 
G01 X20.7202 Y18.3012 
G01 X20.7450 Y18.3178 
G01 X20.7450 Y4.6986 
G01 X20.3640 Y4.3177 
G01 X20.3640 Y3.3022 
G01 X21.0822 Y2.5840 
G01 X22.0977 Y2.5840 
G01 X22.8159 Y3.3022 
G00 Z2.0000 
G00 X31.7059 Y19.8122 
G01 Z-0.1000 F254.00 
G01 X31.7059 Y20.8277 
G01 X30.9877 Y21.5459 
G01 X29.9722 Y21.5459 
G01 X29.5913 Y21.1649 
G01 X25.0186 Y21.1649 
G01 X24.6377 Y21.5459 
G01 X23.6222 Y21.5459 
G01 X22.9040 Y20.8277 
G01 X22.9040 Y19.8122 
G01 X23.2850 Y19.4313 
G01 X23.2850 Y4.6986 
G01 X22.9040 Y4.3177 
G01 X22.9040 Y3.3022 
G01 X23.6222 Y2.5840 
G01 X24.6377 Y2.5840 
G01 X25.3559 Y3.3022 
G01 X25.3559 Y4.3177 
G01 X24.9749 Y4.6986 
G01 X24.9749 Y19.4313 
G01 X25.0186 Y19.4750 
G01 X29.5913 Y19.4750 
G01 X29.6350 Y19.4313 
G01 X29.6350 Y7.2386 
G01 X29.2540 Y6.8577 
G01 X29.2540 Y5.8422 
G01 X29.9722 Y5.1240 
G01 X30.9877 Y5.1240 
G01 X31.7059 Y5.8422 
G01 X31.7059 Y6.8577 
G01 X31.3249 Y7.2386 
G01 X31.3249 Y19.4313 
G01 X31.7059 Y19.8122 
G00 Z2.0000 
G00 X34.2459 Y6.8577 
G01 Z-0.1000 F254.00 
G01 X33.8649 Y7.2386 
G01 X33.8649 Y19.4313 
G01 X34.2459 Y19.8122 
G01 X34.2459 Y20.8277 
G01 X33.5277 Y21.5459 
G01 X32.5122 Y21.5459 
G01 X31.7940 Y20.8277 
G01 X31.7940 Y19.8122 
G01 X32.1750 Y19.4313 
G01 X32.1750 Y7.2386 
G01 X31.7940 Y6.8577 
G01 X31.7940 Y5.8422 
G01 X32.1750 Y5.4613 
G01 X32.1750 Y4.9967 
G01 X32.2075 Y4.8335 
G01 X32.2712 Y4.6797 
G01 X32.3636 Y4.5413 
G01 X32.4813 Y4.4236 
G01 X32.6197 Y4.3312 
G01 X32.7735 Y4.2675 
G01 X32.9367 Y4.2350 
G01 X33.1032 Y4.2350 
G01 X39.7513 Y4.2350 
G01 X40.1322 Y3.8540 
G01 X41.1477 Y3.8540 
G01 X41.8659 Y4.5722 
G01 X41.8659 Y5.5877 
G01 X41.4849 Y5.9686 
G01 X41.4849 Y14.3513 
G01 X41.8659 Y14.7322 
G01 X41.8659 Y15.7477 
G01 X41.1477 Y16.4659 
G01 X40.1322 Y16.4659 
G01 X39.4140 Y15.7477 
G01 X39.4140 Y14.7322 
G01 X39.7950 Y14.3513 
G01 X39.7950 Y5.9686 
G01 X39.7513 Y5.9249 
G01 X34.2459 Y5.9249 
G01 X34.2459 Y6.8577 
G00 Z2.0000 
G00 X42.4966 Y21.7364 
G01 Z-0.1000 F254.00 
G01 X41.3233 Y21.7364 
G01 X40.4935 Y20.9066 
G01 X40.4935 Y19.7333 
G01 X41.3233 Y18.9035 
G01 X42.3350 Y18.9035 
G01 X42.3350 Y16.1286 
G01 X41.9540 Y15.7477 
G01 X41.9540 Y14.7322 
G01 X42.3350 Y14.3513 
G01 X42.3350 Y5.9686 
G01 X41.9540 Y5.5877 
G01 X41.9540 Y4.5722 
G01 X42.6722 Y3.8540 
G01 X43.6877 Y3.8540 
G01 X44.4059 Y4.5722 
G01 X44.4059 Y5.5877 
G01 X44.0249 Y5.9686 
G01 X44.0249 Y14.3513 
G01 X44.4059 Y14.7322 
G01 X44.4059 Y15.7477 
G01 X44.0249 Y16.1286 
G01 X44.0249 Y20.4032 
G01 X43.9924 Y20.5664 
G01 X43.9287 Y20.7202 
G01 X43.8363 Y20.8586 
G01 X43.7186 Y20.9763 
G01 X43.5802 Y21.0687 
G01 X43.4264 Y21.1324 
G01 X43.2632 Y21.1649 
G01 X43.0967 Y21.1649 
G01 X43.0680 Y21.1649 
G01 X42.4966 Y21.7364 
G00 Z2.0000 
G00 X19.1332 Y22.4349 
G01 Z-0.1000 F254.00 
G01 X6.2667 Y22.4349 
G01 X6.1035 Y22.4024 
G01 X5.9497 Y22.3387 
G01 X5.8113 Y22.2463 
G01 X5.6936 Y22.1286 
G01 X5.6012 Y21.9902 
G01 X5.5375 Y21.8364 
G01 X5.5050 Y21.6732 
G01 X5.5050 Y21.5067 
G01 X5.5375 Y21.3435 
G01 X5.6012 Y21.1897 
G01 X5.6936 Y21.0513 
G01 X5.8113 Y20.9336 
G01 X5.9497 Y20.8412 
G01 X6.1035 Y20.7775 
G01 X6.2667 Y20.7450 
G01 X19.1332 Y20.7450 
G01 X19.2964 Y20.7775 
G01 X19.4502 Y20.8412 
G01 X19.5886 Y20.9336 
G01 X19.7063 Y21.0513 
G01 X19.7987 Y21.1897 
G01 X19.8624 Y21.3435 
G01 X19.8949 Y21.5067 
G01 X19.8949 Y21.6732 
G01 X19.8624 Y21.8364 
G01 X19.7987 Y21.9902 
G01 X19.7063 Y22.1286 
G01 X19.5886 Y22.2463 
G01 X19.4502 Y22.3387 
G01 X19.2964 Y22.4024 
G01 X19.1332 Y22.4349 
G00 Z2.0000 
G00 X15.3232 Y5.9249 
G01 Z-0.1000 F254.00 
G01 X2.4567 Y5.9249 
G01 X2.2935 Y5.8924 
G01 X2.1397 Y5.8287 
G01 X2.0013 Y5.7363 
G01 X1.8836 Y5.6186 
G01 X1.7912 Y5.4802 
G01 X1.7275 Y5.3264 
G01 X1.6950 Y5.1632 
G01 X1.6950 Y4.9967 
G01 X1.7275 Y4.8335 
G01 X1.7912 Y4.6797 
G01 X1.8836 Y4.5413 
G01 X2.0013 Y4.4236 
G01 X2.1397 Y4.3312 
G01 X2.2935 Y4.2675 
G01 X2.4567 Y4.2350 
G01 X15.3232 Y4.2350 
G01 X15.4864 Y4.2675 
G01 X15.6402 Y4.3312 
G01 X15.7786 Y4.4236 
G01 X15.8963 Y4.5413 
G01 X15.9887 Y4.6797 
G01 X16.0524 Y4.8335 
G01 X16.0849 Y4.9967 
G01 X16.0849 Y5.1632 
G01 X16.0524 Y5.3264 
G01 X15.9887 Y5.4802 
G01 X15.8963 Y5.6186 
G01 X15.7786 Y5.7363 
G01 X15.6402 Y5.8287 
G01 X15.4864 Y5.8924 
G01 X15.3232 Y5.9249 
(File Footer)
G00 Z2.0000 
G00 Z10.0000 
M05
M02
