( This gcode generated by /home/mattvenn/.eagle/ulp/pcb-gcode.ulp )
( Copyright 2005 by John Johnson. See readme.txt for licensing terms. )

( This file generated from the board /home/mattvenn/eagle-circuit-designs/pcb miller test/stuart.brd )
( This file generated 19/12/2011 15:36 )

G21

G90
G00 Z10.0000 
G00 X0 Y0
M03
G04 P3.000000
G00 Z2.0000 
G00 X-5.0264 Y19.8161 
G01 Z-0.1000 F254.00 
G01 X-5.0264 Y20.8238 
G01 X-4.3138 Y21.5364 
G01 X-3.3061 Y21.5364 
G01 X-2.5935 Y20.8238 
G01 X-2.5935 Y19.8161 
G01 X-3.3061 Y19.1035 
G01 X-4.3138 Y19.1035 
G01 X-5.0264 Y19.8161 
G00 Z2.0000 
G00 X-43.1264 Y19.8161 
G01 Z-0.1000 F254.00 
G01 X-43.1264 Y20.8238 
G01 X-42.4138 Y21.5364 
G01 X-41.4061 Y21.5364 
G01 X-40.6935 Y20.8238 
G01 X-40.6935 Y19.8161 
G01 X-41.4061 Y19.1035 
G01 X-42.4138 Y19.1035 
G01 X-43.1264 Y19.8161 
G00 Z2.0000 
G00 X-44.2059 Y4.6550 
G01 Z-0.1000 F254.00 
G01 X-44.2059 Y5.5049 
G01 X-43.6049 Y6.1059 
G01 X-42.7550 Y6.1059 
G01 X-42.1540 Y5.5049 
G01 X-42.1540 Y4.6550 
G01 X-42.7550 Y4.0540 
G01 X-43.6049 Y4.0540 
G01 X-44.2059 Y4.6550 
G00 Z2.0000 
G00 X-41.6659 Y4.6550 
G01 Z-0.1000 F254.00 
G01 X-41.6659 Y5.5049 
G01 X-41.0649 Y6.1059 
G01 X-40.2150 Y6.1059 
G01 X-39.6140 Y5.5049 
G01 X-39.6140 Y4.6550 
G01 X-40.2150 Y4.0540 
G01 X-41.0649 Y4.0540 
G01 X-41.6659 Y4.6550 
G00 Z2.0000 
G00 X-44.2059 Y14.8150 
G01 Z-0.1000 F254.00 
G01 X-44.2059 Y15.6649 
G01 X-43.6049 Y16.2659 
G01 X-42.7550 Y16.2659 
G01 X-42.1540 Y15.6649 
G01 X-42.1540 Y14.8150 
G01 X-42.7550 Y14.2140 
G01 X-43.6049 Y14.2140 
G01 X-44.2059 Y14.8150 
G00 Z2.0000 
G00 X-41.6659 Y14.8150 
G01 Z-0.1000 F254.00 
G01 X-41.6659 Y15.6649 
G01 X-41.0649 Y16.2659 
G01 X-40.2150 Y16.2659 
G01 X-39.6140 Y15.6649 
G01 X-39.6140 Y14.8150 
G01 X-40.2150 Y14.2140 
G01 X-41.0649 Y14.2140 
G01 X-41.6659 Y14.8150 
G00 Z2.0000 
G00 X-34.0459 Y5.9250 
G01 Z-0.1000 F254.00 
G01 X-34.0459 Y6.7749 
G01 X-33.4449 Y7.3759 
G01 X-32.5950 Y7.3759 
G01 X-31.9940 Y6.7749 
G01 X-31.9940 Y5.9250 
G01 X-32.5950 Y5.3240 
G01 X-33.4449 Y5.3240 
G01 X-34.0459 Y5.9250 
G00 Z2.0000 
G00 X-31.5059 Y5.9250 
G01 Z-0.1000 F254.00 
G01 X-31.5059 Y6.7749 
G01 X-30.9049 Y7.3759 
G01 X-30.0550 Y7.3759 
G01 X-29.4540 Y6.7749 
G01 X-29.4540 Y5.9250 
G01 X-30.0550 Y5.3240 
G01 X-30.9049 Y5.3240 
G01 X-31.5059 Y5.9250 
G00 Z2.0000 
G00 X-34.0459 Y19.8950 
G01 Z-0.1000 F254.00 
G01 X-34.0459 Y20.7449 
G01 X-33.4449 Y21.3459 
G01 X-32.5950 Y21.3459 
G01 X-31.9940 Y20.7449 
G01 X-31.9940 Y19.8950 
G01 X-32.5950 Y19.2940 
G01 X-33.4449 Y19.2940 
G01 X-34.0459 Y19.8950 
G00 Z2.0000 
G00 X-31.5059 Y19.8950 
G01 Z-0.1000 F254.00 
G01 X-31.5059 Y20.7449 
G01 X-30.9049 Y21.3459 
G01 X-30.0550 Y21.3459 
G01 X-29.4540 Y20.7449 
G01 X-29.4540 Y19.8950 
G01 X-30.0550 Y19.2940 
G01 X-30.9049 Y19.2940 
G01 X-31.5059 Y19.8950 
G00 Z2.0000 
G00 X-25.1559 Y3.3850 
G01 Z-0.1000 F254.00 
G01 X-25.1559 Y4.2349 
G01 X-24.5549 Y4.8359 
G01 X-23.7050 Y4.8359 
G01 X-23.1040 Y4.2349 
G01 X-23.1040 Y3.3850 
G01 X-23.7050 Y2.7840 
G01 X-24.5549 Y2.7840 
G01 X-25.1559 Y3.3850 
G00 Z2.0000 
G00 X-22.6159 Y3.3850 
G01 Z-0.1000 F254.00 
G01 X-22.6159 Y4.2349 
G01 X-22.0149 Y4.8359 
G01 X-21.1650 Y4.8359 
G01 X-20.5640 Y4.2349 
G01 X-20.5640 Y3.3850 
G01 X-21.1650 Y2.7840 
G01 X-22.0149 Y2.7840 
G01 X-22.6159 Y3.3850 
G00 Z2.0000 
G00 X-25.1559 Y19.8950 
G01 Z-0.1000 F254.00 
G01 X-25.1559 Y20.7449 
G01 X-24.5549 Y21.3459 
G01 X-23.7050 Y21.3459 
G01 X-23.1040 Y20.7449 
G01 X-23.1040 Y19.8950 
G01 X-23.7050 Y19.2940 
G01 X-24.5549 Y19.2940 
G01 X-25.1559 Y19.8950 
G00 Z2.0000 
G00 X-22.6159 Y19.8950 
G01 Z-0.1000 F254.00 
G01 X-22.6159 Y20.7449 
G01 X-22.0149 Y21.3459 
G01 X-21.1650 Y21.3459 
G01 X-20.5640 Y20.7449 
G01 X-20.5640 Y19.8950 
G01 X-21.1650 Y19.2940 
G01 X-22.0149 Y19.2940 
G01 X-22.6159 Y19.8950 
G00 Z2.0000 
G00 X-5.7339 Y12.7529 
G01 Z-0.1000 F254.00 
G01 X-5.1330 Y13.3538 
G01 X-4.2831 Y13.3538 
G01 X-3.6822 Y12.7529 
G01 X-3.6822 Y11.9030 
G01 X-4.2831 Y11.3021 
G01 X-5.1330 Y11.3021 
G01 X-5.7339 Y11.9030 
G01 X-5.7339 Y12.7529 
G00 Z2.0000 
G00 X-14.9959 Y9.7350 
G01 Z-0.1000 F254.00 
G01 X-14.9959 Y10.5849 
G01 X-14.5542 Y11.0265 
G01 X-14.5393 Y11.0626 
G01 X-14.5007 Y11.1012 
G01 X-14.4646 Y11.1161 
G01 X-14.3949 Y11.1859 
G01 X-13.5450 Y11.1859 
G01 X-13.4753 Y11.1161 
G01 X-13.4392 Y11.1012 
G01 X-13.4006 Y11.0626 
G01 X-13.3857 Y11.0265 
G01 X-12.9440 Y10.5849 
G01 X-12.9440 Y9.7350 
G01 X-13.5450 Y9.1340 
G01 X-14.3949 Y9.1340 
G01 X-14.9959 Y9.7350 
G00 Z2.0000 
G00 X-14.9959 Y12.2750 
G01 Z-0.1000 F254.00 
G01 X-14.9959 Y13.1249 
G01 X-14.3949 Y13.7259 
G01 X-13.5450 Y13.7259 
G01 X-12.9440 Y13.1249 
G01 X-12.9440 Y12.2750 
G01 X-13.5450 Y11.6740 
G01 X-14.3949 Y11.6740 
G01 X-14.9959 Y12.2750 
G00 Z2.0000 
G00 X-3.9378 Y10.9568 
G01 Z-0.1000 F254.00 
G01 X-3.3369 Y11.5577 
G01 X-2.4870 Y11.5577 
G01 X-1.8861 Y10.9568 
G01 X-1.8861 Y10.1069 
G01 X-2.4870 Y9.5060 
G01 X-3.3369 Y9.5060 
G01 X-3.9378 Y10.1069 
G01 X-3.9378 Y10.9568 
G00 Z2.0000 
G00 X-5.1264 Y19.7747 
G01 Z-0.1000 F254.00 
G01 X-5.1264 Y20.8652 
G01 X-4.3552 Y21.6364 
G01 X-3.2647 Y21.6364 
G01 X-2.4935 Y20.8652 
G01 X-2.4935 Y19.7747 
G01 X-3.2647 Y19.0035 
G01 X-4.3552 Y19.0035 
G01 X-5.1264 Y19.7747 
G00 Z2.0000 
G00 X-43.2264 Y19.7747 
G01 Z-0.1000 F254.00 
G01 X-43.2264 Y20.8652 
G01 X-42.4552 Y21.6364 
G01 X-41.3647 Y21.6364 
G01 X-40.5935 Y20.8652 
G01 X-40.5935 Y19.7747 
G01 X-41.3647 Y19.0035 
G01 X-42.4552 Y19.0035 
G01 X-43.2264 Y19.7747 
G00 Z2.0000 
G00 X-44.3059 Y4.6136 
G01 Z-0.1000 F254.00 
G01 X-44.3059 Y5.5463 
G01 X-43.6463 Y6.2059 
G01 X-42.7136 Y6.2059 
G01 X-42.0540 Y5.5463 
G01 X-42.0540 Y4.6136 
G01 X-42.7136 Y3.9540 
G01 X-43.6463 Y3.9540 
G01 X-44.3059 Y4.6136 
G00 Z2.0000 
G00 X-41.7659 Y4.6136 
G01 Z-0.1000 F254.00 
G01 X-41.7659 Y5.5463 
G01 X-41.1063 Y6.2059 
G01 X-40.1736 Y6.2059 
G01 X-39.5140 Y5.5463 
G01 X-39.5140 Y4.6136 
G01 X-40.1736 Y3.9540 
G01 X-41.1063 Y3.9540 
G01 X-41.7659 Y4.6136 
G00 Z2.0000 
G00 X-44.3059 Y14.7736 
G01 Z-0.1000 F254.00 
G01 X-44.3059 Y15.7063 
G01 X-43.6463 Y16.3659 
G01 X-42.7136 Y16.3659 
G01 X-42.0540 Y15.7063 
G01 X-42.0540 Y14.7736 
G01 X-42.7136 Y14.1140 
G01 X-43.6463 Y14.1140 
G01 X-44.3059 Y14.7736 
G00 Z2.0000 
G00 X-41.7659 Y14.7736 
G01 Z-0.1000 F254.00 
G01 X-41.7659 Y15.7063 
G01 X-41.1063 Y16.3659 
G01 X-40.1736 Y16.3659 
G01 X-39.5140 Y15.7063 
G01 X-39.5140 Y14.7736 
G01 X-40.1736 Y14.1140 
G01 X-41.1063 Y14.1140 
G01 X-41.7659 Y14.7736 
G00 Z2.0000 
G00 X-34.1459 Y5.8836 
G01 Z-0.1000 F254.00 
G01 X-34.1459 Y6.8163 
G01 X-33.4863 Y7.4759 
G01 X-32.5536 Y7.4759 
G01 X-31.8940 Y6.8163 
G01 X-31.8940 Y5.8836 
G01 X-32.5536 Y5.2240 
G01 X-33.4863 Y5.2240 
G01 X-34.1459 Y5.8836 
G00 Z2.0000 
G00 X-31.6059 Y5.8836 
G01 Z-0.1000 F254.00 
G01 X-31.6059 Y6.8163 
G01 X-30.9463 Y7.4759 
G01 X-30.0136 Y7.4759 
G01 X-29.3540 Y6.8163 
G01 X-29.3540 Y5.8836 
G01 X-30.0136 Y5.2240 
G01 X-30.9463 Y5.2240 
G01 X-31.6059 Y5.8836 
G00 Z2.0000 
G00 X-34.1459 Y19.8536 
G01 Z-0.1000 F254.00 
G01 X-34.1459 Y20.7863 
G01 X-33.4863 Y21.4459 
G01 X-32.5536 Y21.4459 
G01 X-31.8940 Y20.7863 
G01 X-31.8940 Y19.8536 
G01 X-32.5536 Y19.1940 
G01 X-33.4863 Y19.1940 
G01 X-34.1459 Y19.8536 
G00 Z2.0000 
G00 X-31.6059 Y19.8536 
G01 Z-0.1000 F254.00 
G01 X-31.6059 Y20.7863 
G01 X-30.9463 Y21.4459 
G01 X-30.0136 Y21.4459 
G01 X-29.3540 Y20.7863 
G01 X-29.3540 Y19.8536 
G01 X-30.0136 Y19.1940 
G01 X-30.9463 Y19.1940 
G01 X-31.6059 Y19.8536 
G00 Z2.0000 
G00 X-25.2559 Y3.3436 
G01 Z-0.1000 F254.00 
G01 X-25.2559 Y4.2763 
G01 X-24.5963 Y4.9359 
G01 X-23.6636 Y4.9359 
G01 X-23.0040 Y4.2763 
G01 X-23.0040 Y3.3436 
G01 X-23.6636 Y2.6840 
G01 X-24.5963 Y2.6840 
G01 X-25.2559 Y3.3436 
G00 Z2.0000 
G00 X-22.7159 Y3.3436 
G01 Z-0.1000 F254.00 
G01 X-22.7159 Y4.2763 
G01 X-22.0563 Y4.9359 
G01 X-21.1236 Y4.9359 
G01 X-20.4640 Y4.2763 
G01 X-20.4640 Y3.3436 
G01 X-21.1236 Y2.6840 
G01 X-22.0563 Y2.6840 
G01 X-22.7159 Y3.3436 
G00 Z2.0000 
G00 X-25.2559 Y19.8536 
G01 Z-0.1000 F254.00 
G01 X-25.2559 Y20.7863 
G01 X-24.5963 Y21.4459 
G01 X-23.6636 Y21.4459 
G01 X-23.0040 Y20.7863 
G01 X-23.0040 Y19.8536 
G01 X-23.6636 Y19.1940 
G01 X-24.5963 Y19.1940 
G01 X-25.2559 Y19.8536 
G00 Z2.0000 
G00 X-22.7159 Y19.8536 
G01 Z-0.1000 F254.00 
G01 X-22.7159 Y20.7863 
G01 X-22.0563 Y21.4459 
G01 X-21.1236 Y21.4459 
G01 X-20.4640 Y20.7863 
G01 X-20.4640 Y19.8536 
G01 X-21.1236 Y19.1940 
G01 X-22.0563 Y19.1940 
G01 X-22.7159 Y19.8536 
G00 Z2.0000 
G00 X-5.8339 Y12.7944 
G01 Z-0.1000 F254.00 
G01 X-5.1745 Y13.4538 
G01 X-4.2416 Y13.4538 
G01 X-3.5822 Y12.7944 
G01 X-3.5822 Y11.8615 
G01 X-4.2416 Y11.2021 
G01 X-5.1745 Y11.2021 
G01 X-5.8339 Y11.8615 
G01 X-5.8339 Y12.7944 
G00 Z2.0000 
G00 X-15.0959 Y9.6936 
G01 Z-0.1000 F254.00 
G01 X-15.0959 Y10.6263 
G01 X-14.6389 Y11.0832 
G01 X-14.6240 Y11.1193 
G01 X-14.5574 Y11.1859 
G01 X-14.5213 Y11.2008 
G01 X-14.4363 Y11.2859 
G01 X-13.5036 Y11.2859 
G01 X-13.4186 Y11.2008 
G01 X-13.3825 Y11.1859 
G01 X-13.3159 Y11.1193 
G01 X-13.3010 Y11.0832 
G01 X-12.8440 Y10.6263 
G01 X-12.8440 Y9.6936 
G01 X-13.5036 Y9.0340 
G01 X-14.4363 Y9.0340 
G01 X-15.0959 Y9.6936 
G00 Z2.0000 
G00 X-15.0959 Y12.2336 
G01 Z-0.1000 F254.00 
G01 X-15.0959 Y13.1663 
G01 X-14.4363 Y13.8259 
G01 X-13.5036 Y13.8259 
G01 X-12.8440 Y13.1663 
G01 X-12.8440 Y12.2336 
G01 X-13.5036 Y11.5740 
G01 X-14.4363 Y11.5740 
G01 X-15.0959 Y12.2336 
G00 Z2.0000 
G00 X-4.0378 Y10.9983 
G01 Z-0.1000 F254.00 
G01 X-3.3784 Y11.6577 
G01 X-2.4455 Y11.6577 
G01 X-1.7861 Y10.9983 
G01 X-1.7861 Y10.0654 
G01 X-2.4455 Y9.4060 
G01 X-3.3784 Y9.4060 
G01 X-4.0378 Y10.0654 
G01 X-4.0378 Y10.9983 
G00 Z2.0000 
G00 X-5.2264 Y19.7333 
G01 Z-0.1000 F254.00 
G01 X-5.2264 Y20.9066 
G01 X-4.3966 Y21.7364 
G01 X-3.2233 Y21.7364 
G01 X-2.3935 Y20.9066 
G01 X-2.3935 Y19.7333 
G01 X-3.2233 Y18.9035 
G01 X-4.3966 Y18.9035 
G01 X-5.2264 Y19.7333 
G00 Z2.0000 
G00 X-43.3264 Y19.7333 
G01 Z-0.1000 F254.00 
G01 X-43.3264 Y20.9066 
G01 X-42.4966 Y21.7364 
G01 X-41.3233 Y21.7364 
G01 X-40.4935 Y20.9066 
G01 X-40.4935 Y19.7333 
G01 X-41.3233 Y18.9035 
G01 X-42.4966 Y18.9035 
G01 X-43.3264 Y19.7333 
G00 Z2.0000 
G00 X-44.4059 Y4.5722 
G01 Z-0.1000 F254.00 
G01 X-44.4059 Y5.5877 
G01 X-43.6877 Y6.3059 
G01 X-42.6722 Y6.3059 
G01 X-41.9540 Y5.5877 
G01 X-41.9540 Y4.5722 
G01 X-42.6722 Y3.8540 
G01 X-43.6877 Y3.8540 
G01 X-44.4059 Y4.5722 
G00 Z2.0000 
G00 X-41.8659 Y4.5722 
G01 Z-0.1000 F254.00 
G01 X-41.8659 Y5.5877 
G01 X-41.1477 Y6.3059 
G01 X-40.1322 Y6.3059 
G01 X-39.4140 Y5.5877 
G01 X-39.4140 Y4.5722 
G01 X-40.1322 Y3.8540 
G01 X-41.1477 Y3.8540 
G01 X-41.8659 Y4.5722 
G00 Z2.0000 
G00 X-44.4059 Y14.7322 
G01 Z-0.1000 F254.00 
G01 X-44.4059 Y15.7477 
G01 X-43.6877 Y16.4659 
G01 X-42.6722 Y16.4659 
G01 X-41.9540 Y15.7477 
G01 X-41.9540 Y14.7322 
G01 X-42.6722 Y14.0140 
G01 X-43.6877 Y14.0140 
G01 X-44.4059 Y14.7322 
G00 Z2.0000 
G00 X-41.8659 Y14.7322 
G01 Z-0.1000 F254.00 
G01 X-41.8659 Y15.7477 
G01 X-41.1477 Y16.4659 
G01 X-40.1322 Y16.4659 
G01 X-39.4140 Y15.7477 
G01 X-39.4140 Y14.7322 
G01 X-40.1322 Y14.0140 
G01 X-41.1477 Y14.0140 
G01 X-41.8659 Y14.7322 
G00 Z2.0000 
G00 X-34.2459 Y5.8422 
G01 Z-0.1000 F254.00 
G01 X-34.2459 Y6.8577 
G01 X-33.5277 Y7.5759 
G01 X-32.5122 Y7.5759 
G01 X-31.7940 Y6.8577 
G01 X-31.7940 Y5.8422 
G01 X-32.5122 Y5.1240 
G01 X-33.5277 Y5.1240 
G01 X-34.2459 Y5.8422 
G00 Z2.0000 
G00 X-31.7059 Y5.8422 
G01 Z-0.1000 F254.00 
G01 X-31.7059 Y6.8577 
G01 X-30.9877 Y7.5759 
G01 X-29.9722 Y7.5759 
G01 X-29.2540 Y6.8577 
G01 X-29.2540 Y5.8422 
G01 X-29.9722 Y5.1240 
G01 X-30.9877 Y5.1240 
G01 X-31.7059 Y5.8422 
G00 Z2.0000 
G00 X-34.2459 Y19.8122 
G01 Z-0.1000 F254.00 
G01 X-34.2459 Y20.8277 
G01 X-33.5277 Y21.5459 
G01 X-32.5122 Y21.5459 
G01 X-31.7940 Y20.8277 
G01 X-31.7940 Y19.8122 
G01 X-32.5122 Y19.0940 
G01 X-33.5277 Y19.0940 
G01 X-34.2459 Y19.8122 
G00 Z2.0000 
G00 X-31.7059 Y19.8122 
G01 Z-0.1000 F254.00 
G01 X-31.7059 Y20.8277 
G01 X-30.9877 Y21.5459 
G01 X-29.9722 Y21.5459 
G01 X-29.2540 Y20.8277 
G01 X-29.2540 Y19.8122 
G01 X-29.9722 Y19.0940 
G01 X-30.9877 Y19.0940 
G01 X-31.7059 Y19.8122 
G00 Z2.0000 
G00 X-25.3559 Y3.3022 
G01 Z-0.1000 F254.00 
G01 X-25.3559 Y4.3177 
G01 X-24.6377 Y5.0359 
G01 X-23.6222 Y5.0359 
G01 X-22.9040 Y4.3177 
G01 X-22.9040 Y3.3022 
G01 X-23.6222 Y2.5840 
G01 X-24.6377 Y2.5840 
G01 X-25.3559 Y3.3022 
G00 Z2.0000 
G00 X-22.8159 Y3.3022 
G01 Z-0.1000 F254.00 
G01 X-22.8159 Y4.3177 
G01 X-22.0977 Y5.0359 
G01 X-21.0822 Y5.0359 
G01 X-20.3640 Y4.3177 
G01 X-20.3640 Y3.3022 
G01 X-21.0822 Y2.5840 
G01 X-22.0977 Y2.5840 
G01 X-22.8159 Y3.3022 
G00 Z2.0000 
G00 X-25.3559 Y19.8122 
G01 Z-0.1000 F254.00 
G01 X-25.3559 Y20.8277 
G01 X-24.6377 Y21.5459 
G01 X-23.6222 Y21.5459 
G01 X-22.9040 Y20.8277 
G01 X-22.9040 Y19.8122 
G01 X-23.6222 Y19.0940 
G01 X-24.6377 Y19.0940 
G01 X-25.3559 Y19.8122 
G00 Z2.0000 
G00 X-22.8159 Y19.8122 
G01 Z-0.1000 F254.00 
G01 X-22.8159 Y20.8277 
G01 X-22.0977 Y21.5459 
G01 X-21.0822 Y21.5459 
G01 X-20.3640 Y20.8277 
G01 X-20.3640 Y19.8122 
G01 X-21.0822 Y19.0940 
G01 X-22.0977 Y19.0940 
G01 X-22.8159 Y19.8122 
G00 Z2.0000 
G00 X-5.9339 Y12.8358 
G01 Z-0.1000 F254.00 
G01 X-5.2159 Y13.5538 
G01 X-4.2002 Y13.5538 
G01 X-3.4822 Y12.8358 
G01 X-3.4822 Y11.8201 
G01 X-4.2002 Y11.1021 
G01 X-5.2159 Y11.1021 
G01 X-5.9339 Y11.8201 
G01 X-5.9339 Y12.8358 
G00 Z2.0000 
G00 X-15.1959 Y9.6522 
G01 Z-0.1000 F254.00 
G01 X-15.1959 Y10.6677 
G01 X-14.7216 Y11.1419 
G01 X-14.6928 Y11.1920 
G01 X-14.6301 Y11.2547 
G01 X-14.5800 Y11.2835 
G01 X-14.4777 Y11.3859 
G01 X-13.4622 Y11.3859 
G01 X-13.3599 Y11.2835 
G01 X-13.3098 Y11.2547 
G01 X-13.2471 Y11.1920 
G01 X-13.2183 Y11.1419 
G01 X-12.7440 Y10.6677 
G01 X-12.7440 Y9.6522 
G01 X-13.4622 Y8.9340 
G01 X-14.4777 Y8.9340 
G01 X-15.1959 Y9.6522 
G00 Z2.0000 
G00 X-15.1959 Y12.1922 
G01 Z-0.1000 F254.00 
G01 X-15.1959 Y13.2077 
G01 X-14.4777 Y13.9259 
G01 X-13.4622 Y13.9259 
G01 X-12.7440 Y13.2077 
G01 X-12.7440 Y12.1922 
G01 X-13.4622 Y11.4740 
G01 X-14.4777 Y11.4740 
G01 X-15.1959 Y12.1922 
G00 Z2.0000 
G00 X-4.1378 Y11.0397 
G01 Z-0.1000 F254.00 
G01 X-3.4198 Y11.7577 
G01 X-2.4041 Y11.7577 
G01 X-1.6861 Y11.0397 
G01 X-1.6861 Y10.0240 
G01 X-2.4041 Y9.3060 
G01 X-3.4198 Y9.3060 
G01 X-4.1378 Y10.0240 
G01 X-4.1378 Y11.0397 
(File Footer)
G00 Z2.0000 
G00 Z10.0000 
M05
M02
