( This gcode generated by /home/mattvenn/.eagle/ulp/pcb-gcode.ulp )
( Copyright 2005 by John Johnson. See readme.txt for licensing terms. )

( This file generated from the board /home/mattvenn/eagle-circuit-designs/pcb miller test/stuart.brd )
( This file generated 19/12/2011 15:36 )

G21

G90
G00 Z10.0000 
G00 X0 Y0
M03
G04 P3.000000
G00 Z2.0000 
G00 X1.2700 Y22.8600 
G01 Z-2.0000 F254.00 
G01 X1.2700 Y8.8900 
G01 X11.4300 Y8.8900 
G01 X11.4300 Y6.3500 
G01 X1.2700 Y6.3500 
G01 X1.2700 Y1.2700 
G01 X16.5100 Y3.8100 
G01 X16.5100 Y13.9700 
G01 X6.3500 Y13.9700 
G01 X6.3500 Y17.7800 
G01 X20.3200 Y17.7800 
G01 X20.3200 Y1.2700 
G01 X25.4000 Y1.2700 
G01 X25.4000 Y17.7800 
G01 X29.2100 Y17.7800 
G01 X29.2100 Y3.8100 
G01 X44.4500 Y1.2700 
G01 X44.4500 Y22.8600 
G01 X39.3700 Y22.8600 
G01 X39.3700 Y7.6200 
G01 X34.2900 Y7.6200 
G01 X34.2900 Y22.8600 
G01 X1.2700 Y22.8600 
(File Footer)
G00 Z10.0000 
M05
M02
