( This gcode generated by /home/mattvenn/.eagle/ulp/pcb-gcode.ulp )
( Copyright 2005 by John Johnson. See readme.txt for licensing terms. )

( This file generated from the board /home/mattvenn/eagle-circuit-designs/pcb miller test/stuart.brd )
( This file generated 19/12/2011 15:36 )

( T01 0.500000 )
( T02 0.812800 )
( T03 1.016000 )
G21

G90
M05
G00 X0.0000 Y0.0000 Z10.0000 
M06 T01  ; 0.5000 
G00 Z2.0000 
M03
G04 P3.000000
G82 X13.9700 Y10.5319 Z-2.0000 F127.00 R2.0000 P1.000000
M05
G00 X0.0000 Y0.0000 Z10.0000 
M06 T02  ; 0.8128 
G00 Z2.0000 
M03
G04 P3.000000
G82 X2.9120 Y10.5319 Z-2.0000 F127.00 R2.0000 P1.000000
G82 X4.7081 Y12.3280 
G82 X13.9700 Y10.1600 
G82 X13.9700 Y12.7000 
G82 X21.5900 Y3.8100 
G82 X21.5900 Y20.3200 
G82 X24.1300 Y3.8100 
G82 X24.1300 Y20.3200 
G82 X30.4800 Y6.3500 
G82 X30.4800 Y20.3200 
G82 X33.0200 Y6.3500 
G82 X33.0200 Y20.3200 
G82 X40.6400 Y5.0800 
G82 X40.6400 Y15.2400 
G82 X43.1800 Y5.0800 
G82 X43.1800 Y15.2400 
M05
G00 X0.0000 Y0.0000 Z10.0000 
M06 T03  ; 1.0160 
G00 Z2.0000 
M03
G04 P3.000000
G82 X3.8100 Y20.3200 Z-2.0000 F127.00 R2.0000 P1.000000
G82 X41.9100 Y20.3200 
(File Footer)
T01 
G00 Z10.0000 
M05
M02
