( This gcode generated by /home/mattvenn/.eagle/ulp/pcb-gcode.ulp )
( Copyright 2005 by John Johnson. See readme.txt for licensing terms. )

( This file generated from the board /home/mattvenn/eagle-circuit-designs/pcb miller test/untitled.brd )
( This file generated 19/12/2011 15:21 )

G21

G90
G00 Z10.0000 
G00 X0 Y0
M03
G04 P3.000000
G00 Z2.0000 
G00 X0.0000 Y33.0200 
G01 Z-2.0000 F254.00 
G01 X22.8600 Y33.0200 
G01 X22.8600 Y0.0000 
G01 X0.0000 Y0.0000 
G01 X0.0000 Y33.0200 
(File Footer)
G00 Z10.0000 
M05
M02
