( This gcode generated by /home/mattvenn/.eagle/ulp/pcb-gcode.ulp )
( Copyright 2005 by John Johnson. See readme.txt for licensing terms. )

( This file generated from the board /home/mattvenn/eagle-circuit-designs/pcb miller test/untitled.brd )
( This file generated 19/12/2011 15:21 )

G21

G90
G00 Z10.0000 
G00 X0 Y0
M03
G04 P3.000000
G00 Z2.0000 
G00 X-10.3976 Y8.5971 
G01 Z-0.1000 F254.00 
G01 X-10.3976 Y6.6028 
G01 X-10.4373 Y6.4034 
G01 X-10.5151 Y6.2155 
G01 X-10.6281 Y6.0464 
G01 X-10.7718 Y5.9027 
G01 X-10.9409 Y5.7897 
G01 X-11.1288 Y5.7119 
G01 X-11.3282 Y5.6722 
G01 X-11.5317 Y5.6722 
G01 X-11.7311 Y5.7119 
G01 X-11.9190 Y5.7897 
G01 X-12.0881 Y5.9027 
G01 X-12.2318 Y6.0464 
G01 X-12.3448 Y6.2155 
G01 X-12.4226 Y6.4034 
G01 X-12.4623 Y6.6028 
G01 X-12.4623 Y8.5971 
G01 X-12.4226 Y8.7965 
G01 X-12.3448 Y8.9844 
G01 X-12.2318 Y9.1535 
G01 X-12.0881 Y9.2972 
G01 X-12.0749 Y9.3060 
G01 X-12.0749 Y10.7850 
G01 X-15.1764 Y10.7850 
G01 X-15.3035 Y10.7850 
G01 X-15.4281 Y10.8098 
G01 X-15.5455 Y10.8584 
G01 X-15.6511 Y10.9290 
G01 X-15.7409 Y11.0188 
G01 X-15.8115 Y11.1244 
G01 X-15.8601 Y11.2418 
G01 X-15.8849 Y11.3664 
G01 X-15.8849 Y18.9753 
G01 X-16.6469 Y19.7372 
G01 X-16.6469 Y20.9027 
G01 X-15.8227 Y21.7269 
G01 X-14.6572 Y21.7269 
G01 X-13.8330 Y20.9027 
G01 X-13.8330 Y19.7372 
G01 X-14.5950 Y18.9753 
G01 X-14.5950 Y12.0749 
G01 X-11.3664 Y12.0749 
G01 X-11.2418 Y12.0501 
G01 X-11.1244 Y12.0015 
G01 X-11.0188 Y11.9309 
G01 X-10.9290 Y11.8411 
G01 X-10.8584 Y11.7355 
G01 X-10.8098 Y11.6181 
G01 X-10.7850 Y11.4935 
G01 X-10.7850 Y11.3664 
G01 X-10.7850 Y9.3060 
G01 X-10.7718 Y9.2972 
G01 X-10.6281 Y9.1535 
G01 X-10.5151 Y8.9844 
G01 X-10.4373 Y8.7965 
G01 X-10.3976 Y8.5971 
G00 Z2.0000 
G00 X-6.3091 Y26.1608 
G01 Z-0.1000 F254.00 
G01 X-6.3091 Y27.1791 
G01 X-5.5891 Y27.8991 
G01 X-4.5708 Y27.8991 
G01 X-3.8508 Y27.1791 
G01 X-3.8508 Y26.1608 
G01 X-4.4350 Y25.5767 
G01 X-4.4350 Y16.5846 
G01 X-3.6730 Y15.8227 
G01 X-3.6730 Y14.6572 
G01 X-4.4972 Y13.8330 
G01 X-5.6627 Y13.8330 
G01 X-6.4869 Y14.6572 
G01 X-6.4869 Y15.8227 
G01 X-5.7249 Y16.5846 
G01 X-5.7249 Y25.5767 
G01 X-6.3091 Y26.1608 
G00 Z2.0000 
G00 X-8.2027 Y21.7269 
G01 Z-0.1000 F254.00 
G01 X-7.0372 Y21.7269 
G01 X-6.2130 Y20.9027 
G01 X-6.2130 Y19.7372 
G01 X-7.0372 Y18.9130 
G01 X-8.2027 Y18.9130 
G01 X-8.9646 Y19.6750 
G01 X-11.3664 Y19.6750 
G01 X-11.4935 Y19.6750 
G01 X-11.6181 Y19.6998 
G01 X-11.7355 Y19.7484 
G01 X-11.8411 Y19.8190 
G01 X-11.9309 Y19.9088 
G01 X-12.0015 Y20.0144 
G01 X-12.0501 Y20.1318 
G01 X-12.0749 Y20.2564 
G01 X-12.0749 Y22.2150 
G01 X-15.1764 Y22.2150 
G01 X-15.3035 Y22.2150 
G01 X-15.4281 Y22.2398 
G01 X-15.5455 Y22.2884 
G01 X-15.6511 Y22.3590 
G01 X-15.7409 Y22.4488 
G01 X-15.8115 Y22.5544 
G01 X-15.8601 Y22.6718 
G01 X-15.8849 Y22.7964 
G01 X-15.8849 Y25.0977 
G01 X-15.9974 Y25.2101 
G01 X-16.1041 Y25.3698 
G01 X-16.1776 Y25.5473 
G01 X-16.2151 Y25.7357 
G01 X-16.2151 Y27.6042 
G01 X-16.1776 Y27.7926 
G01 X-16.1041 Y27.9701 
G01 X-15.9974 Y28.1298 
G01 X-15.8616 Y28.2656 
G01 X-15.7019 Y28.3723 
G01 X-15.5244 Y28.4458 
G01 X-15.3360 Y28.4833 
G01 X-15.1439 Y28.4833 
G01 X-14.9555 Y28.4458 
G01 X-14.7780 Y28.3723 
G01 X-14.6183 Y28.2656 
G01 X-14.4825 Y28.1298 
G01 X-14.3758 Y27.9701 
G01 X-14.3023 Y27.7926 
G01 X-14.2648 Y27.6042 
G01 X-14.2648 Y25.7357 
G01 X-14.3023 Y25.5473 
G01 X-14.3758 Y25.3698 
G01 X-14.4825 Y25.2101 
G01 X-14.5950 Y25.0977 
G01 X-14.5950 Y23.5049 
G01 X-11.3664 Y23.5049 
G01 X-11.2418 Y23.4801 
G01 X-11.1244 Y23.4315 
G01 X-11.0188 Y23.3609 
G01 X-10.9290 Y23.2711 
G01 X-10.8584 Y23.1655 
G01 X-10.8098 Y23.0481 
G01 X-10.7850 Y22.9235 
G01 X-10.7850 Y22.7964 
G01 X-10.7850 Y20.9649 
G01 X-8.9646 Y20.9649 
G01 X-8.2027 Y21.7269 
G00 Z2.0000 
G00 X-14.1069 Y14.6572 
G01 Z-0.1000 F254.00 
G01 X-14.1069 Y15.8227 
G01 X-13.2827 Y16.6469 
G01 X-12.1172 Y16.6469 
G01 X-11.3553 Y15.8849 
G01 X-8.9535 Y15.8849 
G01 X-8.8264 Y15.8849 
G01 X-8.7018 Y15.8601 
G01 X-8.5844 Y15.8115 
G01 X-8.4788 Y15.7409 
G01 X-8.3890 Y15.6511 
G01 X-8.3184 Y15.5455 
G01 X-8.2698 Y15.4281 
G01 X-8.2450 Y15.3035 
G01 X-8.2450 Y12.0749 
G01 X-6.4935 Y12.0749 
G01 X-6.3664 Y12.0749 
G01 X-6.2418 Y12.0501 
G01 X-6.1244 Y12.0015 
G01 X-6.0188 Y11.9309 
G01 X-5.9290 Y11.8411 
G01 X-5.8584 Y11.7355 
G01 X-5.8098 Y11.6181 
G01 X-5.7850 Y11.4935 
G01 X-5.7850 Y9.3060 
G01 X-5.7718 Y9.2972 
G01 X-5.6281 Y9.1535 
G01 X-5.5151 Y8.9844 
G01 X-5.4373 Y8.7965 
G01 X-5.3976 Y8.5971 
G01 X-5.3976 Y6.6028 
G01 X-5.4373 Y6.4034 
G01 X-5.5151 Y6.2155 
G01 X-5.6281 Y6.0464 
G01 X-5.7718 Y5.9027 
G01 X-5.9409 Y5.7897 
G01 X-6.1288 Y5.7119 
G01 X-6.3282 Y5.6722 
G01 X-6.5317 Y5.6722 
G01 X-6.7311 Y5.7119 
G01 X-6.9190 Y5.7897 
G01 X-7.0881 Y5.9027 
G01 X-7.2318 Y6.0464 
G01 X-7.3448 Y6.2155 
G01 X-7.4226 Y6.4034 
G01 X-7.4623 Y6.6028 
G01 X-7.4623 Y8.5971 
G01 X-7.4226 Y8.7965 
G01 X-7.3448 Y8.9844 
G01 X-7.2318 Y9.1535 
G01 X-7.0881 Y9.2972 
G01 X-7.0749 Y9.3060 
G01 X-7.0749 Y10.7850 
G01 X-8.9535 Y10.7850 
G01 X-9.0781 Y10.8098 
G01 X-9.1955 Y10.8584 
G01 X-9.3011 Y10.9290 
G01 X-9.3909 Y11.0188 
G01 X-9.4615 Y11.1244 
G01 X-9.5101 Y11.2418 
G01 X-9.5349 Y11.3664 
G01 X-9.5349 Y11.4935 
G01 X-9.5349 Y14.5950 
G01 X-11.3553 Y14.5950 
G01 X-12.1172 Y13.8330 
G01 X-13.2827 Y13.8330 
G01 X-14.1069 Y14.6572 
G00 Z2.0000 
G00 X-16.8048 Y27.6042 
G01 Z-0.1000 F254.00 
G01 X-16.8048 Y25.7357 
G01 X-16.8423 Y25.5473 
G01 X-16.9158 Y25.3698 
G01 X-17.0225 Y25.2101 
G01 X-17.1350 Y25.0977 
G01 X-17.1350 Y9.2502 
G01 X-17.0881 Y9.2972 
G01 X-16.9190 Y9.4102 
G01 X-16.7311 Y9.4880 
G01 X-16.5317 Y9.5277 
G01 X-16.3282 Y9.5277 
G01 X-16.1288 Y9.4880 
G01 X-15.9409 Y9.4102 
G01 X-15.7718 Y9.2972 
G01 X-15.6281 Y9.1535 
G01 X-15.5151 Y8.9844 
G01 X-15.4373 Y8.7965 
G01 X-15.3976 Y8.5971 
G01 X-15.3976 Y6.6028 
G01 X-15.4373 Y6.4034 
G01 X-15.5151 Y6.2155 
G01 X-15.6281 Y6.0464 
G01 X-15.7718 Y5.9027 
G01 X-15.9409 Y5.7897 
G01 X-16.1288 Y5.7119 
G01 X-16.3282 Y5.6722 
G01 X-16.5317 Y5.6722 
G01 X-16.7311 Y5.7119 
G01 X-16.9190 Y5.7897 
G01 X-17.0881 Y5.9027 
G01 X-17.2318 Y6.0464 
G01 X-17.3448 Y6.2155 
G01 X-17.4226 Y6.4034 
G01 X-17.4623 Y6.6028 
G01 X-17.4623 Y6.9550 
G01 X-17.7164 Y6.9550 
G01 X-17.8435 Y6.9550 
G01 X-17.9681 Y6.9798 
G01 X-18.0855 Y7.0284 
G01 X-18.1911 Y7.0990 
G01 X-18.2809 Y7.1888 
G01 X-18.3515 Y7.2944 
G01 X-18.4001 Y7.4118 
G01 X-18.4249 Y7.5364 
G01 X-18.4249 Y25.0977 
G01 X-18.5374 Y25.2101 
G01 X-18.6441 Y25.3698 
G01 X-18.7176 Y25.5473 
G01 X-18.7551 Y25.7357 
G01 X-18.7551 Y27.6042 
G01 X-18.7176 Y27.7926 
G01 X-18.6441 Y27.9701 
G01 X-18.5374 Y28.1298 
G01 X-18.4016 Y28.2656 
G01 X-18.2419 Y28.3723 
G01 X-18.0644 Y28.4458 
G01 X-17.8760 Y28.4833 
G01 X-17.6839 Y28.4833 
G01 X-17.4955 Y28.4458 
G01 X-17.3180 Y28.3723 
G01 X-17.1583 Y28.2656 
G01 X-17.0225 Y28.1298 
G01 X-16.9158 Y27.9701 
G01 X-16.8423 Y27.7926 
G01 X-16.8048 Y27.6042 
G00 Z2.0000 
G00 X-11.7248 Y27.6042 
G01 Z-0.1000 F254.00 
G01 X-11.7248 Y27.3149 
G01 X-8.7132 Y27.3149 
G01 X-8.1291 Y27.8991 
G01 X-7.1108 Y27.8991 
G01 X-6.3908 Y27.1791 
G01 X-6.3908 Y26.1608 
G01 X-7.1108 Y25.4408 
G01 X-8.1291 Y25.4408 
G01 X-8.7132 Y26.0250 
G01 X-11.7248 Y26.0250 
G01 X-11.7248 Y25.7357 
G01 X-11.7623 Y25.5473 
G01 X-11.8358 Y25.3698 
G01 X-11.9425 Y25.2101 
G01 X-12.0783 Y25.0743 
G01 X-12.2380 Y24.9676 
G01 X-12.4155 Y24.8941 
G01 X-12.6039 Y24.8566 
G01 X-12.7960 Y24.8566 
G01 X-12.9844 Y24.8941 
G01 X-13.1619 Y24.9676 
G01 X-13.3216 Y25.0743 
G01 X-13.4574 Y25.2101 
G01 X-13.5641 Y25.3698 
G01 X-13.6376 Y25.5473 
G01 X-13.6751 Y25.7357 
G01 X-13.6751 Y27.6042 
G01 X-13.6376 Y27.7926 
G01 X-13.5641 Y27.9701 
G01 X-13.4574 Y28.1298 
G01 X-13.3216 Y28.2656 
G01 X-13.1619 Y28.3723 
G01 X-12.9844 Y28.4458 
G01 X-12.7960 Y28.4833 
G01 X-12.6039 Y28.4833 
G01 X-12.4155 Y28.4458 
G01 X-12.2380 Y28.3723 
G01 X-12.0783 Y28.2656 
G01 X-11.9425 Y28.1298 
G01 X-11.8358 Y27.9701 
G01 X-11.7623 Y27.7926 
G01 X-11.7248 Y27.6042 
G00 Z2.0000 
G00 X-10.3476 Y8.5806 
G01 Z-0.1000 F254.00 
G01 X-10.3476 Y6.6193 
G01 X-10.3742 Y6.4511 
G01 X-10.4269 Y6.2890 
G01 X-10.5042 Y6.1373 
G01 X-10.6044 Y5.9994 
G01 X-10.7248 Y5.8790 
G01 X-10.8627 Y5.7788 
G01 X-11.0144 Y5.7015 
G01 X-11.1765 Y5.6488 
G01 X-11.3447 Y5.6222 
G01 X-11.5152 Y5.6222 
G01 X-11.6834 Y5.6488 
G01 X-11.8455 Y5.7015 
G01 X-11.9972 Y5.7788 
G01 X-12.1351 Y5.8790 
G01 X-12.2555 Y5.9994 
G01 X-12.3557 Y6.1373 
G01 X-12.4330 Y6.2890 
G01 X-12.4857 Y6.4511 
G01 X-12.5123 Y6.6193 
G01 X-12.5123 Y8.5806 
G01 X-12.4857 Y8.7488 
G01 X-12.4330 Y8.9109 
G01 X-12.3557 Y9.0626 
G01 X-12.2555 Y9.2005 
G01 X-12.1351 Y9.3209 
G01 X-12.1249 Y9.3283 
G01 X-12.1249 Y10.7350 
G01 X-15.1715 Y10.7350 
G01 X-15.3084 Y10.7350 
G01 X-15.4427 Y10.7617 
G01 X-15.5692 Y10.8141 
G01 X-15.6830 Y10.8901 
G01 X-15.7798 Y10.9869 
G01 X-15.8558 Y11.1007 
G01 X-15.9082 Y11.2272 
G01 X-15.9349 Y11.3615 
G01 X-15.9349 Y18.9546 
G01 X-16.6969 Y19.7165 
G01 X-16.6969 Y20.9234 
G01 X-15.8434 Y21.7769 
G01 X-14.6365 Y21.7769 
G01 X-13.7830 Y20.9234 
G01 X-13.7830 Y19.7165 
G01 X-14.5450 Y18.9546 
G01 X-14.5450 Y12.1249 
G01 X-11.3615 Y12.1249 
G01 X-11.2272 Y12.0982 
G01 X-11.1007 Y12.0458 
G01 X-10.9869 Y11.9698 
G01 X-10.8901 Y11.8730 
G01 X-10.8141 Y11.7592 
G01 X-10.7617 Y11.6327 
G01 X-10.7350 Y11.4984 
G01 X-10.7350 Y11.3615 
G01 X-10.7350 Y9.3283 
G01 X-10.7248 Y9.3209 
G01 X-10.6044 Y9.2005 
G01 X-10.5042 Y9.0626 
G01 X-10.4269 Y8.9109 
G01 X-10.3742 Y8.7488 
G01 X-10.3476 Y8.5806 
G00 Z2.0000 
G00 X-16.7548 Y27.6092 
G01 Z-0.1000 F254.00 
G01 X-16.7548 Y25.7307 
G01 X-16.7942 Y25.5327 
G01 X-16.8715 Y25.3461 
G01 X-16.9837 Y25.1782 
G01 X-17.0850 Y25.0770 
G01 X-17.0850 Y9.3572 
G01 X-16.9972 Y9.4211 
G01 X-16.8455 Y9.4984 
G01 X-16.6834 Y9.5511 
G01 X-16.5152 Y9.5777 
G01 X-16.3447 Y9.5777 
G01 X-16.1765 Y9.5511 
G01 X-16.0144 Y9.4984 
G01 X-15.8627 Y9.4211 
G01 X-15.7248 Y9.3209 
G01 X-15.6044 Y9.2005 
G01 X-15.5042 Y9.0626 
G01 X-15.4269 Y8.9109 
G01 X-15.3742 Y8.7488 
G01 X-15.3476 Y8.5806 
G01 X-15.3476 Y6.6193 
G01 X-15.3742 Y6.4511 
G01 X-15.4269 Y6.2890 
G01 X-15.5042 Y6.1373 
G01 X-15.6044 Y5.9994 
G01 X-15.7248 Y5.8790 
G01 X-15.8627 Y5.7788 
G01 X-16.0144 Y5.7015 
G01 X-16.1765 Y5.6488 
G01 X-16.3447 Y5.6222 
G01 X-16.5152 Y5.6222 
G01 X-16.6834 Y5.6488 
G01 X-16.8455 Y5.7015 
G01 X-16.9972 Y5.7788 
G01 X-17.1351 Y5.8790 
G01 X-17.2555 Y5.9994 
G01 X-17.3557 Y6.1373 
G01 X-17.4330 Y6.2890 
G01 X-17.4857 Y6.4511 
G01 X-17.5123 Y6.6193 
G01 X-17.5123 Y6.9050 
G01 X-17.7115 Y6.9050 
G01 X-17.8484 Y6.9050 
G01 X-17.9827 Y6.9317 
G01 X-18.1092 Y6.9841 
G01 X-18.2230 Y7.0601 
G01 X-18.3198 Y7.1569 
G01 X-18.3958 Y7.2707 
G01 X-18.4482 Y7.3972 
G01 X-18.4749 Y7.5315 
G01 X-18.4749 Y25.0770 
G01 X-18.5762 Y25.1782 
G01 X-18.6884 Y25.3461 
G01 X-18.7657 Y25.5327 
G01 X-18.8051 Y25.7307 
G01 X-18.8051 Y27.6092 
G01 X-18.7657 Y27.8072 
G01 X-18.6884 Y27.9938 
G01 X-18.5762 Y28.1617 
G01 X-18.4335 Y28.3044 
G01 X-18.2656 Y28.4166 
G01 X-18.0790 Y28.4939 
G01 X-17.8810 Y28.5333 
G01 X-17.6789 Y28.5333 
G01 X-17.4809 Y28.4939 
G01 X-17.2943 Y28.4166 
G01 X-17.1264 Y28.3044 
G01 X-16.9837 Y28.1617 
G01 X-16.8715 Y27.9938 
G01 X-16.7942 Y27.8072 
G01 X-16.7548 Y27.6092 
G00 Z2.0000 
G00 X-14.2148 Y27.6092 
G01 Z-0.1000 F254.00 
G01 X-14.2148 Y25.7307 
G01 X-14.2542 Y25.5327 
G01 X-14.3315 Y25.3461 
G01 X-14.4437 Y25.1782 
G01 X-14.5450 Y25.0770 
G01 X-14.5450 Y23.5549 
G01 X-11.3615 Y23.5549 
G01 X-11.2272 Y23.5282 
G01 X-11.1007 Y23.4758 
G01 X-10.9869 Y23.3998 
G01 X-10.8901 Y23.3030 
G01 X-10.8141 Y23.1892 
G01 X-10.7617 Y23.0627 
G01 X-10.7350 Y22.9284 
G01 X-10.7350 Y22.7915 
G01 X-10.7350 Y21.0149 
G01 X-8.9853 Y21.0149 
G01 X-8.2234 Y21.7769 
G01 X-7.0165 Y21.7769 
G01 X-6.1630 Y20.9234 
G01 X-6.1630 Y19.7165 
G01 X-7.0165 Y18.8630 
G01 X-8.2234 Y18.8630 
G01 X-8.9853 Y19.6250 
G01 X-11.3615 Y19.6250 
G01 X-11.4984 Y19.6250 
G01 X-11.6327 Y19.6517 
G01 X-11.7592 Y19.7041 
G01 X-11.8730 Y19.7801 
G01 X-11.9698 Y19.8769 
G01 X-12.0458 Y19.9907 
G01 X-12.0982 Y20.1172 
G01 X-12.1249 Y20.2515 
G01 X-12.1249 Y22.1650 
G01 X-15.1715 Y22.1650 
G01 X-15.3084 Y22.1650 
G01 X-15.4427 Y22.1917 
G01 X-15.5692 Y22.2441 
G01 X-15.6830 Y22.3201 
G01 X-15.7798 Y22.4169 
G01 X-15.8558 Y22.5307 
G01 X-15.9082 Y22.6572 
G01 X-15.9349 Y22.7915 
G01 X-15.9349 Y25.0770 
G01 X-16.0362 Y25.1782 
G01 X-16.1484 Y25.3461 
G01 X-16.2257 Y25.5327 
G01 X-16.2651 Y25.7307 
G01 X-16.2651 Y27.6092 
G01 X-16.2257 Y27.8072 
G01 X-16.1484 Y27.9938 
G01 X-16.0362 Y28.1617 
G01 X-15.8935 Y28.3044 
G01 X-15.7256 Y28.4166 
G01 X-15.5390 Y28.4939 
G01 X-15.3410 Y28.5333 
G01 X-15.1389 Y28.5333 
G01 X-14.9409 Y28.4939 
G01 X-14.7543 Y28.4166 
G01 X-14.5864 Y28.3044 
G01 X-14.4437 Y28.1617 
G01 X-14.3315 Y27.9938 
G01 X-14.2542 Y27.8072 
G01 X-14.2148 Y27.6092 
G00 Z2.0000 
G00 X-6.5369 Y14.6365 
G01 Z-0.1000 F254.00 
G01 X-6.5369 Y15.8434 
G01 X-5.7749 Y16.6053 
G01 X-5.7749 Y25.5560 
G01 X-6.3499 Y26.1310 
G01 X-7.0901 Y25.3908 
G01 X-8.1498 Y25.3908 
G01 X-8.7339 Y25.9750 
G01 X-11.6748 Y25.9750 
G01 X-11.6748 Y25.7307 
G01 X-11.7142 Y25.5327 
G01 X-11.7915 Y25.3461 
G01 X-11.9037 Y25.1782 
G01 X-12.0464 Y25.0355 
G01 X-12.2143 Y24.9233 
G01 X-12.4009 Y24.8460 
G01 X-12.5989 Y24.8066 
G01 X-12.8010 Y24.8066 
G01 X-12.9990 Y24.8460 
G01 X-13.1856 Y24.9233 
G01 X-13.3535 Y25.0355 
G01 X-13.4962 Y25.1782 
G01 X-13.6084 Y25.3461 
G01 X-13.6857 Y25.5327 
G01 X-13.7251 Y25.7307 
G01 X-13.7251 Y27.6092 
G01 X-13.6857 Y27.8072 
G01 X-13.6084 Y27.9938 
G01 X-13.4962 Y28.1617 
G01 X-13.3535 Y28.3044 
G01 X-13.1856 Y28.4166 
G01 X-12.9990 Y28.4939 
G01 X-12.8010 Y28.5333 
G01 X-12.5989 Y28.5333 
G01 X-12.4009 Y28.4939 
G01 X-12.2143 Y28.4166 
G01 X-12.0464 Y28.3044 
G01 X-11.9037 Y28.1617 
G01 X-11.7915 Y27.9938 
G01 X-11.7142 Y27.8072 
G01 X-11.6748 Y27.6092 
G01 X-11.6748 Y27.3649 
G01 X-8.7339 Y27.3649 
G01 X-8.1498 Y27.9491 
G01 X-7.0901 Y27.9491 
G01 X-6.3499 Y27.2089 
G01 X-5.6098 Y27.9491 
G01 X-4.5501 Y27.9491 
G01 X-3.8008 Y27.1998 
G01 X-3.8008 Y26.1401 
G01 X-4.3850 Y25.5560 
G01 X-4.3850 Y16.6053 
G01 X-3.6230 Y15.8434 
G01 X-3.6230 Y14.6365 
G01 X-4.4765 Y13.7830 
G01 X-5.6834 Y13.7830 
G01 X-6.5369 Y14.6365 
G00 Z2.0000 
G00 X-14.1569 Y14.6365 
G01 Z-0.1000 F254.00 
G01 X-14.1569 Y15.8434 
G01 X-13.3034 Y16.6969 
G01 X-12.0965 Y16.6969 
G01 X-11.3346 Y15.9349 
G01 X-8.9584 Y15.9349 
G01 X-8.8215 Y15.9349 
G01 X-8.6872 Y15.9082 
G01 X-8.5607 Y15.8558 
G01 X-8.4469 Y15.7798 
G01 X-8.3501 Y15.6830 
G01 X-8.2741 Y15.5692 
G01 X-8.2217 Y15.4427 
G01 X-8.1950 Y15.3084 
G01 X-8.1950 Y12.1249 
G01 X-6.4984 Y12.1249 
G01 X-6.3615 Y12.1249 
G01 X-6.2272 Y12.0982 
G01 X-6.1007 Y12.0458 
G01 X-5.9869 Y11.9698 
G01 X-5.8901 Y11.8730 
G01 X-5.8141 Y11.7592 
G01 X-5.7617 Y11.6327 
G01 X-5.7350 Y11.4984 
G01 X-5.7350 Y9.3283 
G01 X-5.7248 Y9.3209 
G01 X-5.6044 Y9.2005 
G01 X-5.5042 Y9.0626 
G01 X-5.4269 Y8.9109 
G01 X-5.3742 Y8.7488 
G01 X-5.3476 Y8.5806 
G01 X-5.3476 Y6.6193 
G01 X-5.3742 Y6.4511 
G01 X-5.4269 Y6.2890 
G01 X-5.5042 Y6.1373 
G01 X-5.6044 Y5.9994 
G01 X-5.7248 Y5.8790 
G01 X-5.8627 Y5.7788 
G01 X-6.0144 Y5.7015 
G01 X-6.1765 Y5.6488 
G01 X-6.3447 Y5.6222 
G01 X-6.5152 Y5.6222 
G01 X-6.6834 Y5.6488 
G01 X-6.8455 Y5.7015 
G01 X-6.9972 Y5.7788 
G01 X-7.1351 Y5.8790 
G01 X-7.2555 Y5.9994 
G01 X-7.3557 Y6.1373 
G01 X-7.4330 Y6.2890 
G01 X-7.4857 Y6.4511 
G01 X-7.5123 Y6.6193 
G01 X-7.5123 Y8.5806 
G01 X-7.4857 Y8.7488 
G01 X-7.4330 Y8.9109 
G01 X-7.3557 Y9.0626 
G01 X-7.2555 Y9.2005 
G01 X-7.1351 Y9.3209 
G01 X-7.1249 Y9.3283 
G01 X-7.1249 Y10.7350 
G01 X-8.9584 Y10.7350 
G01 X-9.0927 Y10.7617 
G01 X-9.2192 Y10.8141 
G01 X-9.3330 Y10.8901 
G01 X-9.4298 Y10.9869 
G01 X-9.5058 Y11.1007 
G01 X-9.5582 Y11.2272 
G01 X-9.5849 Y11.3615 
G01 X-9.5849 Y11.4984 
G01 X-9.5849 Y14.5450 
G01 X-11.3346 Y14.5450 
G01 X-12.0965 Y13.7830 
G01 X-13.3034 Y13.7830 
G01 X-14.1569 Y14.6365 
G00 Z2.0000 
G00 X-10.2976 Y8.5845 
G01 Z-0.1000 F254.00 
G01 X-10.2976 Y6.6154 
G01 X-10.3255 Y6.4394 
G01 X-10.3806 Y6.2698 
G01 X-10.4615 Y6.1110 
G01 X-10.5662 Y5.9669 
G01 X-10.6923 Y5.8408 
G01 X-10.8364 Y5.7361 
G01 X-10.9952 Y5.6552 
G01 X-11.1648 Y5.6001 
G01 X-11.3408 Y5.5722 
G01 X-11.5191 Y5.5722 
G01 X-11.6951 Y5.6001 
G01 X-11.8647 Y5.6552 
G01 X-12.0235 Y5.7361 
G01 X-12.1676 Y5.8408 
G01 X-12.2937 Y5.9669 
G01 X-12.3984 Y6.1110 
G01 X-12.4793 Y6.2698 
G01 X-12.5344 Y6.4394 
G01 X-12.5623 Y6.6154 
G01 X-12.5623 Y8.5845 
G01 X-12.5344 Y8.7605 
G01 X-12.4793 Y8.9301 
G01 X-12.3984 Y9.0889 
G01 X-12.2937 Y9.2330 
G01 X-12.1749 Y9.3517 
G01 X-12.1749 Y10.6850 
G01 X-15.1665 Y10.6850 
G01 X-15.3134 Y10.6850 
G01 X-15.4573 Y10.7136 
G01 X-15.5928 Y10.7698 
G01 X-15.7148 Y10.8513 
G01 X-15.8186 Y10.9551 
G01 X-15.9001 Y11.0771 
G01 X-15.9563 Y11.2126 
G01 X-15.9849 Y11.3565 
G01 X-15.9849 Y18.9339 
G01 X-16.7469 Y19.6958 
G01 X-16.7469 Y20.9441 
G01 X-15.8641 Y21.8269 
G01 X-14.6158 Y21.8269 
G01 X-13.7330 Y20.9441 
G01 X-13.7330 Y19.6958 
G01 X-14.4950 Y18.9339 
G01 X-14.4950 Y12.1749 
G01 X-11.3565 Y12.1749 
G01 X-11.2126 Y12.1463 
G01 X-11.0771 Y12.0901 
G01 X-10.9551 Y12.0086 
G01 X-10.8513 Y11.9048 
G01 X-10.7698 Y11.7828 
G01 X-10.7136 Y11.6473 
G01 X-10.6850 Y11.5034 
G01 X-10.6850 Y11.3565 
G01 X-10.6850 Y9.3517 
G01 X-10.5662 Y9.2330 
G01 X-10.4615 Y9.0889 
G01 X-10.3806 Y8.9301 
G01 X-10.3255 Y8.7605 
G01 X-10.2976 Y8.5845 
G00 Z2.0000 
G00 X-16.7048 Y27.5928 
G01 Z-0.1000 F254.00 
G01 X-16.7048 Y25.7471 
G01 X-16.7313 Y25.5799 
G01 X-16.7836 Y25.4190 
G01 X-16.8604 Y25.2682 
G01 X-16.9599 Y25.1313 
G01 X-17.0350 Y25.0563 
G01 X-17.0350 Y9.4554 
G01 X-17.0235 Y9.4638 
G01 X-16.8647 Y9.5447 
G01 X-16.6951 Y9.5998 
G01 X-16.5191 Y9.6277 
G01 X-16.3408 Y9.6277 
G01 X-16.1648 Y9.5998 
G01 X-15.9952 Y9.5447 
G01 X-15.8364 Y9.4638 
G01 X-15.6923 Y9.3591 
G01 X-15.5662 Y9.2330 
G01 X-15.4615 Y9.0889 
G01 X-15.3806 Y8.9301 
G01 X-15.3255 Y8.7605 
G01 X-15.2976 Y8.5845 
G01 X-15.2976 Y6.6154 
G01 X-15.3255 Y6.4394 
G01 X-15.3806 Y6.2698 
G01 X-15.4615 Y6.1110 
G01 X-15.5662 Y5.9669 
G01 X-15.6923 Y5.8408 
G01 X-15.8364 Y5.7361 
G01 X-15.9952 Y5.6552 
G01 X-16.1648 Y5.6001 
G01 X-16.3408 Y5.5722 
G01 X-16.5191 Y5.5722 
G01 X-16.6951 Y5.6001 
G01 X-16.8647 Y5.6552 
G01 X-17.0235 Y5.7361 
G01 X-17.1676 Y5.8408 
G01 X-17.2937 Y5.9669 
G01 X-17.3984 Y6.1110 
G01 X-17.4793 Y6.2698 
G01 X-17.5344 Y6.4394 
G01 X-17.5623 Y6.6154 
G01 X-17.5623 Y6.8550 
G01 X-17.7065 Y6.8550 
G01 X-17.8534 Y6.8550 
G01 X-17.9973 Y6.8836 
G01 X-18.1328 Y6.9398 
G01 X-18.2548 Y7.0213 
G01 X-18.3586 Y7.1251 
G01 X-18.4401 Y7.2471 
G01 X-18.4963 Y7.3826 
G01 X-18.5249 Y7.5265 
G01 X-18.5249 Y25.0563 
G01 X-18.6000 Y25.1313 
G01 X-18.6995 Y25.2682 
G01 X-18.7763 Y25.4190 
G01 X-18.8286 Y25.5799 
G01 X-18.8551 Y25.7471 
G01 X-18.8551 Y27.5928 
G01 X-18.8286 Y27.7600 
G01 X-18.7763 Y27.9209 
G01 X-18.6995 Y28.0717 
G01 X-18.6000 Y28.2086 
G01 X-18.4804 Y28.3282 
G01 X-18.3435 Y28.4277 
G01 X-18.1927 Y28.5045 
G01 X-18.0318 Y28.5568 
G01 X-17.8646 Y28.5833 
G01 X-17.6953 Y28.5833 
G01 X-17.5281 Y28.5568 
G01 X-17.3672 Y28.5045 
G01 X-17.2164 Y28.4277 
G01 X-17.0795 Y28.3282 
G01 X-16.9599 Y28.2086 
G01 X-16.8604 Y28.0717 
G01 X-16.7836 Y27.9209 
G01 X-16.7313 Y27.7600 
G01 X-16.7048 Y27.5928 
G00 Z2.0000 
G00 X-14.1648 Y27.5928 
G01 Z-0.1000 F254.00 
G01 X-14.1648 Y25.7471 
G01 X-14.1913 Y25.5799 
G01 X-14.2436 Y25.4190 
G01 X-14.3204 Y25.2682 
G01 X-14.4199 Y25.1313 
G01 X-14.4950 Y25.0563 
G01 X-14.4950 Y23.6049 
G01 X-11.3565 Y23.6049 
G01 X-11.2126 Y23.5763 
G01 X-11.0771 Y23.5201 
G01 X-10.9551 Y23.4386 
G01 X-10.8513 Y23.3348 
G01 X-10.7698 Y23.2128 
G01 X-10.7136 Y23.0773 
G01 X-10.6850 Y22.9334 
G01 X-10.6850 Y22.7865 
G01 X-10.6850 Y21.0649 
G01 X-9.0060 Y21.0649 
G01 X-8.2441 Y21.8269 
G01 X-6.9958 Y21.8269 
G01 X-6.1130 Y20.9441 
G01 X-6.1130 Y19.6958 
G01 X-6.9958 Y18.8130 
G01 X-8.2441 Y18.8130 
G01 X-9.0060 Y19.5750 
G01 X-11.3565 Y19.5750 
G01 X-11.5034 Y19.5750 
G01 X-11.6473 Y19.6036 
G01 X-11.7828 Y19.6598 
G01 X-11.9048 Y19.7413 
G01 X-12.0086 Y19.8451 
G01 X-12.0901 Y19.9671 
G01 X-12.1463 Y20.1026 
G01 X-12.1749 Y20.2465 
G01 X-12.1749 Y22.1150 
G01 X-15.1665 Y22.1150 
G01 X-15.3134 Y22.1150 
G01 X-15.4573 Y22.1436 
G01 X-15.5928 Y22.1998 
G01 X-15.7148 Y22.2813 
G01 X-15.8186 Y22.3851 
G01 X-15.9001 Y22.5071 
G01 X-15.9563 Y22.6426 
G01 X-15.9849 Y22.7865 
G01 X-15.9849 Y25.0563 
G01 X-16.0600 Y25.1313 
G01 X-16.1595 Y25.2682 
G01 X-16.2363 Y25.4190 
G01 X-16.2886 Y25.5799 
G01 X-16.3151 Y25.7471 
G01 X-16.3151 Y27.5928 
G01 X-16.2886 Y27.7600 
G01 X-16.2363 Y27.9209 
G01 X-16.1595 Y28.0717 
G01 X-16.0600 Y28.2086 
G01 X-15.9404 Y28.3282 
G01 X-15.8035 Y28.4277 
G01 X-15.6527 Y28.5045 
G01 X-15.4918 Y28.5568 
G01 X-15.3246 Y28.5833 
G01 X-15.1553 Y28.5833 
G01 X-14.9881 Y28.5568 
G01 X-14.8272 Y28.5045 
G01 X-14.6764 Y28.4277 
G01 X-14.5395 Y28.3282 
G01 X-14.4199 Y28.2086 
G01 X-14.3204 Y28.0717 
G01 X-14.2436 Y27.9209 
G01 X-14.1913 Y27.7600 
G01 X-14.1648 Y27.5928 
G00 Z2.0000 
G00 X-6.5869 Y14.6158 
G01 Z-0.1000 F254.00 
G01 X-6.5869 Y15.8641 
G01 X-5.8249 Y16.6260 
G01 X-5.8249 Y25.5353 
G01 X-6.3499 Y26.0603 
G01 X-7.0694 Y25.3408 
G01 X-8.1705 Y25.3408 
G01 X-8.7546 Y25.9250 
G01 X-11.6248 Y25.9250 
G01 X-11.6248 Y25.7471 
G01 X-11.6513 Y25.5799 
G01 X-11.7036 Y25.4190 
G01 X-11.7804 Y25.2682 
G01 X-11.8799 Y25.1313 
G01 X-11.9995 Y25.0117 
G01 X-12.1364 Y24.9122 
G01 X-12.2872 Y24.8354 
G01 X-12.4481 Y24.7831 
G01 X-12.6153 Y24.7566 
G01 X-12.7846 Y24.7566 
G01 X-12.9518 Y24.7831 
G01 X-13.1127 Y24.8354 
G01 X-13.2635 Y24.9122 
G01 X-13.4004 Y25.0117 
G01 X-13.5200 Y25.1313 
G01 X-13.6195 Y25.2682 
G01 X-13.6963 Y25.4190 
G01 X-13.7486 Y25.5799 
G01 X-13.7751 Y25.7471 
G01 X-13.7751 Y27.5928 
G01 X-13.7486 Y27.7600 
G01 X-13.6963 Y27.9209 
G01 X-13.6195 Y28.0717 
G01 X-13.5200 Y28.2086 
G01 X-13.4004 Y28.3282 
G01 X-13.2635 Y28.4277 
G01 X-13.1127 Y28.5045 
G01 X-12.9518 Y28.5568 
G01 X-12.7846 Y28.5833 
G01 X-12.6153 Y28.5833 
G01 X-12.4481 Y28.5568 
G01 X-12.2872 Y28.5045 
G01 X-12.1364 Y28.4277 
G01 X-11.9995 Y28.3282 
G01 X-11.8799 Y28.2086 
G01 X-11.7804 Y28.0717 
G01 X-11.7036 Y27.9209 
G01 X-11.6513 Y27.7600 
G01 X-11.6248 Y27.5928 
G01 X-11.6248 Y27.4149 
G01 X-8.7546 Y27.4149 
G01 X-8.1705 Y27.9991 
G01 X-7.0694 Y27.9991 
G01 X-6.3499 Y27.2796 
G01 X-5.6305 Y27.9991 
G01 X-4.5294 Y27.9991 
G01 X-3.7508 Y27.2205 
G01 X-3.7508 Y26.1194 
G01 X-4.3350 Y25.5353 
G01 X-4.3350 Y16.6260 
G01 X-3.5730 Y15.8641 
G01 X-3.5730 Y14.6158 
G01 X-4.4558 Y13.7330 
G01 X-5.7041 Y13.7330 
G01 X-6.5869 Y14.6158 
G00 Z2.0000 
G00 X-14.2069 Y14.6158 
G01 Z-0.1000 F254.00 
G01 X-14.2069 Y15.8641 
G01 X-13.3241 Y16.7469 
G01 X-12.0758 Y16.7469 
G01 X-11.3139 Y15.9849 
G01 X-8.9634 Y15.9849 
G01 X-8.8165 Y15.9849 
G01 X-8.6726 Y15.9563 
G01 X-8.5371 Y15.9001 
G01 X-8.4151 Y15.8186 
G01 X-8.3113 Y15.7148 
G01 X-8.2298 Y15.5928 
G01 X-8.1736 Y15.4573 
G01 X-8.1450 Y15.3134 
G01 X-8.1450 Y12.1749 
G01 X-6.5034 Y12.1749 
G01 X-6.3565 Y12.1749 
G01 X-6.2126 Y12.1463 
G01 X-6.0771 Y12.0901 
G01 X-5.9551 Y12.0086 
G01 X-5.8513 Y11.9048 
G01 X-5.7698 Y11.7828 
G01 X-5.7136 Y11.6473 
G01 X-5.6850 Y11.5034 
G01 X-5.6850 Y9.3517 
G01 X-5.5662 Y9.2330 
G01 X-5.4615 Y9.0889 
G01 X-5.3806 Y8.9301 
G01 X-5.3255 Y8.7605 
G01 X-5.2976 Y8.5845 
G01 X-5.2976 Y6.6154 
G01 X-5.3255 Y6.4394 
G01 X-5.3806 Y6.2698 
G01 X-5.4615 Y6.1110 
G01 X-5.5662 Y5.9669 
G01 X-5.6923 Y5.8408 
G01 X-5.8364 Y5.7361 
G01 X-5.9952 Y5.6552 
G01 X-6.1648 Y5.6001 
G01 X-6.3408 Y5.5722 
G01 X-6.5191 Y5.5722 
G01 X-6.6951 Y5.6001 
G01 X-6.8647 Y5.6552 
G01 X-7.0235 Y5.7361 
G01 X-7.1676 Y5.8408 
G01 X-7.2937 Y5.9669 
G01 X-7.3984 Y6.1110 
G01 X-7.4793 Y6.2698 
G01 X-7.5344 Y6.4394 
G01 X-7.5623 Y6.6154 
G01 X-7.5623 Y8.5845 
G01 X-7.5344 Y8.7605 
G01 X-7.4793 Y8.9301 
G01 X-7.3984 Y9.0889 
G01 X-7.2937 Y9.2330 
G01 X-7.1749 Y9.3517 
G01 X-7.1749 Y10.6850 
G01 X-8.9634 Y10.6850 
G01 X-9.1073 Y10.7136 
G01 X-9.2428 Y10.7698 
G01 X-9.3648 Y10.8513 
G01 X-9.4686 Y10.9551 
G01 X-9.5501 Y11.0771 
G01 X-9.6063 Y11.2126 
G01 X-9.6349 Y11.3565 
G01 X-9.6349 Y11.5034 
G01 X-9.6349 Y14.4950 
G01 X-11.3139 Y14.4950 
G01 X-12.0758 Y13.7330 
G01 X-13.3241 Y13.7330 
G01 X-14.2069 Y14.6158 
G00 Z2.0000 
G00 X-10.2476 Y8.5884 
G01 Z-0.1000 F254.00 
G01 X-10.2476 Y6.6115 
G01 X-10.2767 Y6.4276 
G01 X-10.3342 Y6.2507 
G01 X-10.4187 Y6.0848 
G01 X-10.5281 Y5.9343 
G01 X-10.6597 Y5.8027 
G01 X-10.8102 Y5.6933 
G01 X-10.9761 Y5.6088 
G01 X-11.1530 Y5.5513 
G01 X-11.3369 Y5.5222 
G01 X-11.5230 Y5.5222 
G01 X-11.7069 Y5.5513 
G01 X-11.8838 Y5.6088 
G01 X-12.0497 Y5.6933 
G01 X-12.2002 Y5.8027 
G01 X-12.3318 Y5.9343 
G01 X-12.4412 Y6.0848 
G01 X-12.5257 Y6.2507 
G01 X-12.5832 Y6.4276 
G01 X-12.6123 Y6.6115 
G01 X-12.6123 Y8.5884 
G01 X-12.5832 Y8.7723 
G01 X-12.5257 Y8.9492 
G01 X-12.4412 Y9.1151 
G01 X-12.3318 Y9.2656 
G01 X-12.2249 Y9.3724 
G01 X-12.2249 Y10.6350 
G01 X-15.1616 Y10.6350 
G01 X-15.3183 Y10.6350 
G01 X-15.4719 Y10.6655 
G01 X-15.6165 Y10.7255 
G01 X-15.7467 Y10.8125 
G01 X-15.8574 Y10.9232 
G01 X-15.9444 Y11.0534 
G01 X-16.0044 Y11.1980 
G01 X-16.0349 Y11.3516 
G01 X-16.0349 Y18.9132 
G01 X-16.7969 Y19.6751 
G01 X-16.7969 Y20.9648 
G01 X-15.8848 Y21.8769 
G01 X-14.5951 Y21.8769 
G01 X-13.6830 Y20.9648 
G01 X-13.6830 Y19.6751 
G01 X-14.4450 Y18.9132 
G01 X-14.4450 Y12.2249 
G01 X-11.3516 Y12.2249 
G01 X-11.1980 Y12.1944 
G01 X-11.0534 Y12.1344 
G01 X-10.9232 Y12.0474 
G01 X-10.8125 Y11.9367 
G01 X-10.7255 Y11.8065 
G01 X-10.6655 Y11.6619 
G01 X-10.6350 Y11.5083 
G01 X-10.6350 Y11.3516 
G01 X-10.6350 Y9.3724 
G01 X-10.5281 Y9.2656 
G01 X-10.4187 Y9.1151 
G01 X-10.3342 Y8.9492 
G01 X-10.2767 Y8.7723 
G01 X-10.2476 Y8.5884 
G00 Z2.0000 
G00 X-16.6548 Y27.5967 
G01 Z-0.1000 F254.00 
G01 X-16.6548 Y25.7432 
G01 X-16.6825 Y25.5682 
G01 X-16.7372 Y25.3998 
G01 X-16.8176 Y25.2420 
G01 X-16.9217 Y25.0987 
G01 X-16.9850 Y25.0355 
G01 X-16.9850 Y9.5395 
G01 X-16.8838 Y9.5911 
G01 X-16.7069 Y9.6486 
G01 X-16.5230 Y9.6777 
G01 X-16.3369 Y9.6777 
G01 X-16.1530 Y9.6486 
G01 X-15.9761 Y9.5911 
G01 X-15.8102 Y9.5066 
G01 X-15.6597 Y9.3972 
G01 X-15.5281 Y9.2656 
G01 X-15.4187 Y9.1151 
G01 X-15.3342 Y8.9492 
G01 X-15.2767 Y8.7723 
G01 X-15.2476 Y8.5884 
G01 X-15.2476 Y6.6115 
G01 X-15.2767 Y6.4276 
G01 X-15.3342 Y6.2507 
G01 X-15.4187 Y6.0848 
G01 X-15.5281 Y5.9343 
G01 X-15.6597 Y5.8027 
G01 X-15.8102 Y5.6933 
G01 X-15.9761 Y5.6088 
G01 X-16.1530 Y5.5513 
G01 X-16.3369 Y5.5222 
G01 X-16.5230 Y5.5222 
G01 X-16.7069 Y5.5513 
G01 X-16.8838 Y5.6088 
G01 X-17.0497 Y5.6933 
G01 X-17.2002 Y5.8027 
G01 X-17.3318 Y5.9343 
G01 X-17.4412 Y6.0848 
G01 X-17.5257 Y6.2507 
G01 X-17.5832 Y6.4276 
G01 X-17.6123 Y6.6115 
G01 X-17.6123 Y6.8050 
G01 X-17.7016 Y6.8050 
G01 X-17.8583 Y6.8050 
G01 X-18.0119 Y6.8355 
G01 X-18.1565 Y6.8955 
G01 X-18.2867 Y6.9825 
G01 X-18.3974 Y7.0932 
G01 X-18.4844 Y7.2234 
G01 X-18.5444 Y7.3680 
G01 X-18.5749 Y7.5216 
G01 X-18.5749 Y25.0355 
G01 X-18.6382 Y25.0987 
G01 X-18.7423 Y25.2420 
G01 X-18.8227 Y25.3998 
G01 X-18.8774 Y25.5682 
G01 X-18.9051 Y25.7432 
G01 X-18.9051 Y27.5967 
G01 X-18.8774 Y27.7717 
G01 X-18.8227 Y27.9401 
G01 X-18.7423 Y28.0979 
G01 X-18.6382 Y28.2412 
G01 X-18.5130 Y28.3664 
G01 X-18.3697 Y28.4705 
G01 X-18.2119 Y28.5509 
G01 X-18.0435 Y28.6056 
G01 X-17.8685 Y28.6333 
G01 X-17.6914 Y28.6333 
G01 X-17.5164 Y28.6056 
G01 X-17.3480 Y28.5509 
G01 X-17.1902 Y28.4705 
G01 X-17.0469 Y28.3664 
G01 X-16.9217 Y28.2412 
G01 X-16.8176 Y28.0979 
G01 X-16.7372 Y27.9401 
G01 X-16.6825 Y27.7717 
G01 X-16.6548 Y27.5967 
G00 Z2.0000 
G00 X-14.1148 Y27.5967 
G01 Z-0.1000 F254.00 
G01 X-14.1148 Y25.7432 
G01 X-14.1425 Y25.5682 
G01 X-14.1972 Y25.3998 
G01 X-14.2776 Y25.2420 
G01 X-14.3817 Y25.0987 
G01 X-14.4450 Y25.0355 
G01 X-14.4450 Y23.6549 
G01 X-11.3516 Y23.6549 
G01 X-11.1980 Y23.6244 
G01 X-11.0534 Y23.5644 
G01 X-10.9232 Y23.4774 
G01 X-10.8125 Y23.3667 
G01 X-10.7255 Y23.2365 
G01 X-10.6655 Y23.0919 
G01 X-10.6350 Y22.9383 
G01 X-10.6350 Y22.7816 
G01 X-10.6350 Y21.1149 
G01 X-9.0267 Y21.1149 
G01 X-8.2648 Y21.8769 
G01 X-6.9751 Y21.8769 
G01 X-6.0630 Y20.9648 
G01 X-6.0630 Y19.6751 
G01 X-6.9751 Y18.7630 
G01 X-8.2648 Y18.7630 
G01 X-9.0267 Y19.5250 
G01 X-11.3516 Y19.5250 
G01 X-11.5083 Y19.5250 
G01 X-11.6619 Y19.5555 
G01 X-11.8065 Y19.6155 
G01 X-11.9367 Y19.7025 
G01 X-12.0474 Y19.8132 
G01 X-12.1344 Y19.9434 
G01 X-12.1944 Y20.0880 
G01 X-12.2249 Y20.2416 
G01 X-12.2249 Y22.0650 
G01 X-15.1616 Y22.0650 
G01 X-15.3183 Y22.0650 
G01 X-15.4719 Y22.0955 
G01 X-15.6165 Y22.1555 
G01 X-15.7467 Y22.2425 
G01 X-15.8574 Y22.3532 
G01 X-15.9444 Y22.4834 
G01 X-16.0044 Y22.6280 
G01 X-16.0349 Y22.7816 
G01 X-16.0349 Y25.0355 
G01 X-16.0982 Y25.0987 
G01 X-16.2023 Y25.2420 
G01 X-16.2827 Y25.3998 
G01 X-16.3374 Y25.5682 
G01 X-16.3651 Y25.7432 
G01 X-16.3651 Y27.5967 
G01 X-16.3374 Y27.7717 
G01 X-16.2827 Y27.9401 
G01 X-16.2023 Y28.0979 
G01 X-16.0982 Y28.2412 
G01 X-15.9730 Y28.3664 
G01 X-15.8297 Y28.4705 
G01 X-15.6719 Y28.5509 
G01 X-15.5035 Y28.6056 
G01 X-15.3285 Y28.6333 
G01 X-15.1514 Y28.6333 
G01 X-14.9764 Y28.6056 
G01 X-14.8080 Y28.5509 
G01 X-14.6502 Y28.4705 
G01 X-14.5069 Y28.3664 
G01 X-14.3817 Y28.2412 
G01 X-14.2776 Y28.0979 
G01 X-14.1972 Y27.9401 
G01 X-14.1425 Y27.7717 
G01 X-14.1148 Y27.5967 
G00 Z2.0000 
G00 X-6.6369 Y14.5951 
G01 Z-0.1000 F254.00 
G01 X-6.6369 Y15.8848 
G01 X-5.8749 Y16.6467 
G01 X-5.8749 Y25.5146 
G01 X-6.3499 Y25.9896 
G01 X-7.0487 Y25.2908 
G01 X-8.1912 Y25.2908 
G01 X-8.7753 Y25.8750 
G01 X-11.5748 Y25.8750 
G01 X-11.5748 Y25.7432 
G01 X-11.6025 Y25.5682 
G01 X-11.6572 Y25.3998 
G01 X-11.7376 Y25.2420 
G01 X-11.8417 Y25.0987 
G01 X-11.9669 Y24.9735 
G01 X-12.1102 Y24.8694 
G01 X-12.2680 Y24.7890 
G01 X-12.4364 Y24.7343 
G01 X-12.6114 Y24.7066 
G01 X-12.7885 Y24.7066 
G01 X-12.9635 Y24.7343 
G01 X-13.1319 Y24.7890 
G01 X-13.2897 Y24.8694 
G01 X-13.4330 Y24.9735 
G01 X-13.5582 Y25.0987 
G01 X-13.6623 Y25.2420 
G01 X-13.7427 Y25.3998 
G01 X-13.7974 Y25.5682 
G01 X-13.8251 Y25.7432 
G01 X-13.8251 Y27.5967 
G01 X-13.7974 Y27.7717 
G01 X-13.7427 Y27.9401 
G01 X-13.6623 Y28.0979 
G01 X-13.5582 Y28.2412 
G01 X-13.4330 Y28.3664 
G01 X-13.2897 Y28.4705 
G01 X-13.1319 Y28.5509 
G01 X-12.9635 Y28.6056 
G01 X-12.7885 Y28.6333 
G01 X-12.6114 Y28.6333 
G01 X-12.4364 Y28.6056 
G01 X-12.2680 Y28.5509 
G01 X-12.1102 Y28.4705 
G01 X-11.9669 Y28.3664 
G01 X-11.8417 Y28.2412 
G01 X-11.7376 Y28.0979 
G01 X-11.6572 Y27.9401 
G01 X-11.6025 Y27.7717 
G01 X-11.5748 Y27.5967 
G01 X-11.5748 Y27.4649 
G01 X-8.7753 Y27.4649 
G01 X-8.1912 Y28.0491 
G01 X-7.0487 Y28.0491 
G01 X-6.3499 Y27.3503 
G01 X-5.6512 Y28.0491 
G01 X-4.5087 Y28.0491 
G01 X-3.7008 Y27.2412 
G01 X-3.7008 Y26.0987 
G01 X-4.2850 Y25.5146 
G01 X-4.2850 Y16.6467 
G01 X-3.5230 Y15.8848 
G01 X-3.5230 Y14.5951 
G01 X-4.4351 Y13.6830 
G01 X-5.7248 Y13.6830 
G01 X-6.6369 Y14.5951 
G00 Z2.0000 
G00 X-14.2569 Y14.5951 
G01 Z-0.1000 F254.00 
G01 X-14.2569 Y15.8848 
G01 X-13.3448 Y16.7969 
G01 X-12.0551 Y16.7969 
G01 X-11.2932 Y16.0349 
G01 X-8.9683 Y16.0349 
G01 X-8.8116 Y16.0349 
G01 X-8.6580 Y16.0044 
G01 X-8.5134 Y15.9444 
G01 X-8.3832 Y15.8574 
G01 X-8.2725 Y15.7467 
G01 X-8.1855 Y15.6165 
G01 X-8.1255 Y15.4719 
G01 X-8.0950 Y15.3183 
G01 X-8.0950 Y12.2249 
G01 X-6.5083 Y12.2249 
G01 X-6.3516 Y12.2249 
G01 X-6.1980 Y12.1944 
G01 X-6.0534 Y12.1344 
G01 X-5.9232 Y12.0474 
G01 X-5.8125 Y11.9367 
G01 X-5.7255 Y11.8065 
G01 X-5.6655 Y11.6619 
G01 X-5.6350 Y11.5083 
G01 X-5.6350 Y9.3724 
G01 X-5.5281 Y9.2656 
G01 X-5.4187 Y9.1151 
G01 X-5.3342 Y8.9492 
G01 X-5.2767 Y8.7723 
G01 X-5.2476 Y8.5884 
G01 X-5.2476 Y6.6115 
G01 X-5.2767 Y6.4276 
G01 X-5.3342 Y6.2507 
G01 X-5.4187 Y6.0848 
G01 X-5.5281 Y5.9343 
G01 X-5.6597 Y5.8027 
G01 X-5.8102 Y5.6933 
G01 X-5.9761 Y5.6088 
G01 X-6.1530 Y5.5513 
G01 X-6.3369 Y5.5222 
G01 X-6.5230 Y5.5222 
G01 X-6.7069 Y5.5513 
G01 X-6.8838 Y5.6088 
G01 X-7.0497 Y5.6933 
G01 X-7.2002 Y5.8027 
G01 X-7.3318 Y5.9343 
G01 X-7.4412 Y6.0848 
G01 X-7.5257 Y6.2507 
G01 X-7.5832 Y6.4276 
G01 X-7.6123 Y6.6115 
G01 X-7.6123 Y8.5884 
G01 X-7.5832 Y8.7723 
G01 X-7.5257 Y8.9492 
G01 X-7.4412 Y9.1151 
G01 X-7.3318 Y9.2656 
G01 X-7.2249 Y9.3724 
G01 X-7.2249 Y10.6350 
G01 X-8.9683 Y10.6350 
G01 X-9.1219 Y10.6655 
G01 X-9.2665 Y10.7255 
G01 X-9.3967 Y10.8125 
G01 X-9.5074 Y10.9232 
G01 X-9.5944 Y11.0534 
G01 X-9.6544 Y11.1980 
G01 X-9.6849 Y11.3516 
G01 X-9.6849 Y11.5083 
G01 X-9.6849 Y14.4450 
G01 X-11.2932 Y14.4450 
G01 X-12.0551 Y13.6830 
G01 X-13.3448 Y13.6830 
G01 X-14.2569 Y14.5951 
G00 Z2.0000 
G00 X-10.1976 Y8.5924 
G01 Z-0.1000 F254.00 
G01 X-10.1976 Y6.6075 
G01 X-10.2279 Y6.4159 
G01 X-10.2879 Y6.2315 
G01 X-10.3759 Y6.0586 
G01 X-10.4900 Y5.9017 
G01 X-10.6271 Y5.7646 
G01 X-10.7840 Y5.6505 
G01 X-10.9569 Y5.5625 
G01 X-11.1413 Y5.5025 
G01 X-11.3329 Y5.4722 
G01 X-11.5270 Y5.4722 
G01 X-11.7186 Y5.5025 
G01 X-11.9030 Y5.5625 
G01 X-12.0759 Y5.6505 
G01 X-12.2328 Y5.7646 
G01 X-12.3699 Y5.9017 
G01 X-12.4840 Y6.0586 
G01 X-12.5720 Y6.2315 
G01 X-12.6320 Y6.4159 
G01 X-12.6623 Y6.6075 
G01 X-12.6623 Y8.5924 
G01 X-12.6320 Y8.7840 
G01 X-12.5720 Y8.9684 
G01 X-12.4840 Y9.1413 
G01 X-12.3699 Y9.2982 
G01 X-12.2749 Y9.3931 
G01 X-12.2749 Y10.5850 
G01 X-15.1567 Y10.5850 
G01 X-15.3232 Y10.5850 
G01 X-15.4864 Y10.6175 
G01 X-15.6402 Y10.6812 
G01 X-15.7786 Y10.7736 
G01 X-15.8963 Y10.8913 
G01 X-15.9887 Y11.0297 
G01 X-16.0524 Y11.1835 
G01 X-16.0849 Y11.3467 
G01 X-16.0849 Y18.8925 
G01 X-16.8469 Y19.6544 
G01 X-16.8469 Y20.9855 
G01 X-15.9055 Y21.9269 
G01 X-14.5744 Y21.9269 
G01 X-13.6330 Y20.9855 
G01 X-13.6330 Y19.6544 
G01 X-14.3950 Y18.8925 
G01 X-14.3950 Y12.2749 
G01 X-11.3467 Y12.2749 
G01 X-11.1835 Y12.2424 
G01 X-11.0297 Y12.1787 
G01 X-10.8913 Y12.0863 
G01 X-10.7736 Y11.9686 
G01 X-10.6812 Y11.8302 
G01 X-10.6175 Y11.6764 
G01 X-10.5850 Y11.5132 
G01 X-10.5850 Y11.3467 
G01 X-10.5850 Y9.3931 
G01 X-10.4900 Y9.2982 
G01 X-10.3759 Y9.1413 
G01 X-10.2879 Y8.9684 
G01 X-10.2279 Y8.7840 
G01 X-10.1976 Y8.5924 
G00 Z2.0000 
G00 X-16.6048 Y27.6007 
G01 Z-0.1000 F254.00 
G01 X-16.6048 Y25.7392 
G01 X-16.6337 Y25.5565 
G01 X-16.6909 Y25.3806 
G01 X-16.7749 Y25.2158 
G01 X-16.8836 Y25.0662 
G01 X-16.9350 Y25.0149 
G01 X-16.9350 Y9.6210 
G01 X-16.9030 Y9.6374 
G01 X-16.7186 Y9.6974 
G01 X-16.5270 Y9.7277 
G01 X-16.3329 Y9.7277 
G01 X-16.1413 Y9.6974 
G01 X-15.9569 Y9.6374 
G01 X-15.7840 Y9.5494 
G01 X-15.6271 Y9.4353 
G01 X-15.4900 Y9.2982 
G01 X-15.3759 Y9.1413 
G01 X-15.2879 Y8.9684 
G01 X-15.2279 Y8.7840 
G01 X-15.1976 Y8.5924 
G01 X-15.1976 Y6.6075 
G01 X-15.2279 Y6.4159 
G01 X-15.2879 Y6.2315 
G01 X-15.3759 Y6.0586 
G01 X-15.4900 Y5.9017 
G01 X-15.6271 Y5.7646 
G01 X-15.7840 Y5.6505 
G01 X-15.9569 Y5.5625 
G01 X-16.1413 Y5.5025 
G01 X-16.3329 Y5.4722 
G01 X-16.5270 Y5.4722 
G01 X-16.7186 Y5.5025 
G01 X-16.9030 Y5.5625 
G01 X-17.0759 Y5.6505 
G01 X-17.2328 Y5.7646 
G01 X-17.3699 Y5.9017 
G01 X-17.4840 Y6.0586 
G01 X-17.5720 Y6.2315 
G01 X-17.6320 Y6.4159 
G01 X-17.6623 Y6.6075 
G01 X-17.6623 Y6.7550 
G01 X-17.6967 Y6.7550 
G01 X-17.8632 Y6.7550 
G01 X-18.0264 Y6.7875 
G01 X-18.1802 Y6.8512 
G01 X-18.3186 Y6.9436 
G01 X-18.4363 Y7.0613 
G01 X-18.5287 Y7.1997 
G01 X-18.5924 Y7.3535 
G01 X-18.6249 Y7.5167 
G01 X-18.6249 Y25.0149 
G01 X-18.6763 Y25.0662 
G01 X-18.7850 Y25.2158 
G01 X-18.8690 Y25.3806 
G01 X-18.9262 Y25.5565 
G01 X-18.9551 Y25.7392 
G01 X-18.9551 Y27.6007 
G01 X-18.9262 Y27.7834 
G01 X-18.8690 Y27.9593 
G01 X-18.7850 Y28.1241 
G01 X-18.6763 Y28.2737 
G01 X-18.5455 Y28.4045 
G01 X-18.3959 Y28.5132 
G01 X-18.2311 Y28.5972 
G01 X-18.0552 Y28.6544 
G01 X-17.8725 Y28.6833 
G01 X-17.6874 Y28.6833 
G01 X-17.5047 Y28.6544 
G01 X-17.3288 Y28.5972 
G01 X-17.1640 Y28.5132 
G01 X-17.0144 Y28.4045 
G01 X-16.8836 Y28.2737 
G01 X-16.7749 Y28.1241 
G01 X-16.6909 Y27.9593 
G01 X-16.6337 Y27.7834 
G01 X-16.6048 Y27.6007 
G00 Z2.0000 
G00 X-14.0648 Y27.6007 
G01 Z-0.1000 F254.00 
G01 X-14.0648 Y25.7392 
G01 X-14.0937 Y25.5565 
G01 X-14.1509 Y25.3806 
G01 X-14.2349 Y25.2158 
G01 X-14.3436 Y25.0662 
G01 X-14.3950 Y25.0149 
G01 X-14.3950 Y23.7049 
G01 X-11.3467 Y23.7049 
G01 X-11.1835 Y23.6724 
G01 X-11.0297 Y23.6087 
G01 X-10.8913 Y23.5163 
G01 X-10.7736 Y23.3986 
G01 X-10.6812 Y23.2602 
G01 X-10.6175 Y23.1064 
G01 X-10.5850 Y22.9432 
G01 X-10.5850 Y22.7767 
G01 X-10.5850 Y21.1649 
G01 X-9.0474 Y21.1649 
G01 X-8.2855 Y21.9269 
G01 X-6.9544 Y21.9269 
G01 X-6.0130 Y20.9855 
G01 X-6.0130 Y19.6544 
G01 X-6.9544 Y18.7130 
G01 X-8.2855 Y18.7130 
G01 X-9.0474 Y19.4750 
G01 X-11.3467 Y19.4750 
G01 X-11.5132 Y19.4750 
G01 X-11.6764 Y19.5075 
G01 X-11.8302 Y19.5712 
G01 X-11.9686 Y19.6636 
G01 X-12.0863 Y19.7813 
G01 X-12.1787 Y19.9197 
G01 X-12.2424 Y20.0735 
G01 X-12.2749 Y20.2367 
G01 X-12.2749 Y22.0150 
G01 X-15.1567 Y22.0150 
G01 X-15.3232 Y22.0150 
G01 X-15.4864 Y22.0475 
G01 X-15.6402 Y22.1112 
G01 X-15.7786 Y22.2036 
G01 X-15.8963 Y22.3213 
G01 X-15.9887 Y22.4597 
G01 X-16.0524 Y22.6135 
G01 X-16.0849 Y22.7767 
G01 X-16.0849 Y25.0149 
G01 X-16.1363 Y25.0662 
G01 X-16.2450 Y25.2158 
G01 X-16.3290 Y25.3806 
G01 X-16.3862 Y25.5565 
G01 X-16.4151 Y25.7392 
G01 X-16.4151 Y27.6007 
G01 X-16.3862 Y27.7834 
G01 X-16.3290 Y27.9593 
G01 X-16.2450 Y28.1241 
G01 X-16.1363 Y28.2737 
G01 X-16.0055 Y28.4045 
G01 X-15.8559 Y28.5132 
G01 X-15.6911 Y28.5972 
G01 X-15.5152 Y28.6544 
G01 X-15.3325 Y28.6833 
G01 X-15.1474 Y28.6833 
G01 X-14.9647 Y28.6544 
G01 X-14.7888 Y28.5972 
G01 X-14.6240 Y28.5132 
G01 X-14.4744 Y28.4045 
G01 X-14.3436 Y28.2737 
G01 X-14.2349 Y28.1241 
G01 X-14.1509 Y27.9593 
G01 X-14.0937 Y27.7834 
G01 X-14.0648 Y27.6007 
G00 Z2.0000 
G00 X-6.6869 Y14.5744 
G01 Z-0.1000 F254.00 
G01 X-6.6869 Y15.9055 
G01 X-5.9249 Y16.6674 
G01 X-5.9249 Y25.4939 
G01 X-6.3499 Y25.9189 
G01 X-7.0280 Y25.2408 
G01 X-8.2119 Y25.2408 
G01 X-8.7960 Y25.8250 
G01 X-11.5248 Y25.8250 
G01 X-11.5248 Y25.7392 
G01 X-11.5537 Y25.5565 
G01 X-11.6109 Y25.3806 
G01 X-11.6949 Y25.2158 
G01 X-11.8036 Y25.0662 
G01 X-11.9344 Y24.9354 
G01 X-12.0840 Y24.8267 
G01 X-12.2488 Y24.7427 
G01 X-12.4247 Y24.6855 
G01 X-12.6074 Y24.6566 
G01 X-12.7925 Y24.6566 
G01 X-12.9752 Y24.6855 
G01 X-13.1511 Y24.7427 
G01 X-13.3159 Y24.8267 
G01 X-13.4655 Y24.9354 
G01 X-13.5963 Y25.0662 
G01 X-13.7050 Y25.2158 
G01 X-13.7890 Y25.3806 
G01 X-13.8462 Y25.5565 
G01 X-13.8751 Y25.7392 
G01 X-13.8751 Y27.6007 
G01 X-13.8462 Y27.7834 
G01 X-13.7890 Y27.9593 
G01 X-13.7050 Y28.1241 
G01 X-13.5963 Y28.2737 
G01 X-13.4655 Y28.4045 
G01 X-13.3159 Y28.5132 
G01 X-13.1511 Y28.5972 
G01 X-12.9752 Y28.6544 
G01 X-12.7925 Y28.6833 
G01 X-12.6074 Y28.6833 
G01 X-12.4247 Y28.6544 
G01 X-12.2488 Y28.5972 
G01 X-12.0840 Y28.5132 
G01 X-11.9344 Y28.4045 
G01 X-11.8036 Y28.2737 
G01 X-11.6949 Y28.1241 
G01 X-11.6109 Y27.9593 
G01 X-11.5537 Y27.7834 
G01 X-11.5248 Y27.6007 
G01 X-11.5248 Y27.5149 
G01 X-8.7960 Y27.5149 
G01 X-8.2119 Y28.0991 
G01 X-7.0280 Y28.0991 
G01 X-6.3499 Y27.4210 
G01 X-5.6719 Y28.0991 
G01 X-4.4880 Y28.0991 
G01 X-3.6508 Y27.2619 
G01 X-3.6508 Y26.0780 
G01 X-4.2350 Y25.4939 
G01 X-4.2350 Y16.6674 
G01 X-3.4730 Y15.9055 
G01 X-3.4730 Y14.5744 
G01 X-4.4144 Y13.6330 
G01 X-5.7455 Y13.6330 
G01 X-6.6869 Y14.5744 
G00 Z2.0000 
G00 X-14.3069 Y14.5744 
G01 Z-0.1000 F254.00 
G01 X-14.3069 Y15.9055 
G01 X-13.3655 Y16.8469 
G01 X-12.0344 Y16.8469 
G01 X-11.2725 Y16.0849 
G01 X-8.9732 Y16.0849 
G01 X-8.8067 Y16.0849 
G01 X-8.6435 Y16.0524 
G01 X-8.4897 Y15.9887 
G01 X-8.3513 Y15.8963 
G01 X-8.2336 Y15.7786 
G01 X-8.1412 Y15.6402 
G01 X-8.0775 Y15.4864 
G01 X-8.0450 Y15.3232 
G01 X-8.0450 Y12.2749 
G01 X-6.5132 Y12.2749 
G01 X-6.3467 Y12.2749 
G01 X-6.1835 Y12.2424 
G01 X-6.0297 Y12.1787 
G01 X-5.8913 Y12.0863 
G01 X-5.7736 Y11.9686 
G01 X-5.6812 Y11.8302 
G01 X-5.6175 Y11.6764 
G01 X-5.5850 Y11.5132 
G01 X-5.5850 Y9.3931 
G01 X-5.4900 Y9.2982 
G01 X-5.3759 Y9.1413 
G01 X-5.2879 Y8.9684 
G01 X-5.2279 Y8.7840 
G01 X-5.1976 Y8.5924 
G01 X-5.1976 Y6.6075 
G01 X-5.2279 Y6.4159 
G01 X-5.2879 Y6.2315 
G01 X-5.3759 Y6.0586 
G01 X-5.4900 Y5.9017 
G01 X-5.6271 Y5.7646 
G01 X-5.7840 Y5.6505 
G01 X-5.9569 Y5.5625 
G01 X-6.1413 Y5.5025 
G01 X-6.3329 Y5.4722 
G01 X-6.5270 Y5.4722 
G01 X-6.7186 Y5.5025 
G01 X-6.9030 Y5.5625 
G01 X-7.0759 Y5.6505 
G01 X-7.2328 Y5.7646 
G01 X-7.3699 Y5.9017 
G01 X-7.4840 Y6.0586 
G01 X-7.5720 Y6.2315 
G01 X-7.6320 Y6.4159 
G01 X-7.6623 Y6.6075 
G01 X-7.6623 Y8.5924 
G01 X-7.6320 Y8.7840 
G01 X-7.5720 Y8.9684 
G01 X-7.4840 Y9.1413 
G01 X-7.3699 Y9.2982 
G01 X-7.2749 Y9.3931 
G01 X-7.2749 Y10.5850 
G01 X-8.9732 Y10.5850 
G01 X-9.1364 Y10.6175 
G01 X-9.2902 Y10.6812 
G01 X-9.4286 Y10.7736 
G01 X-9.5463 Y10.8913 
G01 X-9.6387 Y11.0297 
G01 X-9.7024 Y11.1835 
G01 X-9.7349 Y11.3467 
G01 X-9.7349 Y11.5132 
G01 X-9.7349 Y14.3950 
G01 X-11.2725 Y14.3950 
G01 X-12.0344 Y13.6330 
G01 X-13.3655 Y13.6330 
G01 X-14.3069 Y14.5744 
(File Footer)
G00 Z2.0000 
G00 Z10.0000 
M05
M02
