( This gcode generated by /home/mattvenn/.eagle/ulp/pcb-gcode.ulp )
( Copyright 2005 by John Johnson. See readme.txt for licensing terms. )

( This file generated from the board /home/mattvenn/eagle-circuit-designs/pcb miller test/untitled.brd )
( This file generated 19/12/2011 15:21 )

G21

G90
G00 Z10.0000 
G00 X0 Y0
M03
G04 P3.000000
G00 Z2.0000 
G00 X11.7248 Y27.6042 
G01 Z-0.1000 F254.00 
G01 X11.7248 Y25.7357 
G01 X11.7623 Y25.5473 
G01 X11.8358 Y25.3698 
G01 X11.9425 Y25.2101 
G01 X12.0783 Y25.0743 
G01 X12.2380 Y24.9676 
G01 X12.4155 Y24.8941 
G01 X12.6039 Y24.8566 
G01 X12.7960 Y24.8566 
G01 X12.9844 Y24.8941 
G01 X13.1619 Y24.9676 
G01 X13.3216 Y25.0743 
G01 X13.4574 Y25.2101 
G01 X13.5641 Y25.3698 
G01 X13.6376 Y25.5473 
G01 X13.6751 Y25.7357 
G01 X13.6751 Y27.6042 
G01 X13.6376 Y27.7926 
G01 X13.5641 Y27.9701 
G01 X13.4574 Y28.1298 
G01 X13.3216 Y28.2656 
G01 X13.1619 Y28.3723 
G01 X12.9844 Y28.4458 
G01 X12.7960 Y28.4833 
G01 X12.6039 Y28.4833 
G01 X12.4155 Y28.4458 
G01 X12.2380 Y28.3723 
G01 X12.0783 Y28.2656 
G01 X11.9425 Y28.1298 
G01 X11.8358 Y27.9701 
G01 X11.7623 Y27.7926 
G01 X11.7248 Y27.6042 
G00 Z2.0000 
G00 X16.8048 Y27.6042 
G01 Z-0.1000 F254.00 
G01 X16.8048 Y25.7357 
G01 X16.8423 Y25.5473 
G01 X16.9158 Y25.3698 
G01 X17.0225 Y25.2101 
G01 X17.1583 Y25.0743 
G01 X17.3180 Y24.9676 
G01 X17.4955 Y24.8941 
G01 X17.6839 Y24.8566 
G01 X17.8760 Y24.8566 
G01 X18.0644 Y24.8941 
G01 X18.2419 Y24.9676 
G01 X18.4016 Y25.0743 
G01 X18.5374 Y25.2101 
G01 X18.6441 Y25.3698 
G01 X18.7176 Y25.5473 
G01 X18.7551 Y25.7357 
G01 X18.7551 Y27.6042 
G01 X18.7176 Y27.7926 
G01 X18.6441 Y27.9701 
G01 X18.5374 Y28.1298 
G01 X18.4016 Y28.2656 
G01 X18.2419 Y28.3723 
G01 X18.0644 Y28.4458 
G01 X17.8760 Y28.4833 
G01 X17.6839 Y28.4833 
G01 X17.4955 Y28.4458 
G01 X17.3180 Y28.3723 
G01 X17.1583 Y28.2656 
G01 X17.0225 Y28.1298 
G01 X16.9158 Y27.9701 
G01 X16.8423 Y27.7926 
G01 X16.8048 Y27.6042 
G00 Z2.0000 
G00 X14.2648 Y27.6042 
G01 Z-0.1000 F254.00 
G01 X14.2648 Y25.7357 
G01 X14.3023 Y25.5473 
G01 X14.3758 Y25.3698 
G01 X14.4825 Y25.2101 
G01 X14.6183 Y25.0743 
G01 X14.7780 Y24.9676 
G01 X14.9555 Y24.8941 
G01 X15.1439 Y24.8566 
G01 X15.3360 Y24.8566 
G01 X15.5244 Y24.8941 
G01 X15.7019 Y24.9676 
G01 X15.8616 Y25.0743 
G01 X15.9974 Y25.2101 
G01 X16.1041 Y25.3698 
G01 X16.1776 Y25.5473 
G01 X16.2151 Y25.7357 
G01 X16.2151 Y27.6042 
G01 X16.1776 Y27.7926 
G01 X16.1041 Y27.9701 
G01 X15.9974 Y28.1298 
G01 X15.8616 Y28.2656 
G01 X15.7019 Y28.3723 
G01 X15.5244 Y28.4458 
G01 X15.3360 Y28.4833 
G01 X15.1439 Y28.4833 
G01 X14.9555 Y28.4458 
G01 X14.7780 Y28.3723 
G01 X14.6183 Y28.2656 
G01 X14.4825 Y28.1298 
G01 X14.3758 Y27.9701 
G01 X14.3023 Y27.7926 
G01 X14.2648 Y27.6042 
G00 Z2.0000 
G00 X6.4869 Y14.6572 
G01 Z-0.1000 F254.00 
G01 X6.4869 Y15.8227 
G01 X5.6627 Y16.6469 
G01 X4.4972 Y16.6469 
G01 X3.6730 Y15.8227 
G01 X3.6730 Y14.6572 
G01 X4.4972 Y13.8330 
G01 X5.6627 Y13.8330 
G01 X6.4869 Y14.6572 
G00 Z2.0000 
G00 X14.1069 Y14.6572 
G01 Z-0.1000 F254.00 
G01 X14.1069 Y15.8227 
G01 X13.2827 Y16.6469 
G01 X12.1172 Y16.6469 
G01 X11.2930 Y15.8227 
G01 X11.2930 Y14.6572 
G01 X12.1172 Y13.8330 
G01 X13.2827 Y13.8330 
G01 X14.1069 Y14.6572 
G00 Z2.0000 
G00 X9.0269 Y19.7372 
G01 Z-0.1000 F254.00 
G01 X9.0269 Y20.9027 
G01 X8.2027 Y21.7269 
G01 X7.0372 Y21.7269 
G01 X6.2130 Y20.9027 
G01 X6.2130 Y19.7372 
G01 X7.0372 Y18.9130 
G01 X8.2027 Y18.9130 
G01 X9.0269 Y19.7372 
G00 Z2.0000 
G00 X16.6469 Y19.7372 
G01 Z-0.1000 F254.00 
G01 X16.6469 Y20.9027 
G01 X15.8227 Y21.7269 
G01 X14.6572 Y21.7269 
G01 X13.8330 Y20.9027 
G01 X13.8330 Y19.7372 
G01 X14.6572 Y18.9130 
G01 X15.8227 Y18.9130 
G01 X16.6469 Y19.7372 
G00 Z2.0000 
G00 X6.3091 Y26.1608 
G01 Z-0.1000 F254.00 
G01 X6.3091 Y27.1791 
G01 X5.5891 Y27.8991 
G01 X4.5708 Y27.8991 
G01 X3.8508 Y27.1791 
G01 X3.8508 Y26.1608 
G01 X4.5708 Y25.4408 
G01 X5.5891 Y25.4408 
G01 X6.3091 Y26.1608 
G00 Z2.0000 
G00 X8.8491 Y26.1608 
G01 Z-0.1000 F254.00 
G01 X8.8491 Y27.1791 
G01 X8.1291 Y27.8991 
G01 X7.1108 Y27.8991 
G01 X6.3908 Y27.1791 
G01 X6.3908 Y26.1608 
G01 X7.1108 Y25.4408 
G01 X8.1291 Y25.4408 
G01 X8.8491 Y26.1608 
G00 Z2.0000 
G00 X5.3976 Y8.5971 
G01 Z-0.1000 F254.00 
G01 X5.3976 Y6.6028 
G01 X5.4373 Y6.4034 
G01 X5.5151 Y6.2155 
G01 X5.6281 Y6.0464 
G01 X5.7718 Y5.9027 
G01 X5.9409 Y5.7897 
G01 X6.1288 Y5.7119 
G01 X6.3282 Y5.6722 
G01 X6.5317 Y5.6722 
G01 X6.7311 Y5.7119 
G01 X6.9190 Y5.7897 
G01 X7.0881 Y5.9027 
G01 X7.2318 Y6.0464 
G01 X7.3448 Y6.2155 
G01 X7.4226 Y6.4034 
G01 X7.4623 Y6.6028 
G01 X7.4623 Y8.5971 
G01 X7.4226 Y8.7965 
G01 X7.3448 Y8.9844 
G01 X7.2318 Y9.1535 
G01 X7.0881 Y9.2972 
G01 X6.9190 Y9.4102 
G01 X6.7311 Y9.4880 
G01 X6.5317 Y9.5277 
G01 X6.3282 Y9.5277 
G01 X6.1288 Y9.4880 
G01 X5.9409 Y9.4102 
G01 X5.7718 Y9.2972 
G01 X5.6281 Y9.1535 
G01 X5.5151 Y8.9844 
G01 X5.4373 Y8.7965 
G01 X5.3976 Y8.5971 
G00 Z2.0000 
G00 X10.3976 Y8.5971 
G01 Z-0.1000 F254.00 
G01 X10.3976 Y6.6028 
G01 X10.4373 Y6.4034 
G01 X10.5151 Y6.2155 
G01 X10.6281 Y6.0464 
G01 X10.7718 Y5.9027 
G01 X10.9409 Y5.7897 
G01 X11.1288 Y5.7119 
G01 X11.3282 Y5.6722 
G01 X11.5317 Y5.6722 
G01 X11.7311 Y5.7119 
G01 X11.9190 Y5.7897 
G01 X12.0881 Y5.9027 
G01 X12.2318 Y6.0464 
G01 X12.3448 Y6.2155 
G01 X12.4226 Y6.4034 
G01 X12.4623 Y6.6028 
G01 X12.4623 Y8.5971 
G01 X12.4226 Y8.7965 
G01 X12.3448 Y8.9844 
G01 X12.2318 Y9.1535 
G01 X12.0881 Y9.2972 
G01 X11.9190 Y9.4102 
G01 X11.7311 Y9.4880 
G01 X11.5317 Y9.5277 
G01 X11.3282 Y9.5277 
G01 X11.1288 Y9.4880 
G01 X10.9409 Y9.4102 
G01 X10.7718 Y9.2972 
G01 X10.6281 Y9.1535 
G01 X10.5151 Y8.9844 
G01 X10.4373 Y8.7965 
G01 X10.3976 Y8.5971 
G00 Z2.0000 
G00 X15.3976 Y8.5971 
G01 Z-0.1000 F254.00 
G01 X15.3976 Y6.6028 
G01 X15.4373 Y6.4034 
G01 X15.5151 Y6.2155 
G01 X15.6281 Y6.0464 
G01 X15.7718 Y5.9027 
G01 X15.9409 Y5.7897 
G01 X16.1288 Y5.7119 
G01 X16.3282 Y5.6722 
G01 X16.5317 Y5.6722 
G01 X16.7311 Y5.7119 
G01 X16.9190 Y5.7897 
G01 X17.0881 Y5.9027 
G01 X17.2318 Y6.0464 
G01 X17.3448 Y6.2155 
G01 X17.4226 Y6.4034 
G01 X17.4623 Y6.6028 
G01 X17.4623 Y8.5971 
G01 X17.4226 Y8.7965 
G01 X17.3448 Y8.9844 
G01 X17.2318 Y9.1535 
G01 X17.0881 Y9.2972 
G01 X16.9190 Y9.4102 
G01 X16.7311 Y9.4880 
G01 X16.5317 Y9.5277 
G01 X16.3282 Y9.5277 
G01 X16.1288 Y9.4880 
G01 X15.9409 Y9.4102 
G01 X15.7718 Y9.2972 
G01 X15.6281 Y9.1535 
G01 X15.5151 Y8.9844 
G01 X15.4373 Y8.7965 
G01 X15.3976 Y8.5971 
G00 Z2.0000 
G00 X5.6098 Y27.9491 
G01 Z-0.1000 F254.00 
G01 X4.5501 Y27.9491 
G01 X3.8008 Y27.1998 
G01 X3.8008 Y26.1401 
G01 X4.5501 Y25.3908 
G01 X5.6098 Y25.3908 
G01 X6.3499 Y26.1310 
G01 X7.0901 Y25.3908 
G01 X8.1498 Y25.3908 
G01 X8.8991 Y26.1401 
G01 X8.8991 Y27.1998 
G01 X8.1498 Y27.9491 
G01 X7.0901 Y27.9491 
G01 X6.3499 Y27.2089 
G01 X5.6098 Y27.9491 
G00 Z2.0000 
G00 X16.6969 Y19.7165 
G01 Z-0.1000 F254.00 
G01 X16.6969 Y20.9234 
G01 X15.8434 Y21.7769 
G01 X14.6365 Y21.7769 
G01 X13.7830 Y20.9234 
G01 X13.7830 Y19.7165 
G01 X14.6365 Y18.8630 
G01 X15.8434 Y18.8630 
G01 X16.6969 Y19.7165 
G00 Z2.0000 
G00 X9.0769 Y19.7165 
G01 Z-0.1000 F254.00 
G01 X9.0769 Y20.9234 
G01 X8.2234 Y21.7769 
G01 X7.0165 Y21.7769 
G01 X6.1630 Y20.9234 
G01 X6.1630 Y19.7165 
G01 X7.0165 Y18.8630 
G01 X8.2234 Y18.8630 
G01 X9.0769 Y19.7165 
G00 Z2.0000 
G00 X14.1569 Y14.6365 
G01 Z-0.1000 F254.00 
G01 X14.1569 Y15.8434 
G01 X13.3034 Y16.6969 
G01 X12.0965 Y16.6969 
G01 X11.2430 Y15.8434 
G01 X11.2430 Y14.6365 
G01 X12.0965 Y13.7830 
G01 X13.3034 Y13.7830 
G01 X14.1569 Y14.6365 
G00 Z2.0000 
G00 X6.5369 Y14.6365 
G01 Z-0.1000 F254.00 
G01 X6.5369 Y15.8434 
G01 X5.6834 Y16.6969 
G01 X4.4765 Y16.6969 
G01 X3.6230 Y15.8434 
G01 X3.6230 Y14.6365 
G01 X4.4765 Y13.7830 
G01 X5.6834 Y13.7830 
G01 X6.5369 Y14.6365 
G00 Z2.0000 
G00 X14.2148 Y27.6092 
G01 Z-0.1000 F254.00 
G01 X14.2148 Y25.7307 
G01 X14.2542 Y25.5327 
G01 X14.3315 Y25.3461 
G01 X14.4437 Y25.1782 
G01 X14.5864 Y25.0355 
G01 X14.7543 Y24.9233 
G01 X14.9409 Y24.8460 
G01 X15.1389 Y24.8066 
G01 X15.3410 Y24.8066 
G01 X15.5390 Y24.8460 
G01 X15.7256 Y24.9233 
G01 X15.8935 Y25.0355 
G01 X16.0362 Y25.1782 
G01 X16.1484 Y25.3461 
G01 X16.2257 Y25.5327 
G01 X16.2651 Y25.7307 
G01 X16.2651 Y27.6092 
G01 X16.2257 Y27.8072 
G01 X16.1484 Y27.9938 
G01 X16.0362 Y28.1617 
G01 X15.8935 Y28.3044 
G01 X15.7256 Y28.4166 
G01 X15.5390 Y28.4939 
G01 X15.3410 Y28.5333 
G01 X15.1389 Y28.5333 
G01 X14.9409 Y28.4939 
G01 X14.7543 Y28.4166 
G01 X14.5864 Y28.3044 
G01 X14.4437 Y28.1617 
G01 X14.3315 Y27.9938 
G01 X14.2542 Y27.8072 
G01 X14.2148 Y27.6092 
G00 Z2.0000 
G00 X16.7548 Y27.6092 
G01 Z-0.1000 F254.00 
G01 X16.7548 Y25.7307 
G01 X16.7942 Y25.5327 
G01 X16.8715 Y25.3461 
G01 X16.9837 Y25.1782 
G01 X17.1264 Y25.0355 
G01 X17.2943 Y24.9233 
G01 X17.4809 Y24.8460 
G01 X17.6789 Y24.8066 
G01 X17.8810 Y24.8066 
G01 X18.0790 Y24.8460 
G01 X18.2656 Y24.9233 
G01 X18.4335 Y25.0355 
G01 X18.5762 Y25.1782 
G01 X18.6884 Y25.3461 
G01 X18.7657 Y25.5327 
G01 X18.8051 Y25.7307 
G01 X18.8051 Y27.6092 
G01 X18.7657 Y27.8072 
G01 X18.6884 Y27.9938 
G01 X18.5762 Y28.1617 
G01 X18.4335 Y28.3044 
G01 X18.2656 Y28.4166 
G01 X18.0790 Y28.4939 
G01 X17.8810 Y28.5333 
G01 X17.6789 Y28.5333 
G01 X17.4809 Y28.4939 
G01 X17.2943 Y28.4166 
G01 X17.1264 Y28.3044 
G01 X16.9837 Y28.1617 
G01 X16.8715 Y27.9938 
G01 X16.7942 Y27.8072 
G01 X16.7548 Y27.6092 
G00 Z2.0000 
G00 X11.6748 Y27.6092 
G01 Z-0.1000 F254.00 
G01 X11.6748 Y25.7307 
G01 X11.7142 Y25.5327 
G01 X11.7915 Y25.3461 
G01 X11.9037 Y25.1782 
G01 X12.0464 Y25.0355 
G01 X12.2143 Y24.9233 
G01 X12.4009 Y24.8460 
G01 X12.5989 Y24.8066 
G01 X12.8010 Y24.8066 
G01 X12.9990 Y24.8460 
G01 X13.1856 Y24.9233 
G01 X13.3535 Y25.0355 
G01 X13.4962 Y25.1782 
G01 X13.6084 Y25.3461 
G01 X13.6857 Y25.5327 
G01 X13.7251 Y25.7307 
G01 X13.7251 Y27.6092 
G01 X13.6857 Y27.8072 
G01 X13.6084 Y27.9938 
G01 X13.4962 Y28.1617 
G01 X13.3535 Y28.3044 
G01 X13.1856 Y28.4166 
G01 X12.9990 Y28.4939 
G01 X12.8010 Y28.5333 
G01 X12.5989 Y28.5333 
G01 X12.4009 Y28.4939 
G01 X12.2143 Y28.4166 
G01 X12.0464 Y28.3044 
G01 X11.9037 Y28.1617 
G01 X11.7915 Y27.9938 
G01 X11.7142 Y27.8072 
G01 X11.6748 Y27.6092 
G00 Z2.0000 
G00 X5.3476 Y8.5806 
G01 Z-0.1000 F254.00 
G01 X5.3476 Y6.6193 
G01 X5.3742 Y6.4511 
G01 X5.4269 Y6.2890 
G01 X5.5042 Y6.1373 
G01 X5.6044 Y5.9994 
G01 X5.7248 Y5.8790 
G01 X5.8627 Y5.7788 
G01 X6.0144 Y5.7015 
G01 X6.1765 Y5.6488 
G01 X6.3447 Y5.6222 
G01 X6.5152 Y5.6222 
G01 X6.6834 Y5.6488 
G01 X6.8455 Y5.7015 
G01 X6.9972 Y5.7788 
G01 X7.1351 Y5.8790 
G01 X7.2555 Y5.9994 
G01 X7.3557 Y6.1373 
G01 X7.4330 Y6.2890 
G01 X7.4857 Y6.4511 
G01 X7.5123 Y6.6193 
G01 X7.5123 Y8.5806 
G01 X7.4857 Y8.7488 
G01 X7.4330 Y8.9109 
G01 X7.3557 Y9.0626 
G01 X7.2555 Y9.2005 
G01 X7.1351 Y9.3209 
G01 X6.9972 Y9.4211 
G01 X6.8455 Y9.4984 
G01 X6.6834 Y9.5511 
G01 X6.5152 Y9.5777 
G01 X6.3447 Y9.5777 
G01 X6.1765 Y9.5511 
G01 X6.0144 Y9.4984 
G01 X5.8627 Y9.4211 
G01 X5.7248 Y9.3209 
G01 X5.6044 Y9.2005 
G01 X5.5042 Y9.0626 
G01 X5.4269 Y8.9109 
G01 X5.3742 Y8.7488 
G01 X5.3476 Y8.5806 
G00 Z2.0000 
G00 X10.3476 Y8.5806 
G01 Z-0.1000 F254.00 
G01 X10.3476 Y6.6193 
G01 X10.3742 Y6.4511 
G01 X10.4269 Y6.2890 
G01 X10.5042 Y6.1373 
G01 X10.6044 Y5.9994 
G01 X10.7248 Y5.8790 
G01 X10.8627 Y5.7788 
G01 X11.0144 Y5.7015 
G01 X11.1765 Y5.6488 
G01 X11.3447 Y5.6222 
G01 X11.5152 Y5.6222 
G01 X11.6834 Y5.6488 
G01 X11.8455 Y5.7015 
G01 X11.9972 Y5.7788 
G01 X12.1351 Y5.8790 
G01 X12.2555 Y5.9994 
G01 X12.3557 Y6.1373 
G01 X12.4330 Y6.2890 
G01 X12.4857 Y6.4511 
G01 X12.5123 Y6.6193 
G01 X12.5123 Y8.5806 
G01 X12.4857 Y8.7488 
G01 X12.4330 Y8.9109 
G01 X12.3557 Y9.0626 
G01 X12.2555 Y9.2005 
G01 X12.1351 Y9.3209 
G01 X11.9972 Y9.4211 
G01 X11.8455 Y9.4984 
G01 X11.6834 Y9.5511 
G01 X11.5152 Y9.5777 
G01 X11.3447 Y9.5777 
G01 X11.1765 Y9.5511 
G01 X11.0144 Y9.4984 
G01 X10.8627 Y9.4211 
G01 X10.7248 Y9.3209 
G01 X10.6044 Y9.2005 
G01 X10.5042 Y9.0626 
G01 X10.4269 Y8.9109 
G01 X10.3742 Y8.7488 
G01 X10.3476 Y8.5806 
G00 Z2.0000 
G00 X15.3476 Y8.5806 
G01 Z-0.1000 F254.00 
G01 X15.3476 Y6.6193 
G01 X15.3742 Y6.4511 
G01 X15.4269 Y6.2890 
G01 X15.5042 Y6.1373 
G01 X15.6044 Y5.9994 
G01 X15.7248 Y5.8790 
G01 X15.8627 Y5.7788 
G01 X16.0144 Y5.7015 
G01 X16.1765 Y5.6488 
G01 X16.3447 Y5.6222 
G01 X16.5152 Y5.6222 
G01 X16.6834 Y5.6488 
G01 X16.8455 Y5.7015 
G01 X16.9972 Y5.7788 
G01 X17.1351 Y5.8790 
G01 X17.2555 Y5.9994 
G01 X17.3557 Y6.1373 
G01 X17.4330 Y6.2890 
G01 X17.4857 Y6.4511 
G01 X17.5123 Y6.6193 
G01 X17.5123 Y8.5806 
G01 X17.4857 Y8.7488 
G01 X17.4330 Y8.9109 
G01 X17.3557 Y9.0626 
G01 X17.2555 Y9.2005 
G01 X17.1351 Y9.3209 
G01 X16.9972 Y9.4211 
G01 X16.8455 Y9.4984 
G01 X16.6834 Y9.5511 
G01 X16.5152 Y9.5777 
G01 X16.3447 Y9.5777 
G01 X16.1765 Y9.5511 
G01 X16.0144 Y9.4984 
G01 X15.8627 Y9.4211 
G01 X15.7248 Y9.3209 
G01 X15.6044 Y9.2005 
G01 X15.5042 Y9.0626 
G01 X15.4269 Y8.9109 
G01 X15.3742 Y8.7488 
G01 X15.3476 Y8.5806 
G00 Z2.0000 
G00 X5.6305 Y27.9991 
G01 Z-0.1000 F254.00 
G01 X4.5294 Y27.9991 
G01 X3.7508 Y27.2205 
G01 X3.7508 Y26.1194 
G01 X4.5294 Y25.3408 
G01 X5.6305 Y25.3408 
G01 X6.3499 Y26.0603 
G01 X7.0694 Y25.3408 
G01 X8.1705 Y25.3408 
G01 X8.9491 Y26.1194 
G01 X8.9491 Y27.2205 
G01 X8.1705 Y27.9991 
G01 X7.0694 Y27.9991 
G01 X6.3499 Y27.2796 
G01 X5.6305 Y27.9991 
G00 Z2.0000 
G00 X16.7469 Y19.6958 
G01 Z-0.1000 F254.00 
G01 X16.7469 Y20.9441 
G01 X15.8641 Y21.8269 
G01 X14.6158 Y21.8269 
G01 X13.7330 Y20.9441 
G01 X13.7330 Y19.6958 
G01 X14.6158 Y18.8130 
G01 X15.8641 Y18.8130 
G01 X16.7469 Y19.6958 
G00 Z2.0000 
G00 X9.1269 Y19.6958 
G01 Z-0.1000 F254.00 
G01 X9.1269 Y20.9441 
G01 X8.2441 Y21.8269 
G01 X6.9958 Y21.8269 
G01 X6.1130 Y20.9441 
G01 X6.1130 Y19.6958 
G01 X6.9958 Y18.8130 
G01 X8.2441 Y18.8130 
G01 X9.1269 Y19.6958 
G00 Z2.0000 
G00 X14.2069 Y14.6158 
G01 Z-0.1000 F254.00 
G01 X14.2069 Y15.8641 
G01 X13.3241 Y16.7469 
G01 X12.0758 Y16.7469 
G01 X11.1930 Y15.8641 
G01 X11.1930 Y14.6158 
G01 X12.0758 Y13.7330 
G01 X13.3241 Y13.7330 
G01 X14.2069 Y14.6158 
G00 Z2.0000 
G00 X6.5869 Y14.6158 
G01 Z-0.1000 F254.00 
G01 X6.5869 Y15.8641 
G01 X5.7041 Y16.7469 
G01 X4.4558 Y16.7469 
G01 X3.5730 Y15.8641 
G01 X3.5730 Y14.6158 
G01 X4.4558 Y13.7330 
G01 X5.7041 Y13.7330 
G01 X6.5869 Y14.6158 
G00 Z2.0000 
G00 X14.1648 Y27.5928 
G01 Z-0.1000 F254.00 
G01 X14.1648 Y25.7471 
G01 X14.1913 Y25.5799 
G01 X14.2436 Y25.4190 
G01 X14.3204 Y25.2682 
G01 X14.4199 Y25.1313 
G01 X14.5395 Y25.0117 
G01 X14.6764 Y24.9122 
G01 X14.8272 Y24.8354 
G01 X14.9881 Y24.7831 
G01 X15.1553 Y24.7566 
G01 X15.3246 Y24.7566 
G01 X15.4918 Y24.7831 
G01 X15.6527 Y24.8354 
G01 X15.8035 Y24.9122 
G01 X15.9404 Y25.0117 
G01 X16.0600 Y25.1313 
G01 X16.1595 Y25.2682 
G01 X16.2363 Y25.4190 
G01 X16.2886 Y25.5799 
G01 X16.3151 Y25.7471 
G01 X16.3151 Y27.5928 
G01 X16.2886 Y27.7600 
G01 X16.2363 Y27.9209 
G01 X16.1595 Y28.0717 
G01 X16.0600 Y28.2086 
G01 X15.9404 Y28.3282 
G01 X15.8035 Y28.4277 
G01 X15.6527 Y28.5045 
G01 X15.4918 Y28.5568 
G01 X15.3246 Y28.5833 
G01 X15.1553 Y28.5833 
G01 X14.9881 Y28.5568 
G01 X14.8272 Y28.5045 
G01 X14.6764 Y28.4277 
G01 X14.5395 Y28.3282 
G01 X14.4199 Y28.2086 
G01 X14.3204 Y28.0717 
G01 X14.2436 Y27.9209 
G01 X14.1913 Y27.7600 
G01 X14.1648 Y27.5928 
G00 Z2.0000 
G00 X16.7048 Y27.5928 
G01 Z-0.1000 F254.00 
G01 X16.7048 Y25.7471 
G01 X16.7313 Y25.5799 
G01 X16.7836 Y25.4190 
G01 X16.8604 Y25.2682 
G01 X16.9599 Y25.1313 
G01 X17.0795 Y25.0117 
G01 X17.2164 Y24.9122 
G01 X17.3672 Y24.8354 
G01 X17.5281 Y24.7831 
G01 X17.6953 Y24.7566 
G01 X17.8646 Y24.7566 
G01 X18.0318 Y24.7831 
G01 X18.1927 Y24.8354 
G01 X18.3435 Y24.9122 
G01 X18.4804 Y25.0117 
G01 X18.6000 Y25.1313 
G01 X18.6995 Y25.2682 
G01 X18.7763 Y25.4190 
G01 X18.8286 Y25.5799 
G01 X18.8551 Y25.7471 
G01 X18.8551 Y27.5928 
G01 X18.8286 Y27.7600 
G01 X18.7763 Y27.9209 
G01 X18.6995 Y28.0717 
G01 X18.6000 Y28.2086 
G01 X18.4804 Y28.3282 
G01 X18.3435 Y28.4277 
G01 X18.1927 Y28.5045 
G01 X18.0318 Y28.5568 
G01 X17.8646 Y28.5833 
G01 X17.6953 Y28.5833 
G01 X17.5281 Y28.5568 
G01 X17.3672 Y28.5045 
G01 X17.2164 Y28.4277 
G01 X17.0795 Y28.3282 
G01 X16.9599 Y28.2086 
G01 X16.8604 Y28.0717 
G01 X16.7836 Y27.9209 
G01 X16.7313 Y27.7600 
G01 X16.7048 Y27.5928 
G00 Z2.0000 
G00 X11.6248 Y27.5928 
G01 Z-0.1000 F254.00 
G01 X11.6248 Y25.7471 
G01 X11.6513 Y25.5799 
G01 X11.7036 Y25.4190 
G01 X11.7804 Y25.2682 
G01 X11.8799 Y25.1313 
G01 X11.9995 Y25.0117 
G01 X12.1364 Y24.9122 
G01 X12.2872 Y24.8354 
G01 X12.4481 Y24.7831 
G01 X12.6153 Y24.7566 
G01 X12.7846 Y24.7566 
G01 X12.9518 Y24.7831 
G01 X13.1127 Y24.8354 
G01 X13.2635 Y24.9122 
G01 X13.4004 Y25.0117 
G01 X13.5200 Y25.1313 
G01 X13.6195 Y25.2682 
G01 X13.6963 Y25.4190 
G01 X13.7486 Y25.5799 
G01 X13.7751 Y25.7471 
G01 X13.7751 Y27.5928 
G01 X13.7486 Y27.7600 
G01 X13.6963 Y27.9209 
G01 X13.6195 Y28.0717 
G01 X13.5200 Y28.2086 
G01 X13.4004 Y28.3282 
G01 X13.2635 Y28.4277 
G01 X13.1127 Y28.5045 
G01 X12.9518 Y28.5568 
G01 X12.7846 Y28.5833 
G01 X12.6153 Y28.5833 
G01 X12.4481 Y28.5568 
G01 X12.2872 Y28.5045 
G01 X12.1364 Y28.4277 
G01 X11.9995 Y28.3282 
G01 X11.8799 Y28.2086 
G01 X11.7804 Y28.0717 
G01 X11.7036 Y27.9209 
G01 X11.6513 Y27.7600 
G01 X11.6248 Y27.5928 
G00 Z2.0000 
G00 X5.2976 Y8.5845 
G01 Z-0.1000 F254.00 
G01 X5.2976 Y6.6154 
G01 X5.3255 Y6.4394 
G01 X5.3806 Y6.2698 
G01 X5.4615 Y6.1110 
G01 X5.5662 Y5.9669 
G01 X5.6923 Y5.8408 
G01 X5.8364 Y5.7361 
G01 X5.9952 Y5.6552 
G01 X6.1648 Y5.6001 
G01 X6.3408 Y5.5722 
G01 X6.5191 Y5.5722 
G01 X6.6951 Y5.6001 
G01 X6.8647 Y5.6552 
G01 X7.0235 Y5.7361 
G01 X7.1676 Y5.8408 
G01 X7.2937 Y5.9669 
G01 X7.3984 Y6.1110 
G01 X7.4793 Y6.2698 
G01 X7.5344 Y6.4394 
G01 X7.5623 Y6.6154 
G01 X7.5623 Y8.5845 
G01 X7.5344 Y8.7605 
G01 X7.4793 Y8.9301 
G01 X7.3984 Y9.0889 
G01 X7.2937 Y9.2330 
G01 X7.1676 Y9.3591 
G01 X7.0235 Y9.4638 
G01 X6.8647 Y9.5447 
G01 X6.6951 Y9.5998 
G01 X6.5191 Y9.6277 
G01 X6.3408 Y9.6277 
G01 X6.1648 Y9.5998 
G01 X5.9952 Y9.5447 
G01 X5.8364 Y9.4638 
G01 X5.6923 Y9.3591 
G01 X5.5662 Y9.2330 
G01 X5.4615 Y9.0889 
G01 X5.3806 Y8.9301 
G01 X5.3255 Y8.7605 
G01 X5.2976 Y8.5845 
G00 Z2.0000 
G00 X10.2976 Y8.5845 
G01 Z-0.1000 F254.00 
G01 X10.2976 Y6.6154 
G01 X10.3255 Y6.4394 
G01 X10.3806 Y6.2698 
G01 X10.4615 Y6.1110 
G01 X10.5662 Y5.9669 
G01 X10.6923 Y5.8408 
G01 X10.8364 Y5.7361 
G01 X10.9952 Y5.6552 
G01 X11.1648 Y5.6001 
G01 X11.3408 Y5.5722 
G01 X11.5191 Y5.5722 
G01 X11.6951 Y5.6001 
G01 X11.8647 Y5.6552 
G01 X12.0235 Y5.7361 
G01 X12.1676 Y5.8408 
G01 X12.2937 Y5.9669 
G01 X12.3984 Y6.1110 
G01 X12.4793 Y6.2698 
G01 X12.5344 Y6.4394 
G01 X12.5623 Y6.6154 
G01 X12.5623 Y8.5845 
G01 X12.5344 Y8.7605 
G01 X12.4793 Y8.9301 
G01 X12.3984 Y9.0889 
G01 X12.2937 Y9.2330 
G01 X12.1676 Y9.3591 
G01 X12.0235 Y9.4638 
G01 X11.8647 Y9.5447 
G01 X11.6951 Y9.5998 
G01 X11.5191 Y9.6277 
G01 X11.3408 Y9.6277 
G01 X11.1648 Y9.5998 
G01 X10.9952 Y9.5447 
G01 X10.8364 Y9.4638 
G01 X10.6923 Y9.3591 
G01 X10.5662 Y9.2330 
G01 X10.4615 Y9.0889 
G01 X10.3806 Y8.9301 
G01 X10.3255 Y8.7605 
G01 X10.2976 Y8.5845 
G00 Z2.0000 
G00 X15.2976 Y8.5845 
G01 Z-0.1000 F254.00 
G01 X15.2976 Y6.6154 
G01 X15.3255 Y6.4394 
G01 X15.3806 Y6.2698 
G01 X15.4615 Y6.1110 
G01 X15.5662 Y5.9669 
G01 X15.6923 Y5.8408 
G01 X15.8364 Y5.7361 
G01 X15.9952 Y5.6552 
G01 X16.1648 Y5.6001 
G01 X16.3408 Y5.5722 
G01 X16.5191 Y5.5722 
G01 X16.6951 Y5.6001 
G01 X16.8647 Y5.6552 
G01 X17.0235 Y5.7361 
G01 X17.1676 Y5.8408 
G01 X17.2937 Y5.9669 
G01 X17.3984 Y6.1110 
G01 X17.4793 Y6.2698 
G01 X17.5344 Y6.4394 
G01 X17.5623 Y6.6154 
G01 X17.5623 Y8.5845 
G01 X17.5344 Y8.7605 
G01 X17.4793 Y8.9301 
G01 X17.3984 Y9.0889 
G01 X17.2937 Y9.2330 
G01 X17.1676 Y9.3591 
G01 X17.0235 Y9.4638 
G01 X16.8647 Y9.5447 
G01 X16.6951 Y9.5998 
G01 X16.5191 Y9.6277 
G01 X16.3408 Y9.6277 
G01 X16.1648 Y9.5998 
G01 X15.9952 Y9.5447 
G01 X15.8364 Y9.4638 
G01 X15.6923 Y9.3591 
G01 X15.5662 Y9.2330 
G01 X15.4615 Y9.0889 
G01 X15.3806 Y8.9301 
G01 X15.3255 Y8.7605 
G01 X15.2976 Y8.5845 
G00 Z2.0000 
G00 X5.6512 Y28.0491 
G01 Z-0.1000 F254.00 
G01 X4.5087 Y28.0491 
G01 X3.7008 Y27.2412 
G01 X3.7008 Y26.0987 
G01 X4.5087 Y25.2908 
G01 X5.6512 Y25.2908 
G01 X6.3499 Y25.9896 
G01 X7.0487 Y25.2908 
G01 X8.1912 Y25.2908 
G01 X8.9991 Y26.0987 
G01 X8.9991 Y27.2412 
G01 X8.1912 Y28.0491 
G01 X7.0487 Y28.0491 
G01 X6.3499 Y27.3503 
G01 X5.6512 Y28.0491 
G00 Z2.0000 
G00 X16.7969 Y19.6751 
G01 Z-0.1000 F254.00 
G01 X16.7969 Y20.9648 
G01 X15.8848 Y21.8769 
G01 X14.5951 Y21.8769 
G01 X13.6830 Y20.9648 
G01 X13.6830 Y19.6751 
G01 X14.5951 Y18.7630 
G01 X15.8848 Y18.7630 
G01 X16.7969 Y19.6751 
G00 Z2.0000 
G00 X9.1769 Y19.6751 
G01 Z-0.1000 F254.00 
G01 X9.1769 Y20.9648 
G01 X8.2648 Y21.8769 
G01 X6.9751 Y21.8769 
G01 X6.0630 Y20.9648 
G01 X6.0630 Y19.6751 
G01 X6.9751 Y18.7630 
G01 X8.2648 Y18.7630 
G01 X9.1769 Y19.6751 
G00 Z2.0000 
G00 X14.2569 Y14.5951 
G01 Z-0.1000 F254.00 
G01 X14.2569 Y15.8848 
G01 X13.3448 Y16.7969 
G01 X12.0551 Y16.7969 
G01 X11.1430 Y15.8848 
G01 X11.1430 Y14.5951 
G01 X12.0551 Y13.6830 
G01 X13.3448 Y13.6830 
G01 X14.2569 Y14.5951 
G00 Z2.0000 
G00 X6.6369 Y14.5951 
G01 Z-0.1000 F254.00 
G01 X6.6369 Y15.8848 
G01 X5.7248 Y16.7969 
G01 X4.4351 Y16.7969 
G01 X3.5230 Y15.8848 
G01 X3.5230 Y14.5951 
G01 X4.4351 Y13.6830 
G01 X5.7248 Y13.6830 
G01 X6.6369 Y14.5951 
G00 Z2.0000 
G00 X14.1148 Y27.5967 
G01 Z-0.1000 F254.00 
G01 X14.1148 Y25.7432 
G01 X14.1425 Y25.5682 
G01 X14.1972 Y25.3998 
G01 X14.2776 Y25.2420 
G01 X14.3817 Y25.0987 
G01 X14.5069 Y24.9735 
G01 X14.6502 Y24.8694 
G01 X14.8080 Y24.7890 
G01 X14.9764 Y24.7343 
G01 X15.1514 Y24.7066 
G01 X15.3285 Y24.7066 
G01 X15.5035 Y24.7343 
G01 X15.6719 Y24.7890 
G01 X15.8297 Y24.8694 
G01 X15.9730 Y24.9735 
G01 X16.0982 Y25.0987 
G01 X16.2023 Y25.2420 
G01 X16.2827 Y25.3998 
G01 X16.3374 Y25.5682 
G01 X16.3651 Y25.7432 
G01 X16.3651 Y27.5967 
G01 X16.3374 Y27.7717 
G01 X16.2827 Y27.9401 
G01 X16.2023 Y28.0979 
G01 X16.0982 Y28.2412 
G01 X15.9730 Y28.3664 
G01 X15.8297 Y28.4705 
G01 X15.6719 Y28.5509 
G01 X15.5035 Y28.6056 
G01 X15.3285 Y28.6333 
G01 X15.1514 Y28.6333 
G01 X14.9764 Y28.6056 
G01 X14.8080 Y28.5509 
G01 X14.6502 Y28.4705 
G01 X14.5069 Y28.3664 
G01 X14.3817 Y28.2412 
G01 X14.2776 Y28.0979 
G01 X14.1972 Y27.9401 
G01 X14.1425 Y27.7717 
G01 X14.1148 Y27.5967 
G00 Z2.0000 
G00 X16.6548 Y27.5967 
G01 Z-0.1000 F254.00 
G01 X16.6548 Y25.7432 
G01 X16.6825 Y25.5682 
G01 X16.7372 Y25.3998 
G01 X16.8176 Y25.2420 
G01 X16.9217 Y25.0987 
G01 X17.0469 Y24.9735 
G01 X17.1902 Y24.8694 
G01 X17.3480 Y24.7890 
G01 X17.5164 Y24.7343 
G01 X17.6914 Y24.7066 
G01 X17.8685 Y24.7066 
G01 X18.0435 Y24.7343 
G01 X18.2119 Y24.7890 
G01 X18.3697 Y24.8694 
G01 X18.5130 Y24.9735 
G01 X18.6382 Y25.0987 
G01 X18.7423 Y25.2420 
G01 X18.8227 Y25.3998 
G01 X18.8774 Y25.5682 
G01 X18.9051 Y25.7432 
G01 X18.9051 Y27.5967 
G01 X18.8774 Y27.7717 
G01 X18.8227 Y27.9401 
G01 X18.7423 Y28.0979 
G01 X18.6382 Y28.2412 
G01 X18.5130 Y28.3664 
G01 X18.3697 Y28.4705 
G01 X18.2119 Y28.5509 
G01 X18.0435 Y28.6056 
G01 X17.8685 Y28.6333 
G01 X17.6914 Y28.6333 
G01 X17.5164 Y28.6056 
G01 X17.3480 Y28.5509 
G01 X17.1902 Y28.4705 
G01 X17.0469 Y28.3664 
G01 X16.9217 Y28.2412 
G01 X16.8176 Y28.0979 
G01 X16.7372 Y27.9401 
G01 X16.6825 Y27.7717 
G01 X16.6548 Y27.5967 
G00 Z2.0000 
G00 X11.5748 Y27.5967 
G01 Z-0.1000 F254.00 
G01 X11.5748 Y25.7432 
G01 X11.6025 Y25.5682 
G01 X11.6572 Y25.3998 
G01 X11.7376 Y25.2420 
G01 X11.8417 Y25.0987 
G01 X11.9669 Y24.9735 
G01 X12.1102 Y24.8694 
G01 X12.2680 Y24.7890 
G01 X12.4364 Y24.7343 
G01 X12.6114 Y24.7066 
G01 X12.7885 Y24.7066 
G01 X12.9635 Y24.7343 
G01 X13.1319 Y24.7890 
G01 X13.2897 Y24.8694 
G01 X13.4330 Y24.9735 
G01 X13.5582 Y25.0987 
G01 X13.6623 Y25.2420 
G01 X13.7427 Y25.3998 
G01 X13.7974 Y25.5682 
G01 X13.8251 Y25.7432 
G01 X13.8251 Y27.5967 
G01 X13.7974 Y27.7717 
G01 X13.7427 Y27.9401 
G01 X13.6623 Y28.0979 
G01 X13.5582 Y28.2412 
G01 X13.4330 Y28.3664 
G01 X13.2897 Y28.4705 
G01 X13.1319 Y28.5509 
G01 X12.9635 Y28.6056 
G01 X12.7885 Y28.6333 
G01 X12.6114 Y28.6333 
G01 X12.4364 Y28.6056 
G01 X12.2680 Y28.5509 
G01 X12.1102 Y28.4705 
G01 X11.9669 Y28.3664 
G01 X11.8417 Y28.2412 
G01 X11.7376 Y28.0979 
G01 X11.6572 Y27.9401 
G01 X11.6025 Y27.7717 
G01 X11.5748 Y27.5967 
G00 Z2.0000 
G00 X5.2476 Y8.5884 
G01 Z-0.1000 F254.00 
G01 X5.2476 Y6.6115 
G01 X5.2767 Y6.4276 
G01 X5.3342 Y6.2507 
G01 X5.4187 Y6.0848 
G01 X5.5281 Y5.9343 
G01 X5.6597 Y5.8027 
G01 X5.8102 Y5.6933 
G01 X5.9761 Y5.6088 
G01 X6.1530 Y5.5513 
G01 X6.3369 Y5.5222 
G01 X6.5230 Y5.5222 
G01 X6.7069 Y5.5513 
G01 X6.8838 Y5.6088 
G01 X7.0497 Y5.6933 
G01 X7.2002 Y5.8027 
G01 X7.3318 Y5.9343 
G01 X7.4412 Y6.0848 
G01 X7.5257 Y6.2507 
G01 X7.5832 Y6.4276 
G01 X7.6123 Y6.6115 
G01 X7.6123 Y8.5884 
G01 X7.5832 Y8.7723 
G01 X7.5257 Y8.9492 
G01 X7.4412 Y9.1151 
G01 X7.3318 Y9.2656 
G01 X7.2002 Y9.3972 
G01 X7.0497 Y9.5066 
G01 X6.8838 Y9.5911 
G01 X6.7069 Y9.6486 
G01 X6.5230 Y9.6777 
G01 X6.3369 Y9.6777 
G01 X6.1530 Y9.6486 
G01 X5.9761 Y9.5911 
G01 X5.8102 Y9.5066 
G01 X5.6597 Y9.3972 
G01 X5.5281 Y9.2656 
G01 X5.4187 Y9.1151 
G01 X5.3342 Y8.9492 
G01 X5.2767 Y8.7723 
G01 X5.2476 Y8.5884 
G00 Z2.0000 
G00 X10.2476 Y8.5884 
G01 Z-0.1000 F254.00 
G01 X10.2476 Y6.6115 
G01 X10.2767 Y6.4276 
G01 X10.3342 Y6.2507 
G01 X10.4187 Y6.0848 
G01 X10.5281 Y5.9343 
G01 X10.6597 Y5.8027 
G01 X10.8102 Y5.6933 
G01 X10.9761 Y5.6088 
G01 X11.1530 Y5.5513 
G01 X11.3369 Y5.5222 
G01 X11.5230 Y5.5222 
G01 X11.7069 Y5.5513 
G01 X11.8838 Y5.6088 
G01 X12.0497 Y5.6933 
G01 X12.2002 Y5.8027 
G01 X12.3318 Y5.9343 
G01 X12.4412 Y6.0848 
G01 X12.5257 Y6.2507 
G01 X12.5832 Y6.4276 
G01 X12.6123 Y6.6115 
G01 X12.6123 Y8.5884 
G01 X12.5832 Y8.7723 
G01 X12.5257 Y8.9492 
G01 X12.4412 Y9.1151 
G01 X12.3318 Y9.2656 
G01 X12.2002 Y9.3972 
G01 X12.0497 Y9.5066 
G01 X11.8838 Y9.5911 
G01 X11.7069 Y9.6486 
G01 X11.5230 Y9.6777 
G01 X11.3369 Y9.6777 
G01 X11.1530 Y9.6486 
G01 X10.9761 Y9.5911 
G01 X10.8102 Y9.5066 
G01 X10.6597 Y9.3972 
G01 X10.5281 Y9.2656 
G01 X10.4187 Y9.1151 
G01 X10.3342 Y8.9492 
G01 X10.2767 Y8.7723 
G01 X10.2476 Y8.5884 
G00 Z2.0000 
G00 X15.2476 Y8.5884 
G01 Z-0.1000 F254.00 
G01 X15.2476 Y6.6115 
G01 X15.2767 Y6.4276 
G01 X15.3342 Y6.2507 
G01 X15.4187 Y6.0848 
G01 X15.5281 Y5.9343 
G01 X15.6597 Y5.8027 
G01 X15.8102 Y5.6933 
G01 X15.9761 Y5.6088 
G01 X16.1530 Y5.5513 
G01 X16.3369 Y5.5222 
G01 X16.5230 Y5.5222 
G01 X16.7069 Y5.5513 
G01 X16.8838 Y5.6088 
G01 X17.0497 Y5.6933 
G01 X17.2002 Y5.8027 
G01 X17.3318 Y5.9343 
G01 X17.4412 Y6.0848 
G01 X17.5257 Y6.2507 
G01 X17.5832 Y6.4276 
G01 X17.6123 Y6.6115 
G01 X17.6123 Y8.5884 
G01 X17.5832 Y8.7723 
G01 X17.5257 Y8.9492 
G01 X17.4412 Y9.1151 
G01 X17.3318 Y9.2656 
G01 X17.2002 Y9.3972 
G01 X17.0497 Y9.5066 
G01 X16.8838 Y9.5911 
G01 X16.7069 Y9.6486 
G01 X16.5230 Y9.6777 
G01 X16.3369 Y9.6777 
G01 X16.1530 Y9.6486 
G01 X15.9761 Y9.5911 
G01 X15.8102 Y9.5066 
G01 X15.6597 Y9.3972 
G01 X15.5281 Y9.2656 
G01 X15.4187 Y9.1151 
G01 X15.3342 Y8.9492 
G01 X15.2767 Y8.7723 
G01 X15.2476 Y8.5884 
G00 Z2.0000 
G00 X5.6719 Y28.0991 
G01 Z-0.1000 F254.00 
G01 X4.4880 Y28.0991 
G01 X3.6508 Y27.2619 
G01 X3.6508 Y26.0780 
G01 X4.4880 Y25.2408 
G01 X5.6719 Y25.2408 
G01 X6.3499 Y25.9189 
G01 X7.0280 Y25.2408 
G01 X8.2119 Y25.2408 
G01 X9.0491 Y26.0780 
G01 X9.0491 Y27.2619 
G01 X8.2119 Y28.0991 
G01 X7.0280 Y28.0991 
G01 X6.3499 Y27.4210 
G01 X5.6719 Y28.0991 
G00 Z2.0000 
G00 X16.8469 Y19.6544 
G01 Z-0.1000 F254.00 
G01 X16.8469 Y20.9855 
G01 X15.9055 Y21.9269 
G01 X14.5744 Y21.9269 
G01 X13.6330 Y20.9855 
G01 X13.6330 Y19.6544 
G01 X14.5744 Y18.7130 
G01 X15.9055 Y18.7130 
G01 X16.8469 Y19.6544 
G00 Z2.0000 
G00 X9.2269 Y19.6544 
G01 Z-0.1000 F254.00 
G01 X9.2269 Y20.9855 
G01 X8.2855 Y21.9269 
G01 X6.9544 Y21.9269 
G01 X6.0130 Y20.9855 
G01 X6.0130 Y19.6544 
G01 X6.9544 Y18.7130 
G01 X8.2855 Y18.7130 
G01 X9.2269 Y19.6544 
G00 Z2.0000 
G00 X14.3069 Y14.5744 
G01 Z-0.1000 F254.00 
G01 X14.3069 Y15.9055 
G01 X13.3655 Y16.8469 
G01 X12.0344 Y16.8469 
G01 X11.0930 Y15.9055 
G01 X11.0930 Y14.5744 
G01 X12.0344 Y13.6330 
G01 X13.3655 Y13.6330 
G01 X14.3069 Y14.5744 
G00 Z2.0000 
G00 X6.6869 Y14.5744 
G01 Z-0.1000 F254.00 
G01 X6.6869 Y15.9055 
G01 X5.7455 Y16.8469 
G01 X4.4144 Y16.8469 
G01 X3.4730 Y15.9055 
G01 X3.4730 Y14.5744 
G01 X4.4144 Y13.6330 
G01 X5.7455 Y13.6330 
G01 X6.6869 Y14.5744 
G00 Z2.0000 
G00 X14.0648 Y27.6007 
G01 Z-0.1000 F254.00 
G01 X14.0648 Y25.7392 
G01 X14.0937 Y25.5565 
G01 X14.1509 Y25.3806 
G01 X14.2349 Y25.2158 
G01 X14.3436 Y25.0662 
G01 X14.4744 Y24.9354 
G01 X14.6240 Y24.8267 
G01 X14.7888 Y24.7427 
G01 X14.9647 Y24.6855 
G01 X15.1474 Y24.6566 
G01 X15.3325 Y24.6566 
G01 X15.5152 Y24.6855 
G01 X15.6911 Y24.7427 
G01 X15.8559 Y24.8267 
G01 X16.0055 Y24.9354 
G01 X16.1363 Y25.0662 
G01 X16.2450 Y25.2158 
G01 X16.3290 Y25.3806 
G01 X16.3862 Y25.5565 
G01 X16.4151 Y25.7392 
G01 X16.4151 Y27.6007 
G01 X16.3862 Y27.7834 
G01 X16.3290 Y27.9593 
G01 X16.2450 Y28.1241 
G01 X16.1363 Y28.2737 
G01 X16.0055 Y28.4045 
G01 X15.8559 Y28.5132 
G01 X15.6911 Y28.5972 
G01 X15.5152 Y28.6544 
G01 X15.3325 Y28.6833 
G01 X15.1474 Y28.6833 
G01 X14.9647 Y28.6544 
G01 X14.7888 Y28.5972 
G01 X14.6240 Y28.5132 
G01 X14.4744 Y28.4045 
G01 X14.3436 Y28.2737 
G01 X14.2349 Y28.1241 
G01 X14.1509 Y27.9593 
G01 X14.0937 Y27.7834 
G01 X14.0648 Y27.6007 
G00 Z2.0000 
G00 X16.6048 Y27.6007 
G01 Z-0.1000 F254.00 
G01 X16.6048 Y25.7392 
G01 X16.6337 Y25.5565 
G01 X16.6909 Y25.3806 
G01 X16.7749 Y25.2158 
G01 X16.8836 Y25.0662 
G01 X17.0144 Y24.9354 
G01 X17.1640 Y24.8267 
G01 X17.3288 Y24.7427 
G01 X17.5047 Y24.6855 
G01 X17.6874 Y24.6566 
G01 X17.8725 Y24.6566 
G01 X18.0552 Y24.6855 
G01 X18.2311 Y24.7427 
G01 X18.3959 Y24.8267 
G01 X18.5455 Y24.9354 
G01 X18.6763 Y25.0662 
G01 X18.7850 Y25.2158 
G01 X18.8690 Y25.3806 
G01 X18.9262 Y25.5565 
G01 X18.9551 Y25.7392 
G01 X18.9551 Y27.6007 
G01 X18.9262 Y27.7834 
G01 X18.8690 Y27.9593 
G01 X18.7850 Y28.1241 
G01 X18.6763 Y28.2737 
G01 X18.5455 Y28.4045 
G01 X18.3959 Y28.5132 
G01 X18.2311 Y28.5972 
G01 X18.0552 Y28.6544 
G01 X17.8725 Y28.6833 
G01 X17.6874 Y28.6833 
G01 X17.5047 Y28.6544 
G01 X17.3288 Y28.5972 
G01 X17.1640 Y28.5132 
G01 X17.0144 Y28.4045 
G01 X16.8836 Y28.2737 
G01 X16.7749 Y28.1241 
G01 X16.6909 Y27.9593 
G01 X16.6337 Y27.7834 
G01 X16.6048 Y27.6007 
G00 Z2.0000 
G00 X11.5248 Y27.6007 
G01 Z-0.1000 F254.00 
G01 X11.5248 Y25.7392 
G01 X11.5537 Y25.5565 
G01 X11.6109 Y25.3806 
G01 X11.6949 Y25.2158 
G01 X11.8036 Y25.0662 
G01 X11.9344 Y24.9354 
G01 X12.0840 Y24.8267 
G01 X12.2488 Y24.7427 
G01 X12.4247 Y24.6855 
G01 X12.6074 Y24.6566 
G01 X12.7925 Y24.6566 
G01 X12.9752 Y24.6855 
G01 X13.1511 Y24.7427 
G01 X13.3159 Y24.8267 
G01 X13.4655 Y24.9354 
G01 X13.5963 Y25.0662 
G01 X13.7050 Y25.2158 
G01 X13.7890 Y25.3806 
G01 X13.8462 Y25.5565 
G01 X13.8751 Y25.7392 
G01 X13.8751 Y27.6007 
G01 X13.8462 Y27.7834 
G01 X13.7890 Y27.9593 
G01 X13.7050 Y28.1241 
G01 X13.5963 Y28.2737 
G01 X13.4655 Y28.4045 
G01 X13.3159 Y28.5132 
G01 X13.1511 Y28.5972 
G01 X12.9752 Y28.6544 
G01 X12.7925 Y28.6833 
G01 X12.6074 Y28.6833 
G01 X12.4247 Y28.6544 
G01 X12.2488 Y28.5972 
G01 X12.0840 Y28.5132 
G01 X11.9344 Y28.4045 
G01 X11.8036 Y28.2737 
G01 X11.6949 Y28.1241 
G01 X11.6109 Y27.9593 
G01 X11.5537 Y27.7834 
G01 X11.5248 Y27.6007 
G00 Z2.0000 
G00 X5.1976 Y8.5924 
G01 Z-0.1000 F254.00 
G01 X5.1976 Y6.6075 
G01 X5.2279 Y6.4159 
G01 X5.2879 Y6.2315 
G01 X5.3759 Y6.0586 
G01 X5.4900 Y5.9017 
G01 X5.6271 Y5.7646 
G01 X5.7840 Y5.6505 
G01 X5.9569 Y5.5625 
G01 X6.1413 Y5.5025 
G01 X6.3329 Y5.4722 
G01 X6.5270 Y5.4722 
G01 X6.7186 Y5.5025 
G01 X6.9030 Y5.5625 
G01 X7.0759 Y5.6505 
G01 X7.2328 Y5.7646 
G01 X7.3699 Y5.9017 
G01 X7.4840 Y6.0586 
G01 X7.5720 Y6.2315 
G01 X7.6320 Y6.4159 
G01 X7.6623 Y6.6075 
G01 X7.6623 Y8.5924 
G01 X7.6320 Y8.7840 
G01 X7.5720 Y8.9684 
G01 X7.4840 Y9.1413 
G01 X7.3699 Y9.2982 
G01 X7.2328 Y9.4353 
G01 X7.0759 Y9.5494 
G01 X6.9030 Y9.6374 
G01 X6.7186 Y9.6974 
G01 X6.5270 Y9.7277 
G01 X6.3329 Y9.7277 
G01 X6.1413 Y9.6974 
G01 X5.9569 Y9.6374 
G01 X5.7840 Y9.5494 
G01 X5.6271 Y9.4353 
G01 X5.4900 Y9.2982 
G01 X5.3759 Y9.1413 
G01 X5.2879 Y8.9684 
G01 X5.2279 Y8.7840 
G01 X5.1976 Y8.5924 
G00 Z2.0000 
G00 X10.1976 Y8.5924 
G01 Z-0.1000 F254.00 
G01 X10.1976 Y6.6075 
G01 X10.2279 Y6.4159 
G01 X10.2879 Y6.2315 
G01 X10.3759 Y6.0586 
G01 X10.4900 Y5.9017 
G01 X10.6271 Y5.7646 
G01 X10.7840 Y5.6505 
G01 X10.9569 Y5.5625 
G01 X11.1413 Y5.5025 
G01 X11.3329 Y5.4722 
G01 X11.5270 Y5.4722 
G01 X11.7186 Y5.5025 
G01 X11.9030 Y5.5625 
G01 X12.0759 Y5.6505 
G01 X12.2328 Y5.7646 
G01 X12.3699 Y5.9017 
G01 X12.4840 Y6.0586 
G01 X12.5720 Y6.2315 
G01 X12.6320 Y6.4159 
G01 X12.6623 Y6.6075 
G01 X12.6623 Y8.5924 
G01 X12.6320 Y8.7840 
G01 X12.5720 Y8.9684 
G01 X12.4840 Y9.1413 
G01 X12.3699 Y9.2982 
G01 X12.2328 Y9.4353 
G01 X12.0759 Y9.5494 
G01 X11.9030 Y9.6374 
G01 X11.7186 Y9.6974 
G01 X11.5270 Y9.7277 
G01 X11.3329 Y9.7277 
G01 X11.1413 Y9.6974 
G01 X10.9569 Y9.6374 
G01 X10.7840 Y9.5494 
G01 X10.6271 Y9.4353 
G01 X10.4900 Y9.2982 
G01 X10.3759 Y9.1413 
G01 X10.2879 Y8.9684 
G01 X10.2279 Y8.7840 
G01 X10.1976 Y8.5924 
G00 Z2.0000 
G00 X15.1976 Y8.5924 
G01 Z-0.1000 F254.00 
G01 X15.1976 Y6.6075 
G01 X15.2279 Y6.4159 
G01 X15.2879 Y6.2315 
G01 X15.3759 Y6.0586 
G01 X15.4900 Y5.9017 
G01 X15.6271 Y5.7646 
G01 X15.7840 Y5.6505 
G01 X15.9569 Y5.5625 
G01 X16.1413 Y5.5025 
G01 X16.3329 Y5.4722 
G01 X16.5270 Y5.4722 
G01 X16.7186 Y5.5025 
G01 X16.9030 Y5.5625 
G01 X17.0759 Y5.6505 
G01 X17.2328 Y5.7646 
G01 X17.3699 Y5.9017 
G01 X17.4840 Y6.0586 
G01 X17.5720 Y6.2315 
G01 X17.6320 Y6.4159 
G01 X17.6623 Y6.6075 
G01 X17.6623 Y8.5924 
G01 X17.6320 Y8.7840 
G01 X17.5720 Y8.9684 
G01 X17.4840 Y9.1413 
G01 X17.3699 Y9.2982 
G01 X17.2328 Y9.4353 
G01 X17.0759 Y9.5494 
G01 X16.9030 Y9.6374 
G01 X16.7186 Y9.6974 
G01 X16.5270 Y9.7277 
G01 X16.3329 Y9.7277 
G01 X16.1413 Y9.6974 
G01 X15.9569 Y9.6374 
G01 X15.7840 Y9.5494 
G01 X15.6271 Y9.4353 
G01 X15.4900 Y9.2982 
G01 X15.3759 Y9.1413 
G01 X15.2879 Y8.9684 
G01 X15.2279 Y8.7840 
G01 X15.1976 Y8.5924 
(File Footer)
G00 Z2.0000 
G00 Z10.0000 
M05
M02
