( This gcode generated by /home/mattvenn/.eagle/ulp/pcb-gcode.ulp )
( Copyright 2005 by John Johnson. See readme.txt for licensing terms. )

( This file generated from the board /home/mattvenn/eagle-circuit-designs/pcb miller test/untitled.brd )
( This file generated 19/12/2011 15:21 )

( T01 0.600000 )
( T02 0.812800 )
( T03 1.193800 )
G21

G90
M05
G00 X0.0000 Y0.0000 Z10.0000 
M06 T01  ; 0.6000 
G00 Z2.0000 
M03
G04 P3.000000
G82 X-2.5400 Y2.5400 Z-2.0000 F127.00 R2.0000 P1.000000
G82 X-2.5400 Y30.4800 
G82 X-20.3200 Y2.5400 
G82 X-20.3200 Y30.4800 
M05
G00 X0.0000 Y0.0000 Z10.0000 
M06 T02  ; 0.8128 
G00 Z2.0000 
M03
G04 P3.000000
G82 X-5.0800 Y15.2400 Z-2.0000 F127.00 R2.0000 P1.000000
G82 X-5.0800 Y26.6700 
G82 X-7.6200 Y20.3200 
G82 X-7.6200 Y26.6700 
G82 X-12.7000 Y15.2400 
G82 X-12.7000 Y26.6700 
G82 X-15.2400 Y20.3200 
G82 X-15.2400 Y26.6700 
G82 X-17.7800 Y26.6700 
M05
G00 X0.0000 Y0.0000 Z10.0000 
M06 T03  ; 1.1938 
G00 Z2.0000 
M03
G04 P3.000000
G82 X-6.4300 Y7.6000 Z-2.0000 F127.00 R2.0000 P1.000000
G82 X-11.4300 Y7.6000 
G82 X-16.4300 Y7.6000 
(File Footer)
T01 
G00 Z10.0000 
M05
M02
