;PYCAM-META-DATA: Filename: None
;PYCAM-META-DATA: Timestamp: 2012-04-13 18:09:16.989612
;PYCAM-META-DATA: Version: 0.5.1
;Estimated machine time: 4 minutes
G40 (disable tool radius compensation)
G49 (disable tool length compensation)
G80 (cancel modal motion)
G54 (select coordinate system 1)
G90 (disable incremental moves)
G21 (metric)
G61 (exact path mode)
F600.00000
S1000.00000
;PYCAM_TOOLPATH_SETTINGS: START
;[Bounds]
;maxz = 0.0
;maxx = 208.55484992
;maxy = 34.65
;minx = -33.45109952
;miny = -4.3565104
;minz = -3.4
;
;[Tool]
;torus_radius = 0.25
;speed = 1000.0
;shape = CylindricalCutter
;tool_radius = 1.5
;feedrate = 600.0
;
;[Process]
;engrave_offset = 1.5
;step_down = 1.7
;generator = EngraveCutter
;postprocessor = SimpleCutter
;milling_style = conventional
;material_allowance = 0.0
;pocketing_type = none
;path_direction = x
;
;PYCAM_TOOLPATH_SETTINGS: END
T1 M6
G0 Z2.0000
M3 (start spindle)
G04 P3 (wait for 3 seconds)
 X-1.5000 Y31.5038
G1 Z-1.7000
 Y3.5007
 X8.5015
 Y-1.5000
 X166.5032
 Y3.5007
 X176.5042
 Y31.5038
 X163.5032
 Y24.0449
 X163.4880 Y23.7469
 X163.4502 Y23.4963
 X163.3897 Y23.2590
 X163.3058 Y23.0302
 X163.2005 Y22.8108
 X163.0766 Y22.6062
 X162.9323 Y22.4138
 X162.7710 Y22.2361
 X162.5923 Y22.0743
 X162.3981 Y21.9289
 X162.1935 Y21.8044
 X161.9764 Y21.7000
 X161.7478 Y21.6164
 X161.5082 Y21.5551
 X161.2575 Y21.5171
 X160.9992 Y21.5041
 X160.7399 Y21.5171
 X160.4903 Y21.5550
 X160.2526 Y21.6161
 X160.0239 Y21.6997
 X159.8077 Y21.8039
 X159.6024 Y21.9289
 X159.4092 Y22.0735
 X159.2325 Y22.2341
 X159.0731 Y22.4103
 X158.9295 Y22.6036
 X158.8059 Y22.8078
 X158.7019 Y23.0269
 X158.6174 Y23.2573
 X158.5571 Y23.4963
 X158.5187 Y23.7470
 X158.5042 Y24.0431
 Y31.5038
 X147.5042
 Y24.0449
 X147.4889 Y23.7451
 X147.4520 Y23.4963
 X147.3913 Y23.2608
 X147.3068 Y23.0302
 X147.2015 Y22.8108
 X147.0768 Y22.6049
 X146.9341 Y22.4138
 X146.7713 Y22.2351
 X146.5932 Y22.0727
 X146.4027 Y21.9302
 X146.1963 Y21.8053
 X145.9774 Y21.7000
 X145.7479 Y21.6161
 X145.5102 Y21.5550
 X145.2606 Y21.5171
 X145.0012 Y21.5040
 X144.7414 Y21.5171
 X144.4938 Y21.5549
 X144.2556 Y21.6161
 X144.0261 Y21.7000
 X143.8090 Y21.8044
 X143.6054 Y21.9283
 X143.4131 Y22.0727
 X143.2344 Y22.2351
 X143.0743 Y22.4115
 X142.9315 Y22.6036
 X142.8070 Y22.8093
 X142.7023 Y23.0286
 X142.6184 Y23.2573
 X142.5581 Y23.4963
 X142.5194 Y23.7488
 X142.5042 Y24.0449
 Y31.5038
 X131.4972
 Y24.0449
 X131.4820 Y23.7469
 X131.4442 Y23.4963
 X131.3832 Y23.2573
 X131.2994 Y23.0269
 X131.1955 Y22.8093
 X131.0710 Y22.6036
 X130.9282 Y22.4115
 X130.7672 Y22.2341
 X130.5894 Y22.0719
 X130.3989 Y21.9289
 X130.1937 Y21.8044
 X129.9766 Y21.6997
 X129.7479 Y21.6161
 X129.5100 Y21.5549
 X129.2613 Y21.5171
 X129.0022 Y21.5041
 X128.7429 Y21.5171
 X128.4928 Y21.5551
 X128.2542 Y21.6163
 X128.0251 Y21.7000
 X127.8071 Y21.8048
 X127.6016 Y21.9296
 X127.4092 Y22.0735
 X127.2304 Y22.2361
 X127.0684 Y22.4138
 X126.9257 Y22.6049
 X126.8001 Y22.8122
 X126.6949 Y23.0302
 X126.6116 Y23.2590
 X126.5500 Y23.4981
 X126.5125 Y23.7469
 X126.4972 Y24.0449
 Y31.5038
 X115.4992
 Y24.0431
 X115.4848 Y23.7470
 X115.4467 Y23.4981
 X115.3848 Y23.2556
 X115.3022 Y23.0269
 X115.1985 Y22.8108
 X115.0730 Y22.6036
 X114.9294 Y22.4103
 X114.7700 Y22.2341
 X114.5924 Y22.0727
 X114.4009 Y21.9289
 X114.1957 Y21.8044
 X113.9786 Y21.6997
 X113.7503 Y21.6163
 X113.5114 Y21.5550
 X113.2623 Y21.5171
 X113.0032 Y21.5041
 X112.7442 Y21.5171
 X112.4951 Y21.5550
 X112.2562 Y21.6163
 X112.0263 Y21.7003
 X111.8083 Y21.8048
 X111.6034 Y21.9296
 X111.4093 Y22.0743
 X111.2324 Y22.2351
 X111.0712 Y22.4126
 X110.9277 Y22.6049
 X110.8021 Y22.8122
 X110.6969 Y23.0302
 X110.6143 Y23.2573
 X110.5528 Y23.4981
 X110.5147 Y23.7470
 X110.5002 Y24.0431
 Y31.5038
 X99.5002
 Y24.0449
 X99.4850 Y23.7469
 X99.4472 Y23.4963
 X99.3862 Y23.2573
 X99.3024 Y23.0269
 X99.1985 Y22.8093
 X99.0740 Y22.6036
 X98.9308 Y22.4109
 X98.7705 Y22.2340
 X98.5931 Y22.0724
 X98.4014 Y21.9286
 X98.1971 Y21.8043
 X97.9796 Y21.6997
 X97.7515 Y21.6161
 X97.5132 Y21.5550
 X97.2644 Y21.5171
 X97.0053 Y21.5041
 X96.7461 Y21.5171
 X96.4969 Y21.5550
 X96.2578 Y21.6163
 X96.0287 Y21.7000
 X95.8105 Y21.8050
 X95.6048 Y21.9297
 X95.4120 Y22.0739
 X95.2339 Y22.2356
 X95.0726 Y22.4131
 X94.9287 Y22.6057
 X94.8038 Y22.8117
 X94.6989 Y23.0299
 X94.6151 Y23.2590
 X94.5538 Y23.4981
 X94.5160 Y23.7471
 X94.5010 Y24.0442
 Y31.5038
 X83.5014
 Y24.0442
 X83.4865 Y23.7473
 X83.4486 Y23.4979
 X83.3874 Y23.2587
 X83.3037 Y23.0299
 X83.1988 Y22.8115
 X83.0738 Y22.6053
 X82.9302 Y22.4130
 X82.7687 Y22.2353
 X82.5909 Y22.0736
 X82.3983 Y21.9297
 X82.1926 Y21.8048
 X81.9746 Y21.7000
 X81.7456 Y21.6163
 X81.5065 Y21.5550
 X81.2573 Y21.5171
 X80.9981 Y21.5041
 X80.7390 Y21.5171
 X80.4903 Y21.5550
 X80.2521 Y21.6161
 X80.0237 Y21.6997
 X79.8065 Y21.8043
 X79.6020 Y21.9287
 X79.4102 Y22.0725
 X79.2331 Y22.2338
 X79.0727 Y22.4110
 X78.9295 Y22.6034
 X78.8049 Y22.8096
 X78.7005 Y23.0276
 X78.6171 Y23.2571
 X78.5559 Y23.4968
 X78.5182 Y23.7462
 X78.5033 Y24.0438
 Y31.5038
 X67.5037
 Y24.0444
 X67.4888 Y23.7475
 X67.4508 Y23.4981
 X67.3895 Y23.2589
 X67.3058 Y23.0299
 X67.2009 Y22.8117
 X67.0760 Y22.6057
 X66.9322 Y22.4132
 X66.7708 Y22.2356
 X66.5927 Y22.0739
 X66.3999 Y21.9297
 X66.1942 Y21.8050
 X65.9759 Y21.7000
 X65.7468 Y21.6163
 X65.5077 Y21.5550
 X65.2586 Y21.5171
 X64.9993 Y21.5041
 X64.7401 Y21.5171
 X64.4914 Y21.5550
 X64.2530 Y21.6162
 X64.0247 Y21.6997
 X63.8074 Y21.8043
 X63.6029 Y21.9287
 X63.4113 Y22.0724
 X63.2341 Y22.2338
 X63.0735 Y22.4112
 X62.9301 Y22.6037
 X62.8057 Y22.8096
 X62.7013 Y23.0276
 X62.6179 Y23.2570
 X62.5567 Y23.4968
 X62.5189 Y23.7464
 X62.5041 Y24.0438
 Y31.5038
 X51.5048
 Y24.0442
 X51.4899 Y23.7471
 X51.4521 Y23.4981
 X51.3907 Y23.2589
 X51.3070 Y23.0296
 X51.2022 Y22.8115
 X51.0773 Y22.6056
 X50.9334 Y22.4129
 X50.7722 Y22.2353
 X50.5942 Y22.0736
 X50.4017 Y21.9297
 X50.1961 Y21.8049
 X49.9779 Y21.7000
 X49.7489 Y21.6163
 X49.5099 Y21.5550
 X49.2608 Y21.5171
 X49.0015 Y21.5041
 X48.7423 Y21.5171
 X48.4931 Y21.5550
 X48.2538 Y21.6163
 X48.0246 Y21.7001
 X47.8065 Y21.8050
 X47.6007 Y21.9298
 X47.4081 Y22.0737
 X47.2300 Y22.2356
 X47.0683 Y22.4134
 X46.9245 Y22.6058
 X46.7995 Y22.8118
 X46.6947 Y23.0297
 X46.6111 Y23.2589
 X46.5497 Y23.4983
 X46.5117 Y23.7475
 X46.4967 Y24.0444
 Y31.5038
 X35.4976
 Y24.0442
 X35.4827 Y23.7468
 X35.4448 Y23.4968
 X35.3837 Y23.2570
 X35.3004 Y23.0279
 X35.1957 Y22.8096
 X35.0712 Y22.6033
 X34.9282 Y22.4112
 X34.7675 Y22.2338
 X34.5904 Y22.0725
 X34.3987 Y21.9288
 X34.1940 Y21.8043
 X33.9769 Y21.6997
 X33.7487 Y21.6162
 X33.5103 Y21.5550
 X33.2614 Y21.5171
 X33.0023 Y21.5041
 X32.7430 Y21.5171
 X32.4938 Y21.5550
 X32.2547 Y21.6163
 X32.0255 Y21.7000
 X31.8073 Y21.8050
 X31.6016 Y21.9297
 X31.4092 Y22.0736
 X31.2309 Y22.2356
 X31.0693 Y22.4133
 X30.9256 Y22.6057
 X30.8007 Y22.8117
 X30.6958 Y23.0297
 X30.6122 Y23.2589
 X30.5508 Y23.4983
 X30.5129 Y23.7471
 X30.4980 Y24.0440
 Y31.5038
 X19.4998
 Y24.0442
 X19.4849 Y23.7466
 X19.4472 Y23.4970
 X19.3859 Y23.2575
 X19.3025 Y23.0281
 X19.1979 Y22.8099
 X19.0734 Y22.6038
 X18.9299 Y22.4113
 X18.7693 Y22.2339
 X18.5922 Y22.0727
 X18.4004 Y21.9289
 X18.1954 Y21.8043
 X17.9782 Y21.6997
 X17.7499 Y21.6162
 X17.5114 Y21.5550
 X17.2626 Y21.5171
 X17.0035 Y21.5041
 X16.7442 Y21.5171
 X16.4950 Y21.5550
 X16.2561 Y21.6163
 X16.0270 Y21.7000
 X15.8089 Y21.8049
 X15.6032 Y21.9297
 X15.4108 Y22.0736
 X15.2329 Y22.2353
 X15.0714 Y22.4130
 X14.9277 Y22.6054
 X14.8028 Y22.8115
 X14.6980 Y23.0296
 X14.6143 Y23.2587
 X14.5530 Y23.4981
 X14.5151 Y23.7471
 X14.5002 Y24.0440
 Y31.5038
 X-1.5000
 Y3.5006
 X8.5015
 Y-1.5000
 X166.5032
 Y3.5006
 X176.5042
 Y31.5038
 X163.5032
 Y24.0449
 X163.4880 Y23.7469
 X163.4502 Y23.4963
 X163.3897 Y23.2590
 X163.3058 Y23.0302
 X163.2005 Y22.8108
 X163.0766 Y22.6062
 X162.9323 Y22.4138
 X162.7710 Y22.2361
 X162.5923 Y22.0743
 X162.3981 Y21.9289
 X162.1935 Y21.8044
 X161.9764 Y21.7000
 X161.7478 Y21.6164
 X161.5082 Y21.5551
 X161.2575 Y21.5171
 X160.9992 Y21.5041
 X160.7399 Y21.5171
 X160.4903 Y21.5550
 X160.2526 Y21.6161
 X160.0239 Y21.6997
 X159.8077 Y21.8039
 X159.6024 Y21.9289
 X159.4092 Y22.0735
 X159.2325 Y22.2341
 X159.0731 Y22.4103
 X158.9295 Y22.6036
 X158.8059 Y22.8078
 X158.7019 Y23.0269
 X158.6174 Y23.2573
 X158.5571 Y23.4963
 X158.5187 Y23.7470
 X158.5042 Y24.0431
 Y31.5038
 X147.5042
 Y24.0449
 X147.4889 Y23.7451
 X147.4520 Y23.4963
 X147.3913 Y23.2608
 X147.3068 Y23.0302
 X147.2015 Y22.8108
 X147.0768 Y22.6049
 X146.9341 Y22.4138
 X146.7713 Y22.2351
 X146.5932 Y22.0727
 X146.4027 Y21.9302
 X146.1963 Y21.8053
 X145.9774 Y21.7000
 X145.7479 Y21.6161
 X145.5102 Y21.5550
 X145.2606 Y21.5171
 X145.0012 Y21.5040
 X144.7414 Y21.5171
 X144.4938 Y21.5549
 X144.2556 Y21.6161
 X144.0261 Y21.7000
 X143.8090 Y21.8044
 X143.6054 Y21.9283
 X143.4131 Y22.0727
 X143.2344 Y22.2351
 X143.0743 Y22.4115
 X142.9315 Y22.6036
 X142.8070 Y22.8093
 X142.7023 Y23.0286
 X142.6184 Y23.2573
 X142.5581 Y23.4963
 X142.5194 Y23.7488
 X142.5042 Y24.0449
 Y31.5038
 X131.4972
 Y24.0449
 X131.4820 Y23.7469
 X131.4442 Y23.4963
 X131.3832 Y23.2573
 X131.2994 Y23.0269
 X131.1955 Y22.8093
 X131.0710 Y22.6036
 X130.9282 Y22.4115
 X130.7672 Y22.2341
 X130.5894 Y22.0719
 X130.3989 Y21.9289
 X130.1937 Y21.8044
 X129.9766 Y21.6997
 X129.7479 Y21.6161
 X129.5100 Y21.5549
 X129.2613 Y21.5171
 X129.0022 Y21.5041
 X128.7429 Y21.5171
 X128.4928 Y21.5551
 X128.2542 Y21.6163
 X128.0251 Y21.7000
 X127.8071 Y21.8048
 X127.6016 Y21.9296
 X127.4092 Y22.0735
 X127.2304 Y22.2361
 X127.0684 Y22.4138
 X126.9257 Y22.6049
 X126.8001 Y22.8122
 X126.6949 Y23.0302
 X126.6116 Y23.2590
 X126.5500 Y23.4981
 X126.5125 Y23.7469
 X126.4972 Y24.0449
 Y31.5038
 X115.4992
 Y24.0431
 X115.4848 Y23.7470
 X115.4467 Y23.4981
 X115.3848 Y23.2556
 X115.3022 Y23.0269
 X115.1985 Y22.8108
 X115.0730 Y22.6036
 X114.9294 Y22.4103
 X114.7700 Y22.2341
 X114.5924 Y22.0727
 X114.4009 Y21.9289
 X114.1957 Y21.8044
 X113.9786 Y21.6997
 X113.7503 Y21.6163
 X113.5114 Y21.5550
 X113.2623 Y21.5171
 X113.0032 Y21.5041
 X112.7442 Y21.5171
 X112.4951 Y21.5550
 X112.2562 Y21.6163
 X112.0263 Y21.7003
 X111.8083 Y21.8048
 X111.6034 Y21.9296
 X111.4093 Y22.0743
 X111.2324 Y22.2351
 X111.0712 Y22.4126
 X110.9277 Y22.6049
 X110.8021 Y22.8122
 X110.6969 Y23.0302
 X110.6143 Y23.2573
 X110.5528 Y23.4981
 X110.5147 Y23.7470
 X110.5002 Y24.0431
 Y31.5038
 X99.5002
 Y24.0449
 X99.4850 Y23.7469
 X99.4472 Y23.4963
 X99.3862 Y23.2573
 X99.3024 Y23.0269
 X99.1985 Y22.8093
 X99.0740 Y22.6036
 X98.9308 Y22.4109
 X98.7705 Y22.2340
 X98.5931 Y22.0724
 X98.4014 Y21.9286
 X98.1971 Y21.8043
 X97.9796 Y21.6997
 X97.7515 Y21.6161
 X97.5132 Y21.5550
 X97.2644 Y21.5171
 X97.0053 Y21.5041
 X96.7461 Y21.5171
 X96.4969 Y21.5550
 X96.2578 Y21.6163
 X96.0287 Y21.7000
 X95.8105 Y21.8050
 X95.6048 Y21.9297
 X95.4120 Y22.0739
 X95.2339 Y22.2356
 X95.0726 Y22.4131
 X94.9287 Y22.6057
 X94.8038 Y22.8117
 X94.6989 Y23.0299
 X94.6151 Y23.2590
 X94.5538 Y23.4981
 X94.5160 Y23.7471
 X94.5010 Y24.0442
 Y31.5038
 X83.5014
 Y24.0442
 X83.4865 Y23.7473
 X83.4486 Y23.4979
 X83.3874 Y23.2587
 X83.3037 Y23.0299
 X83.1988 Y22.8115
 X83.0738 Y22.6053
 X82.9302 Y22.4130
 X82.7687 Y22.2353
 X82.5909 Y22.0736
 X82.3983 Y21.9297
 X82.1926 Y21.8048
 X81.9746 Y21.7000
 X81.7456 Y21.6163
 X81.5065 Y21.5550
 X81.2573 Y21.5171
 X80.9981 Y21.5041
 X80.7390 Y21.5171
 X80.4903 Y21.5550
 X80.2521 Y21.6161
 X80.0237 Y21.6997
 X79.8065 Y21.8043
 X79.6020 Y21.9287
 X79.4102 Y22.0725
 X79.2331 Y22.2338
 X79.0727 Y22.4110
 X78.9295 Y22.6034
 X78.8049 Y22.8096
 X78.7005 Y23.0276
 X78.6171 Y23.2571
 X78.5559 Y23.4968
 X78.5182 Y23.7462
 X78.5033 Y24.0438
 Y31.5038
 X67.5037
 Y24.0444
 X67.4888 Y23.7475
 X67.4508 Y23.4981
 X67.3895 Y23.2589
 X67.3058 Y23.0299
 X67.2009 Y22.8117
 X67.0760 Y22.6057
 X66.9322 Y22.4132
 X66.7708 Y22.2356
 X66.5927 Y22.0739
 X66.3999 Y21.9297
 X66.1942 Y21.8050
 X65.9759 Y21.7000
 X65.7468 Y21.6163
 X65.5077 Y21.5550
 X65.2586 Y21.5171
 X64.9993 Y21.5041
 X64.7401 Y21.5171
 X64.4914 Y21.5550
 X64.2530 Y21.6162
 X64.0247 Y21.6997
 X63.8074 Y21.8043
 X63.6029 Y21.9287
 X63.4113 Y22.0724
 X63.2341 Y22.2338
 X63.0735 Y22.4112
 X62.9301 Y22.6037
 X62.8057 Y22.8096
 X62.7013 Y23.0276
 X62.6179 Y23.2570
 X62.5567 Y23.4968
 X62.5189 Y23.7464
 X62.5041 Y24.0438
 Y31.5038
 X51.5048
 Y24.0442
 X51.4899 Y23.7471
 X51.4521 Y23.4981
 X51.3907 Y23.2589
 X51.3070 Y23.0296
 X51.2022 Y22.8115
 X51.0773 Y22.6056
 X50.9334 Y22.4129
 X50.7722 Y22.2353
 X50.5942 Y22.0736
 X50.4017 Y21.9297
 X50.1961 Y21.8049
 X49.9779 Y21.7000
 X49.7489 Y21.6163
 X49.5099 Y21.5550
 X49.2608 Y21.5171
 X49.0015 Y21.5041
 X48.7423 Y21.5171
 X48.4931 Y21.5550
 X48.2538 Y21.6163
 X48.0246 Y21.7001
 X47.8065 Y21.8050
 X47.6007 Y21.9298
 X47.4081 Y22.0737
 X47.2300 Y22.2356
 X47.0683 Y22.4134
 X46.9245 Y22.6058
 X46.7995 Y22.8118
 X46.6947 Y23.0297
 X46.6111 Y23.2589
 X46.5497 Y23.4983
 X46.5117 Y23.7475
 X46.4967 Y24.0444
 Y31.5038
 X35.4976
 Y24.0442
 X35.4827 Y23.7468
 X35.4448 Y23.4968
 X35.3837 Y23.2570
 X35.3004 Y23.0279
 X35.1957 Y22.8096
 X35.0712 Y22.6033
 X34.9282 Y22.4112
 X34.7675 Y22.2338
 X34.5904 Y22.0725
 X34.3987 Y21.9288
 X34.1940 Y21.8043
 X33.9769 Y21.6997
 X33.7487 Y21.6162
 X33.5103 Y21.5550
 X33.2614 Y21.5171
 X33.0023 Y21.5041
 X32.7430 Y21.5171
 X32.4938 Y21.5550
 X32.2547 Y21.6163
 X32.0255 Y21.7000
 X31.8073 Y21.8050
 X31.6016 Y21.9297
 X31.4092 Y22.0736
 X31.2309 Y22.2356
 X31.0693 Y22.4133
 X30.9256 Y22.6057
 X30.8007 Y22.8117
 X30.6958 Y23.0297
 X30.6122 Y23.2589
 X30.5508 Y23.4983
 X30.5129 Y23.7471
 X30.4980 Y24.0440
 Y31.5038
 X19.4998
 Y24.0442
 X19.4849 Y23.7466
 X19.4472 Y23.4970
 X19.3859 Y23.2575
 X19.3025 Y23.0281
 X19.1979 Y22.8099
 X19.0734 Y22.6038
 X18.9299 Y22.4113
 X18.7693 Y22.2339
 X18.5922 Y22.0727
 X18.4004 Y21.9289
 X18.1954 Y21.8043
 X17.9782 Y21.6997
 X17.7499 Y21.6162
 X17.5114 Y21.5550
 X17.2626 Y21.5171
 X17.0035 Y21.5041
 X16.7442 Y21.5171
 X16.4950 Y21.5550
 X16.2561 Y21.6163
 X16.0270 Y21.7000
 X15.8089 Y21.8049
 X15.6032 Y21.9297
 X15.4108 Y22.0736
 X15.2329 Y22.2353
 X15.0714 Y22.4130
 X14.9277 Y22.6054
 X14.8028 Y22.8115
 X14.6980 Y23.0296
 X14.6143 Y23.2587
 X14.5530 Y23.4981
 X14.5151 Y23.7471
 X14.5002 Y24.0440
 Y31.5038
 X-1.5000
 Z-3.4000
 Y3.5007
 X8.5015
 Y-1.5000
 X166.5032
 Y3.5007
 X176.5042
 Y31.5038
 X163.5032
 Y24.0449
 X163.4880 Y23.7469
 X163.4502 Y23.4963
 X163.3897 Y23.2590
 X163.3058 Y23.0302
 X163.2005 Y22.8108
 X163.0766 Y22.6062
 X162.9323 Y22.4138
 X162.7710 Y22.2361
 X162.5923 Y22.0743
 X162.3981 Y21.9289
 X162.1935 Y21.8044
 X161.9764 Y21.7000
 X161.7478 Y21.6164
 X161.5082 Y21.5551
 X161.2575 Y21.5171
 X160.9992 Y21.5041
 X160.7399 Y21.5171
 X160.4903 Y21.5550
 X160.2526 Y21.6161
 X160.0239 Y21.6997
 X159.8077 Y21.8039
 X159.6024 Y21.9289
 X159.4092 Y22.0735
 X159.2325 Y22.2341
 X159.0731 Y22.4103
 X158.9295 Y22.6036
 X158.8059 Y22.8078
 X158.7019 Y23.0269
 X158.6174 Y23.2573
 X158.5571 Y23.4963
 X158.5187 Y23.7470
 X158.5042 Y24.0431
 Y31.5038
 X147.5042
 Y24.0449
 X147.4889 Y23.7451
 X147.4520 Y23.4963
 X147.3913 Y23.2608
 X147.3068 Y23.0302
 X147.2015 Y22.8108
 X147.0768 Y22.6049
 X146.9341 Y22.4138
 X146.7713 Y22.2351
 X146.5932 Y22.0727
 X146.4027 Y21.9302
 X146.1963 Y21.8053
 X145.9774 Y21.7000
 X145.7479 Y21.6161
 X145.5102 Y21.5550
 X145.2606 Y21.5171
 X145.0012 Y21.5040
 X144.7414 Y21.5171
 X144.4938 Y21.5549
 X144.2556 Y21.6161
 X144.0261 Y21.7000
 X143.8090 Y21.8044
 X143.6054 Y21.9283
 X143.4131 Y22.0727
 X143.2344 Y22.2351
 X143.0743 Y22.4115
 X142.9315 Y22.6036
 X142.8070 Y22.8093
 X142.7023 Y23.0286
 X142.6184 Y23.2573
 X142.5581 Y23.4963
 X142.5194 Y23.7488
 X142.5042 Y24.0449
 Y31.5038
 X131.4972
 Y24.0449
 X131.4820 Y23.7469
 X131.4442 Y23.4963
 X131.3832 Y23.2573
 X131.2994 Y23.0269
 X131.1955 Y22.8093
 X131.0710 Y22.6036
 X130.9282 Y22.4115
 X130.7672 Y22.2341
 X130.5894 Y22.0719
 X130.3989 Y21.9289
 X130.1937 Y21.8044
 X129.9766 Y21.6997
 X129.7479 Y21.6161
 X129.5100 Y21.5549
 X129.2613 Y21.5171
 X129.0022 Y21.5041
 X128.7429 Y21.5171
 X128.4928 Y21.5551
 X128.2542 Y21.6163
 X128.0251 Y21.7000
 X127.8071 Y21.8048
 X127.6016 Y21.9296
 X127.4092 Y22.0735
 X127.2304 Y22.2361
 X127.0684 Y22.4138
 X126.9257 Y22.6049
 X126.8001 Y22.8122
 X126.6949 Y23.0302
 X126.6116 Y23.2590
 X126.5500 Y23.4981
 X126.5125 Y23.7469
 X126.4972 Y24.0449
 Y31.5038
 X115.4992
 Y24.0431
 X115.4848 Y23.7470
 X115.4467 Y23.4981
 X115.3848 Y23.2556
 X115.3022 Y23.0269
 X115.1985 Y22.8108
 X115.0730 Y22.6036
 X114.9294 Y22.4103
 X114.7700 Y22.2341
 X114.5924 Y22.0727
 X114.4009 Y21.9289
 X114.1957 Y21.8044
 X113.9786 Y21.6997
 X113.7503 Y21.6163
 X113.5114 Y21.5550
 X113.2623 Y21.5171
 X113.0032 Y21.5041
 X112.7442 Y21.5171
 X112.4951 Y21.5550
 X112.2562 Y21.6163
 X112.0263 Y21.7003
 X111.8083 Y21.8048
 X111.6034 Y21.9296
 X111.4093 Y22.0743
 X111.2324 Y22.2351
 X111.0712 Y22.4126
 X110.9277 Y22.6049
 X110.8021 Y22.8122
 X110.6969 Y23.0302
 X110.6143 Y23.2573
 X110.5528 Y23.4981
 X110.5147 Y23.7470
 X110.5002 Y24.0431
 Y31.5038
 X99.5002
 Y24.0449
 X99.4850 Y23.7469
 X99.4472 Y23.4963
 X99.3862 Y23.2573
 X99.3024 Y23.0269
 X99.1985 Y22.8093
 X99.0740 Y22.6036
 X98.9308 Y22.4109
 X98.7705 Y22.2340
 X98.5931 Y22.0724
 X98.4014 Y21.9286
 X98.1971 Y21.8043
 X97.9796 Y21.6997
 X97.7515 Y21.6161
 X97.5132 Y21.5550
 X97.2644 Y21.5171
 X97.0053 Y21.5041
 X96.7461 Y21.5171
 X96.4969 Y21.5550
 X96.2578 Y21.6163
 X96.0287 Y21.7000
 X95.8105 Y21.8050
 X95.6048 Y21.9297
 X95.4120 Y22.0739
 X95.2339 Y22.2356
 X95.0726 Y22.4131
 X94.9287 Y22.6057
 X94.8038 Y22.8117
 X94.6989 Y23.0299
 X94.6151 Y23.2590
 X94.5538 Y23.4981
 X94.5160 Y23.7471
 X94.5010 Y24.0442
 Y31.5038
 X83.5014
 Y24.0442
 X83.4865 Y23.7473
 X83.4486 Y23.4979
 X83.3874 Y23.2587
 X83.3037 Y23.0299
 X83.1988 Y22.8115
 X83.0738 Y22.6053
 X82.9302 Y22.4130
 X82.7687 Y22.2353
 X82.5909 Y22.0736
 X82.3983 Y21.9297
 X82.1926 Y21.8048
 X81.9746 Y21.7000
 X81.7456 Y21.6163
 X81.5065 Y21.5550
 X81.2573 Y21.5171
 X80.9981 Y21.5041
 X80.7390 Y21.5171
 X80.4903 Y21.5550
 X80.2521 Y21.6161
 X80.0237 Y21.6997
 X79.8065 Y21.8043
 X79.6020 Y21.9287
 X79.4102 Y22.0725
 X79.2331 Y22.2338
 X79.0727 Y22.4110
 X78.9295 Y22.6034
 X78.8049 Y22.8096
 X78.7005 Y23.0276
 X78.6171 Y23.2571
 X78.5559 Y23.4968
 X78.5182 Y23.7462
 X78.5033 Y24.0438
 Y31.5038
 X67.5037
 Y24.0444
 X67.4888 Y23.7475
 X67.4508 Y23.4981
 X67.3895 Y23.2589
 X67.3058 Y23.0299
 X67.2009 Y22.8117
 X67.0760 Y22.6057
 X66.9322 Y22.4132
 X66.7708 Y22.2356
 X66.5927 Y22.0739
 X66.3999 Y21.9297
 X66.1942 Y21.8050
 X65.9759 Y21.7000
 X65.7468 Y21.6163
 X65.5077 Y21.5550
 X65.2586 Y21.5171
 X64.9993 Y21.5041
 X64.7401 Y21.5171
 X64.4914 Y21.5550
 X64.2530 Y21.6162
 X64.0247 Y21.6997
 X63.8074 Y21.8043
 X63.6029 Y21.9287
 X63.4113 Y22.0724
 X63.2341 Y22.2338
 X63.0735 Y22.4112
 X62.9301 Y22.6037
 X62.8057 Y22.8096
 X62.7013 Y23.0276
 X62.6179 Y23.2570
 X62.5567 Y23.4968
 X62.5189 Y23.7464
 X62.5041 Y24.0438
 Y31.5038
 X51.5048
 Y24.0442
 X51.4899 Y23.7471
 X51.4521 Y23.4981
 X51.3907 Y23.2589
 X51.3070 Y23.0296
 X51.2022 Y22.8115
 X51.0773 Y22.6056
 X50.9334 Y22.4129
 X50.7722 Y22.2353
 X50.5942 Y22.0736
 X50.4017 Y21.9297
 X50.1961 Y21.8049
 X49.9779 Y21.7000
 X49.7489 Y21.6163
 X49.5099 Y21.5550
 X49.2608 Y21.5171
 X49.0015 Y21.5041
 X48.7423 Y21.5171
 X48.4931 Y21.5550
 X48.2538 Y21.6163
 X48.0246 Y21.7001
 X47.8065 Y21.8050
 X47.6007 Y21.9298
 X47.4081 Y22.0737
 X47.2300 Y22.2356
 X47.0683 Y22.4134
 X46.9245 Y22.6058
 X46.7995 Y22.8118
 X46.6947 Y23.0297
 X46.6111 Y23.2589
 X46.5497 Y23.4983
 X46.5117 Y23.7475
 X46.4967 Y24.0444
 Y31.5038
 X35.4976
 Y24.0442
 X35.4827 Y23.7468
 X35.4448 Y23.4968
 X35.3837 Y23.2570
 X35.3004 Y23.0279
 X35.1957 Y22.8096
 X35.0712 Y22.6033
 X34.9282 Y22.4112
 X34.7675 Y22.2338
 X34.5904 Y22.0725
 X34.3987 Y21.9288
 X34.1940 Y21.8043
 X33.9769 Y21.6997
 X33.7487 Y21.6162
 X33.5103 Y21.5550
 X33.2614 Y21.5171
 X33.0023 Y21.5041
 X32.7430 Y21.5171
 X32.4938 Y21.5550
 X32.2547 Y21.6163
 X32.0255 Y21.7000
 X31.8073 Y21.8050
 X31.6016 Y21.9297
 X31.4092 Y22.0736
 X31.2309 Y22.2356
 X31.0693 Y22.4133
 X30.9256 Y22.6057
 X30.8007 Y22.8117
 X30.6958 Y23.0297
 X30.6122 Y23.2589
 X30.5508 Y23.4983
 X30.5129 Y23.7471
 X30.4980 Y24.0440
 Y31.5038
 X19.4998
 Y24.0442
 X19.4849 Y23.7466
 X19.4472 Y23.4970
 X19.3859 Y23.2575
 X19.3025 Y23.0281
 X19.1979 Y22.8099
 X19.0734 Y22.6038
 X18.9299 Y22.4113
 X18.7693 Y22.2339
 X18.5922 Y22.0727
 X18.4004 Y21.9289
 X18.1954 Y21.8043
 X17.9782 Y21.6997
 X17.7499 Y21.6162
 X17.5114 Y21.5550
 X17.2626 Y21.5171
 X17.0035 Y21.5041
 X16.7442 Y21.5171
 X16.4950 Y21.5550
 X16.2561 Y21.6163
 X16.0270 Y21.7000
 X15.8089 Y21.8049
 X15.6032 Y21.9297
 X15.4108 Y22.0736
 X15.2329 Y22.2353
 X15.0714 Y22.4130
 X14.9277 Y22.6054
 X14.8028 Y22.8115
 X14.6980 Y23.0296
 X14.6143 Y23.2587
 X14.5530 Y23.4981
 X14.5151 Y23.7471
 X14.5002 Y24.0440
 Y31.5038
 X-1.5000
 Y3.5006
 X8.5015
 Y-1.5000
 X166.5032
 Y3.5006
 X176.5042
 Y31.5038
 X163.5032
 Y24.0449
 X163.4880 Y23.7469
 X163.4502 Y23.4963
 X163.3897 Y23.2590
 X163.3058 Y23.0302
 X163.2005 Y22.8108
 X163.0766 Y22.6062
 X162.9323 Y22.4138
 X162.7710 Y22.2361
 X162.5923 Y22.0743
 X162.3981 Y21.9289
 X162.1935 Y21.8044
 X161.9764 Y21.7000
 X161.7478 Y21.6164
 X161.5082 Y21.5551
 X161.2575 Y21.5171
 X160.9992 Y21.5041
 X160.7399 Y21.5171
 X160.4903 Y21.5550
 X160.2526 Y21.6161
 X160.0239 Y21.6997
 X159.8077 Y21.8039
 X159.6024 Y21.9289
 X159.4092 Y22.0735
 X159.2325 Y22.2341
 X159.0731 Y22.4103
 X158.9295 Y22.6036
 X158.8059 Y22.8078
 X158.7019 Y23.0269
 X158.6174 Y23.2573
 X158.5571 Y23.4963
 X158.5187 Y23.7470
 X158.5042 Y24.0431
 Y31.5038
 X147.5042
 Y24.0449
 X147.4889 Y23.7451
 X147.4520 Y23.4963
 X147.3913 Y23.2608
 X147.3068 Y23.0302
 X147.2015 Y22.8108
 X147.0768 Y22.6049
 X146.9341 Y22.4138
 X146.7713 Y22.2351
 X146.5932 Y22.0727
 X146.4027 Y21.9302
 X146.1963 Y21.8053
 X145.9774 Y21.7000
 X145.7479 Y21.6161
 X145.5102 Y21.5550
 X145.2606 Y21.5171
 X145.0012 Y21.5040
 X144.7414 Y21.5171
 X144.4938 Y21.5549
 X144.2556 Y21.6161
 X144.0261 Y21.7000
 X143.8090 Y21.8044
 X143.6054 Y21.9283
 X143.4131 Y22.0727
 X143.2344 Y22.2351
 X143.0743 Y22.4115
 X142.9315 Y22.6036
 X142.8070 Y22.8093
 X142.7023 Y23.0286
 X142.6184 Y23.2573
 X142.5581 Y23.4963
 X142.5194 Y23.7488
 X142.5042 Y24.0449
 Y31.5038
 X131.4972
 Y24.0449
 X131.4820 Y23.7469
 X131.4442 Y23.4963
 X131.3832 Y23.2573
 X131.2994 Y23.0269
 X131.1955 Y22.8093
 X131.0710 Y22.6036
 X130.9282 Y22.4115
 X130.7672 Y22.2341
 X130.5894 Y22.0719
 X130.3989 Y21.9289
 X130.1937 Y21.8044
 X129.9766 Y21.6997
 X129.7479 Y21.6161
 X129.5100 Y21.5549
 X129.2613 Y21.5171
 X129.0022 Y21.5041
 X128.7429 Y21.5171
 X128.4928 Y21.5551
 X128.2542 Y21.6163
 X128.0251 Y21.7000
 X127.8071 Y21.8048
 X127.6016 Y21.9296
 X127.4092 Y22.0735
 X127.2304 Y22.2361
 X127.0684 Y22.4138
 X126.9257 Y22.6049
 X126.8001 Y22.8122
 X126.6949 Y23.0302
 X126.6116 Y23.2590
 X126.5500 Y23.4981
 X126.5125 Y23.7469
 X126.4972 Y24.0449
 Y31.5038
 X115.4992
 Y24.0431
 X115.4848 Y23.7470
 X115.4467 Y23.4981
 X115.3848 Y23.2556
 X115.3022 Y23.0269
 X115.1985 Y22.8108
 X115.0730 Y22.6036
 X114.9294 Y22.4103
 X114.7700 Y22.2341
 X114.5924 Y22.0727
 X114.4009 Y21.9289
 X114.1957 Y21.8044
 X113.9786 Y21.6997
 X113.7503 Y21.6163
 X113.5114 Y21.5550
 X113.2623 Y21.5171
 X113.0032 Y21.5041
 X112.7442 Y21.5171
 X112.4951 Y21.5550
 X112.2562 Y21.6163
 X112.0263 Y21.7003
 X111.8083 Y21.8048
 X111.6034 Y21.9296
 X111.4093 Y22.0743
 X111.2324 Y22.2351
 X111.0712 Y22.4126
 X110.9277 Y22.6049
 X110.8021 Y22.8122
 X110.6969 Y23.0302
 X110.6143 Y23.2573
 X110.5528 Y23.4981
 X110.5147 Y23.7470
 X110.5002 Y24.0431
 Y31.5038
 X99.5002
 Y24.0449
 X99.4850 Y23.7469
 X99.4472 Y23.4963
 X99.3862 Y23.2573
 X99.3024 Y23.0269
 X99.1985 Y22.8093
 X99.0740 Y22.6036
 X98.9308 Y22.4109
 X98.7705 Y22.2340
 X98.5931 Y22.0724
 X98.4014 Y21.9286
 X98.1971 Y21.8043
 X97.9796 Y21.6997
 X97.7515 Y21.6161
 X97.5132 Y21.5550
 X97.2644 Y21.5171
 X97.0053 Y21.5041
 X96.7461 Y21.5171
 X96.4969 Y21.5550
 X96.2578 Y21.6163
 X96.0287 Y21.7000
 X95.8105 Y21.8050
 X95.6048 Y21.9297
 X95.4120 Y22.0739
 X95.2339 Y22.2356
 X95.0726 Y22.4131
 X94.9287 Y22.6057
 X94.8038 Y22.8117
 X94.6989 Y23.0299
 X94.6151 Y23.2590
 X94.5538 Y23.4981
 X94.5160 Y23.7471
 X94.5010 Y24.0442
 Y31.5038
 X83.5014
 Y24.0442
 X83.4865 Y23.7473
 X83.4486 Y23.4979
 X83.3874 Y23.2587
 X83.3037 Y23.0299
 X83.1988 Y22.8115
 X83.0738 Y22.6053
 X82.9302 Y22.4130
 X82.7687 Y22.2353
 X82.5909 Y22.0736
 X82.3983 Y21.9297
 X82.1926 Y21.8048
 X81.9746 Y21.7000
 X81.7456 Y21.6163
 X81.5065 Y21.5550
 X81.2573 Y21.5171
 X80.9981 Y21.5041
 X80.7390 Y21.5171
 X80.4903 Y21.5550
 X80.2521 Y21.6161
 X80.0237 Y21.6997
 X79.8065 Y21.8043
 X79.6020 Y21.9287
 X79.4102 Y22.0725
 X79.2331 Y22.2338
 X79.0727 Y22.4110
 X78.9295 Y22.6034
 X78.8049 Y22.8096
 X78.7005 Y23.0276
 X78.6171 Y23.2571
 X78.5559 Y23.4968
 X78.5182 Y23.7462
 X78.5033 Y24.0438
 Y31.5038
 X67.5037
 Y24.0444
 X67.4888 Y23.7475
 X67.4508 Y23.4981
 X67.3895 Y23.2589
 X67.3058 Y23.0299
 X67.2009 Y22.8117
 X67.0760 Y22.6057
 X66.9322 Y22.4132
 X66.7708 Y22.2356
 X66.5927 Y22.0739
 X66.3999 Y21.9297
 X66.1942 Y21.8050
 X65.9759 Y21.7000
 X65.7468 Y21.6163
 X65.5077 Y21.5550
 X65.2586 Y21.5171
 X64.9993 Y21.5041
 X64.7401 Y21.5171
 X64.4914 Y21.5550
 X64.2530 Y21.6162
 X64.0247 Y21.6997
 X63.8074 Y21.8043
 X63.6029 Y21.9287
 X63.4113 Y22.0724
 X63.2341 Y22.2338
 X63.0735 Y22.4112
 X62.9301 Y22.6037
 X62.8057 Y22.8096
 X62.7013 Y23.0276
 X62.6179 Y23.2570
 X62.5567 Y23.4968
 X62.5189 Y23.7464
 X62.5041 Y24.0438
 Y31.5038
 X51.5048
 Y24.0442
 X51.4899 Y23.7471
 X51.4521 Y23.4981
 X51.3907 Y23.2589
 X51.3070 Y23.0296
 X51.2022 Y22.8115
 X51.0773 Y22.6056
 X50.9334 Y22.4129
 X50.7722 Y22.2353
 X50.5942 Y22.0736
 X50.4017 Y21.9297
 X50.1961 Y21.8049
 X49.9779 Y21.7000
 X49.7489 Y21.6163
 X49.5099 Y21.5550
 X49.2608 Y21.5171
 X49.0015 Y21.5041
 X48.7423 Y21.5171
 X48.4931 Y21.5550
 X48.2538 Y21.6163
 X48.0246 Y21.7001
 X47.8065 Y21.8050
 X47.6007 Y21.9298
 X47.4081 Y22.0737
 X47.2300 Y22.2356
 X47.0683 Y22.4134
 X46.9245 Y22.6058
 X46.7995 Y22.8118
 X46.6947 Y23.0297
 X46.6111 Y23.2589
 X46.5497 Y23.4983
 X46.5117 Y23.7475
 X46.4967 Y24.0444
 Y31.5038
 X35.4976
 Y24.0442
 X35.4827 Y23.7468
 X35.4448 Y23.4968
 X35.3837 Y23.2570
 X35.3004 Y23.0279
 X35.1957 Y22.8096
 X35.0712 Y22.6033
 X34.9282 Y22.4112
 X34.7675 Y22.2338
 X34.5904 Y22.0725
 X34.3987 Y21.9288
 X34.1940 Y21.8043
 X33.9769 Y21.6997
 X33.7487 Y21.6162
 X33.5103 Y21.5550
 X33.2614 Y21.5171
 X33.0023 Y21.5041
 X32.7430 Y21.5171
 X32.4938 Y21.5550
 X32.2547 Y21.6163
 X32.0255 Y21.7000
 X31.8073 Y21.8050
 X31.6016 Y21.9297
 X31.4092 Y22.0736
 X31.2309 Y22.2356
 X31.0693 Y22.4133
 X30.9256 Y22.6057
 X30.8007 Y22.8117
 X30.6958 Y23.0297
 X30.6122 Y23.2589
 X30.5508 Y23.4983
 X30.5129 Y23.7471
 X30.4980 Y24.0440
 Y31.5038
 X19.4998
 Y24.0442
 X19.4849 Y23.7466
 X19.4472 Y23.4970
 X19.3859 Y23.2575
 X19.3025 Y23.0281
 X19.1979 Y22.8099
 X19.0734 Y22.6038
 X18.9299 Y22.4113
 X18.7693 Y22.2339
 X18.5922 Y22.0727
 X18.4004 Y21.9289
 X18.1954 Y21.8043
 X17.9782 Y21.6997
 X17.7499 Y21.6162
 X17.5114 Y21.5550
 X17.2626 Y21.5171
 X17.0035 Y21.5041
 X16.7442 Y21.5171
 X16.4950 Y21.5550
 X16.2561 Y21.6163
 X16.0270 Y21.7000
 X15.8089 Y21.8049
 X15.6032 Y21.9297
 X15.4108 Y22.0736
 X15.2329 Y22.2353
 X15.0714 Y22.4130
 X14.9277 Y22.6054
 X14.8028 Y22.8115
 X14.6980 Y23.0296
 X14.6143 Y23.2587
 X14.5530 Y23.4981
 X14.5151 Y23.7471
 X14.5002 Y24.0440
 Y31.5038
 X-1.5000
G0 Z2.0000
M5 (stop spindle)
G04 P3 (wait for 3 seconds)
G0 Z2.0000
M2 (end program)
