;PYCAM-META-DATA: Filename: None
;PYCAM-META-DATA: Timestamp: 2012-04-23 15:03:03.504780
;PYCAM-META-DATA: Version: 0.5.1
;Estimated machine time: 29 minutes
G40 (disable tool radius compensation)
G49 (disable tool length compensation)
G80 (cancel modal motion)
G54 (select coordinate system 1)
G90 (disable incremental moves)
G21 (metric)
G61 (exact path mode)
F400.00000
S1000.00000
;PYCAM_TOOLPATH_SETTINGS: START
;[Bounds]
;maxz = 0.0
;maxx = 248.53382496
;maxy = 177.2509848
;minx = -21.17607456
;miny = -14.6408328
;minz = -5.05
;
;[Tool]
;torus_radius = 0.25
;speed = 1000.0
;shape = CylindricalCutter
;tool_radius = 1.5
;feedrate = 400.0
;
;[Process]
;engrave_offset = 1.5
;step_down = 2.0
;generator = EngraveCutter
;postprocessor = SimpleCutter
;milling_style = conventional
;material_allowance = 0.0
;pocketing_type = none
;path_direction = x
;
;PYCAM_TOOLPATH_SETTINGS: END
T1 M6
G0 Z2.0000
M3 (start spindle)
G04 P3 (wait for 3 seconds)
 X10.0020 Y155.0610
G1 Z-1.6833
 X10.2600 Y155.0478
 X10.5078 Y155.0103
 X10.7461 Y154.9488
 X10.9731 Y154.8661
 X11.1912 Y154.7601
 X11.3974 Y154.6352
 X11.5903 Y154.4900
 X11.7716 Y154.3255
 X11.9325 Y154.1493
 X12.0760 Y153.9570
 X12.2018 Y153.7501
 X12.3068 Y153.5321
 X12.3906 Y153.3034
 X12.4520 Y153.0645
 X12.4900 Y152.8154
 X12.5031 Y152.5580
 X12.4900 Y152.3011
 X12.4521 Y152.0541
 X12.3906 Y151.8146
 X12.3074 Y151.5874
 X12.2031 Y151.3723
 X12.0767 Y151.1648
 X11.9325 Y150.9717
 X11.7726 Y150.7966
 X11.5926 Y150.6340
 X11.3987 Y150.4886
 X11.1942 Y150.3647
 X10.9780 Y150.2609
 X10.7479 Y150.1777
 X10.5060 Y150.1152
 X10.2600 Y150.0774
 X10.0020 Y150.0648
 X9.7436 Y150.0774
 X9.4977 Y150.1152
 X9.2561 Y150.1776
 X9.0267 Y150.2606
 X8.8113 Y150.3642
 X8.6075 Y150.4879
 X8.4143 Y150.6330
 X8.2351 Y150.7953
 X8.0759 Y150.9701
 X7.9324 Y151.1631
 X7.8063 Y151.3705
 X7.7023 Y151.5857
 X7.6194 Y151.8131
 X7.5579 Y152.0530
 X7.5202 Y152.3003
 X7.5072 Y152.5580
 X7.5202 Y152.8163
 X7.5581 Y153.0655
 X7.6194 Y153.3049
 X7.7029 Y153.5339
 X7.8076 Y153.7519
 X7.9330 Y153.9588
 X8.0759 Y154.1509
 X8.2361 Y154.3268
 X8.4166 Y154.4910
 X8.6088 Y154.6359
 X8.8143 Y154.7606
 X9.0316 Y154.8663
 X9.2578 Y154.9489
 X9.4959 Y155.0104
 X9.7436 Y155.0478
 X10.0020 Y155.0610
G0 Z2.0000
 Y85.0606
G1 Z-1.6833
 X10.2593 Y85.0476
 X10.5071 Y85.0097
 X10.7453 Y84.9484
 X10.9741 Y84.8645
 X11.1922 Y84.7594
 X11.3984 Y84.6340
 X11.5915 Y84.4896
 X11.7698 Y84.3274
 X11.9321 Y84.1490
 X12.0765 Y83.9560
 X12.2018 Y83.7498
 X12.3070 Y83.5316
 X12.3907 Y83.3031
 X12.4521 Y83.0647
 X12.4900 Y82.8167
 X12.5031 Y82.5596
 X12.4900 Y82.3022
 X12.4521 Y82.0543
 X12.3908 Y81.8162
 X12.3072 Y81.5882
 X12.2023 Y81.3709
 X12.0772 Y81.1654
 X11.9330 Y80.9731
 X11.7710 Y80.7953
 X11.5931 Y80.6339
 X11.4003 Y80.4902
 X11.1940 Y80.3652
 X10.9760 Y80.2605
 X10.7470 Y80.1769
 X10.5080 Y80.1156
 X10.2598 Y80.0778
 X10.0020 Y80.0648
 X9.7438 Y80.0778
 X9.4957 Y80.1156
 X9.2570 Y80.1769
 X9.0286 Y80.2602
 X8.8115 Y80.3647
 X8.6059 Y80.4895
 X8.4138 Y80.6329
 X8.2367 Y80.7939
 X8.0755 Y80.9714
 X7.9318 Y81.1636
 X7.8071 Y81.3691
 X7.7025 Y81.5865
 X7.6192 Y81.8147
 X7.5580 Y82.0532
 X7.5202 Y82.3013
 X7.5072 Y82.5596
 X7.5202 Y82.8175
 X7.5580 Y83.0658
 X7.6192 Y83.3046
 X7.7027 Y83.5333
 X7.8076 Y83.7516
 X7.9325 Y83.9578
 X8.0763 Y84.1506
 X8.2379 Y84.3288
 X8.4155 Y84.4906
 X8.6077 Y84.6347
 X8.8133 Y84.7598
 X9.0306 Y84.8647
 X9.2587 Y84.9484
 X9.4966 Y85.0097
 X9.7443 Y85.0475
 X10.0020 Y85.0606
G0 Z2.0000
 X204.8400 Y77.6493
G1 Z-1.6833
 X204.5826 Y77.6624
 X204.3340 Y77.7003
 X204.0962 Y77.7616
 X203.8669 Y77.8456
 X203.6498 Y77.9502
 X203.4438 Y78.0758
 X203.2496 Y78.2208
 X203.0716 Y78.3828
 X202.9093 Y78.5609
 X202.7664 Y78.7524
 X202.6399 Y78.9612
 X202.5339 Y79.1794
 X202.4512 Y79.4062
 X202.3892 Y79.6464
 X202.3511 Y79.8942
 X202.3380 Y80.1504
 X202.3511 Y80.4069
 X202.3892 Y80.6546
 X202.4511 Y80.8945
 X202.5337 Y81.1207
 X202.6394 Y81.3380
 X202.7657 Y81.5462
 X202.9082 Y81.7368
 X203.0702 Y81.9142
 X203.2480 Y82.0756
 X203.4421 Y82.2200
 X203.6482 Y82.3453
 X203.8651 Y82.4495
 X204.0945 Y82.5331
 X204.3331 Y82.5944
 X204.5818 Y82.6322
 X204.8400 Y82.6452
 X205.0979 Y82.6322
 X205.3456 Y82.5945
 X205.5845 Y82.5331
 X205.8131 Y82.4498
 X206.0291 Y82.3457
 X206.2349 Y82.2206
 X206.4281 Y82.0764
 X206.6057 Y81.9152
 X206.7658 Y81.7391
 X206.9084 Y81.5476
 X207.0338 Y81.3410
 X207.1389 Y81.1224
 X207.2233 Y80.8928
 X207.2839 Y80.6582
 X207.3207 Y80.4106
 X207.3340 Y80.1504
 X207.3207 Y79.8905
 X207.2839 Y79.6428
 X207.2232 Y79.4079
 X207.1387 Y79.1777
 X207.0333 Y78.9582
 X206.9078 Y78.7510
 X206.7648 Y78.5586
 X206.6043 Y78.3818
 X206.4266 Y78.2200
 X206.2332 Y78.0752
 X206.0275 Y77.9497
 X205.8114 Y77.8453
 X205.5828 Y77.7616
 X205.3447 Y77.7003
 X205.0972 Y77.6624
 X204.8400 Y77.6493
G0 Z2.0000
 Y7.6491
G1 Z-1.6833
 X204.5824 Y7.6621
 X204.3341 Y7.7000
 X204.0962 Y7.7613
 X203.8669 Y7.8453
 X203.6499 Y7.9499
 X203.4440 Y8.0755
 X203.2497 Y8.2205
 X203.0717 Y8.3825
 X202.9095 Y8.5606
 X202.7666 Y8.7523
 X202.6400 Y8.9614
 X202.5340 Y9.1795
 X202.4513 Y9.4066
 X202.3892 Y9.6471
 X202.3511 Y9.8953
 X202.3380 Y10.1519
 X202.3511 Y10.4080
 X202.3891 Y10.6554
 X202.4511 Y10.8950
 X202.5336 Y11.1210
 X202.6392 Y11.3381
 X202.7655 Y11.5461
 X202.9082 Y11.7367
 X203.0701 Y11.9142
 X203.2478 Y12.0753
 X203.4420 Y12.2198
 X203.6479 Y12.3449
 X203.8651 Y12.4492
 X204.0945 Y12.5329
 X204.3331 Y12.5941
 X204.5818 Y12.6320
 X204.8400 Y12.6449
 X205.0979 Y12.6320
 X205.3456 Y12.5942
 X205.5845 Y12.5329
 X205.8132 Y12.4495
 X206.0294 Y12.3453
 X206.2350 Y12.2204
 X206.4283 Y12.0761
 X206.6058 Y11.9151
 X206.7659 Y11.7391
 X206.9087 Y11.5474
 X207.0339 Y11.3411
 X207.1390 Y11.1227
 X207.2234 Y10.8932
 X207.2839 Y10.6589
 X207.3207 Y10.4117
 X207.3340 Y10.1519
 X207.3207 Y9.8916
 X207.2838 Y9.6435
 X207.2232 Y9.4084
 X207.1386 Y9.1779
 X207.0332 Y8.9584
 X206.9076 Y8.7510
 X206.7645 Y8.5583
 X206.6042 Y8.3815
 X206.4264 Y8.2197
 X206.2330 Y8.0749
 X206.0274 Y7.9494
 X205.8113 Y7.8450
 X205.5828 Y7.7613
 X205.3446 Y7.6999
 X205.0973 Y7.6621
 X204.8400 Y7.6491
G0 Z2.0000
 X21.5022 Y152.5770
G1 Z-1.6833
 X21.4878 Y153.1477
 X21.4434 Y153.7326
 X21.3701 Y154.3077
 X21.2689 Y154.8750
 X21.1403 Y155.4308
 X20.9854 Y155.9774
 X20.8041 Y156.5129
 X20.5981 Y157.0354
 X20.3674 Y157.5455
 X20.1133 Y158.0413
 X19.8365 Y158.5228
 X19.5373 Y158.9898
 X19.2162 Y159.4413
 X18.8755 Y159.8739
 X18.5152 Y160.2909
 X18.1333 Y160.6923
 X17.7342 Y161.0716
 X17.3172 Y161.4336
 X16.8824 Y161.7741
 X16.4337 Y162.0935
 X15.9671 Y162.3936
 X15.4847 Y162.6713
 X14.9879 Y162.9258
 X14.4780 Y163.1561
 X13.9553 Y163.3621
 X13.4194 Y163.5432
 X12.8753 Y163.6969
 X12.3183 Y163.8270
 X11.7504 Y163.9273
 X11.1769 Y164.0007
 X10.5928 Y164.0455
 X10.0020 Y164.0605
 X9.4108 Y164.0455
 X8.8267 Y164.0007
 X8.2531 Y163.9274
 X7.6851 Y163.8270
 X7.1279 Y163.6969
 X6.5837 Y163.5432
 X6.0477 Y163.3622
 X5.5250 Y163.1562
 X5.0148 Y162.9259
 X4.5181 Y162.6713
 X4.0355 Y162.3937
 X3.5690 Y162.0936
 X3.1200 Y161.7741
 X2.6852 Y161.4336
 X2.2683 Y161.0717
 X1.8692 Y160.6925
 X1.4870 Y160.2909
 X1.1267 Y159.8738
 X0.7861 Y159.4413
 X0.4650 Y158.9899
 X0.1656 Y158.5229
 X-0.1112 Y158.0412
 X-0.3652 Y157.5455
 X-0.5958 Y157.0356
 X-0.8021 Y156.5128
 X-0.9832 Y155.9773
 X-1.1382 Y155.4310
 X-1.2668 Y154.8749
 X-1.3680 Y154.3075
 X-1.4412 Y153.7325
 X-1.4856 Y153.1477
 X-1.5000 Y152.5769
 Y132.5471
 X-1.4856 Y131.9752
 X-1.4412 Y131.3913
 X-1.3680 Y130.8165
 X-1.2669 Y130.2494
 X-1.1382 Y129.6919
 X-0.9830 Y129.1463
 X-0.8021 Y128.6112
 X-0.5958 Y128.0884
 X-0.3655 Y127.5791
 X-0.1112 Y127.0817
 X0.1661 Y126.6005
 X0.4650 Y126.1341
 X0.7855 Y125.6834
 X1.1267 Y125.2491
 X1.4877 Y124.8324
 X1.8684 Y124.4324
 X2.2683 Y124.0512
 X2.6852 Y123.6905
 X3.1190 Y123.3496
 X3.5701 Y123.0286
 X4.0367 Y122.7297
 X4.5181 Y122.4527
 X5.0148 Y122.1981
 X5.5250 Y121.9678
 X6.0477 Y121.7618
 X6.5823 Y121.5812
 X7.1279 Y121.4260
 X7.6851 Y121.2971
 X8.2517 Y121.1958
 X8.8282 Y121.1221
 X9.4123 Y121.0784
 X9.9831 Y121.0640
 X89.5086
 Y116.0730
 X108.5060
 Y121.0640
 X149.5070
 Y116.0730
 X168.5040
 Y121.0640
 X191.5070
 Y149.0670
 X178.5060
 Y141.6075
 X178.4908 Y141.3122
 X178.4527 Y141.0628
 X178.3904 Y140.8216
 X178.3082 Y140.5942
 X178.2027 Y140.3770
 X178.0762 Y140.1676
 X177.9316 Y139.9740
 X177.7720 Y139.7970
 X177.5958 Y139.6375
 X177.4020 Y139.4928
 X177.1954 Y139.3674
 X176.9784 Y139.2632
 X176.7485 Y139.1795
 X176.5084 Y139.1177
 X176.2603 Y139.0803
 X176.0001 Y139.0670
 X175.7405 Y139.0803
 X175.4918 Y139.1177
 X175.2542 Y139.1790
 X175.0258 Y139.2626
 X174.8094 Y139.3665
 X174.6056 Y139.4910
 X174.4121 Y139.6359
 X174.2349 Y139.7970
 X174.0746 Y139.9740
 X173.9326 Y140.1649
 X173.8078 Y140.3726
 X173.7014 Y140.5942
 X173.6180 Y140.8216
 X173.5583 Y141.0574
 X173.5205 Y141.3085
 X173.5060 Y141.6057
 Y149.0670
 X162.5060
 Y141.6075
 X162.4907 Y141.3103
 X162.4533 Y141.0610
 X162.3918 Y140.8233
 X162.3078 Y140.5926
 X162.2029 Y140.3741
 X162.0790 Y140.1690
 X161.9345 Y139.9764
 X161.7721 Y139.7970
 X161.5957 Y139.6367
 X161.4022 Y139.4922
 X161.1965 Y139.3669
 X160.9810 Y139.2635
 X160.7493 Y139.1794
 X160.5107 Y139.1177
 X160.2625 Y139.0803
 X160.0030 Y139.0670
 X159.7433 Y139.0803
 X159.4940 Y139.1177
 X159.2563 Y139.1792
 X159.0264 Y139.2629
 X158.8121 Y139.3661
 X158.6066 Y139.4916
 X158.4144 Y139.6352
 X158.2396 Y139.7950
 X158.0776 Y139.9740
 X157.9337 Y140.1676
 X157.8092 Y140.3726
 X157.7056 Y140.5909
 X157.6210 Y140.8216
 X157.5608 Y141.0592
 X157.5224 Y141.3104
 X157.5080 Y141.6057
 Y149.0670
 X146.4990
 Y141.6075
 X146.4837 Y141.3103
 X146.4463 Y141.0610
 X146.3844 Y140.8216
 X146.3010 Y140.5909
 X146.1969 Y140.3741
 X146.0714 Y140.1663
 X145.9276 Y139.9729
 X145.7672 Y139.7950
 X145.5918 Y139.6352
 X145.3994 Y139.4910
 X145.1956 Y139.3665
 X144.9810 Y139.2635
 X144.7493 Y139.1794
 X144.5104 Y139.1176
 X144.2632 Y139.0802
 X144.0039 Y139.0670
 X143.7437 Y139.0803
 X143.4956 Y139.1177
 X143.2555 Y139.1795
 X143.0256 Y139.2632
 X142.8095 Y139.3669
 X142.6048 Y139.4916
 X142.4111 Y139.6367
 X142.2330 Y139.7980
 X142.0725 Y139.9752
 X141.9288 Y140.1676
 X141.8032 Y140.3756
 X141.6984 Y140.5926
 X141.6156 Y140.8216
 X141.5533 Y141.0628
 X141.5152 Y141.3122
 X141.5000 Y141.6075
 Y149.0670
 X130.5010
 Y141.6075
 X130.4857 Y141.3103
 X130.4480 Y141.0592
 X130.3872 Y140.8216
 X130.3032 Y140.5909
 X130.1990 Y140.3726
 X130.0744 Y140.1663
 X129.9314 Y139.9740
 X129.7703 Y139.7960
 X129.5938 Y139.6352
 X129.4022 Y139.4916
 X129.1968 Y139.3665
 X128.9810 Y139.2626
 X128.7525 Y139.1792
 X128.5142 Y139.1177
 X128.2655 Y139.0803
 X128.0060 Y139.0670
 X127.7463 Y139.0803
 X127.4966 Y139.1178
 X127.2579 Y139.1793
 X127.0276 Y139.2632
 X126.8106 Y139.3674
 X126.6040 Y139.4928
 X126.4113 Y139.6367
 X126.2349 Y139.7970
 X126.0735 Y139.9752
 X125.9298 Y140.1676
 X125.8042 Y140.3756
 X125.6986 Y140.5942
 X125.6158 Y140.8216
 X125.5546 Y141.0610
 X125.5162 Y141.3122
 X125.5010 Y141.6075
 Y149.0670
 X114.5020
 Y141.6075
 X114.4867 Y141.3103
 X114.4490 Y141.0592
 X114.3882 Y140.8216
 X114.3042 Y140.5909
 X114.2000 Y140.3726
 X114.0754 Y140.1663
 X113.9324 Y139.9740
 X113.7713 Y139.7960
 X113.5948 Y139.6352
 X113.4032 Y139.4916
 X113.1978 Y139.3665
 X112.9826 Y139.2629
 X112.7527 Y139.1792
 X112.5147 Y139.1177
 X112.2665 Y139.0803
 X112.0070 Y139.0670
 X111.7475 Y139.0803
 X111.4984 Y139.1178
 X111.2585 Y139.1795
 X111.0286 Y139.2632
 X110.8125 Y139.3669
 X110.6068 Y139.4922
 X110.4133 Y139.6367
 X110.2358 Y139.7980
 X110.0737 Y139.9764
 X109.9308 Y140.1676
 X109.8052 Y140.3756
 X109.6996 Y140.5942
 X109.6162 Y140.8233
 X109.5547 Y141.0610
 X109.5173 Y141.3103
 X109.5020 Y141.6075
 Y149.0670
 X98.5040
 Y141.6060
 X98.4894 Y141.3100
 X98.4516 Y141.0612
 X98.3904 Y140.8232
 X98.3067 Y140.5940
 X98.2014 Y140.3753
 X98.0762 Y140.1684
 X97.9323 Y139.9759
 X97.7706 Y139.7976
 X97.5937 Y139.6370
 X97.4001 Y139.4924
 X97.1942 Y139.3672
 X96.9778 Y139.2633
 X96.7471 Y139.1794
 X96.5081 Y139.1178
 X96.2592 Y139.0803
 X95.9997 Y139.0670
 X95.7402 Y139.0803
 X95.4919 Y139.1177
 X95.2536 Y139.1792
 X95.0240 Y139.2629
 X94.8087 Y139.3664
 X94.6039 Y139.4914
 X94.4112 Y139.6356
 X94.2354 Y139.7957
 X94.0745 Y139.9739
 X93.9312 Y140.1662
 X93.8069 Y140.3726
 X93.7019 Y140.5918
 X93.6184 Y140.8213
 X93.5575 Y141.0596
 X93.5196 Y141.3102
 X93.5047 Y141.6068
 Y149.0670
 X82.5053
 Y141.6069
 X82.4903 Y141.3109
 X82.4524 Y141.0610
 X82.3913 Y140.8232
 X82.3075 Y140.5939
 X82.2023 Y140.3751
 X82.0772 Y140.1686
 X81.9331 Y139.9758
 X81.7715 Y139.7975
 X81.5947 Y139.6371
 X81.4011 Y139.4925
 X81.1951 Y139.3671
 X80.9787 Y139.2633
 X80.7482 Y139.1794
 X80.5090 Y139.1178
 X80.2602 Y139.0803
 X80.0006 Y139.0670
 X79.7410 Y139.0803
 X79.4927 Y139.1177
 X79.2544 Y139.1792
 X79.0248 Y139.2629
 X78.8095 Y139.3665
 X78.6046 Y139.4914
 X78.4121 Y139.6356
 X78.2362 Y139.7957
 X78.0755 Y139.9737
 X77.9322 Y140.1662
 X77.8076 Y140.3729
 X77.7028 Y140.5916
 X77.6193 Y140.8213
 X77.5583 Y141.0597
 X77.5205 Y141.3098
 X77.5057 Y141.6064
 Y149.0670
 X66.5060
 Y141.6068
 X66.4911 Y141.3105
 X66.4532 Y141.0610
 X66.3920 Y140.8230
 X66.3082 Y140.5934
 X66.2032 Y140.3748
 X66.0781 Y140.1682
 X65.9342 Y139.9754
 X65.7727 Y139.7971
 X65.5962 Y139.6368
 X65.4026 Y139.4923
 X65.1969 Y139.3670
 X64.9806 Y139.2632
 X64.7503 Y139.1793
 X64.5115 Y139.1178
 X64.2627 Y139.0803
 X64.0031 Y139.0670
 X63.7434 Y139.0803
 X63.4945 Y139.1178
 X63.2555 Y139.1794
 X63.0249 Y139.2633
 X62.8086 Y139.3671
 X62.6026 Y139.4925
 X62.4088 Y139.6371
 X62.2320 Y139.7976
 X62.0703 Y139.9759
 X61.9264 Y140.1684
 X61.8014 Y140.3750
 X61.6962 Y140.5937
 X61.6123 Y140.8235
 X61.5510 Y141.0614
 X61.5132 Y141.3105
 X61.4983 Y141.6068
 Y149.0670
 X50.4987
 Y141.6066
 X50.4838 Y141.3100
 X50.4460 Y141.0597
 X50.3850 Y140.8213
 X50.3015 Y140.5916
 X50.1967 Y140.3729
 X50.0721 Y140.1662
 X49.9288 Y139.9737
 X49.7681 Y139.7957
 X49.5924 Y139.6357
 X49.3996 Y139.4914
 X49.1947 Y139.3664
 X48.9794 Y139.2629
 X48.7500 Y139.1792
 X48.5117 Y139.1177
 X48.2633 Y139.0803
 X48.0039 Y139.0670
 X47.7443 Y139.0803
 X47.4955 Y139.1178
 X47.2565 Y139.1794
 X47.0261 Y139.2632
 X46.8101 Y139.3669
 X46.6044 Y139.4922
 X46.4107 Y139.6369
 X46.2340 Y139.7973
 X46.0726 Y139.9754
 X45.9289 Y140.1679
 X45.8038 Y140.3748
 X45.6984 Y140.5937
 X45.6149 Y140.8227
 X45.5538 Y141.0608
 X45.5158 Y141.3105
 X45.5010 Y141.6066
 Y149.0670
 X34.5013
 Y141.6068
 X34.4863 Y141.3098
 X34.4487 Y141.0596
 X34.3876 Y140.8213
 X34.3042 Y140.5916
 X34.1994 Y140.3730
 X34.0748 Y140.1663
 X33.9313 Y139.9736
 X33.7707 Y139.7956
 X33.5950 Y139.6357
 X33.4022 Y139.4914
 X33.1974 Y139.3664
 X32.9821 Y139.2629
 X32.7525 Y139.1792
 X32.5143 Y139.1177
 X32.2658 Y139.0803
 X32.0064 Y139.0670
 X31.7464 Y139.0803
 X31.4972 Y139.1178
 X31.2579 Y139.1794
 X31.0275 Y139.2633
 X30.8113 Y139.3670
 X30.6054 Y139.4924
 X30.4116 Y139.6371
 X30.2350 Y139.7974
 X30.0735 Y139.9756
 X29.9297 Y140.1682
 X29.8045 Y140.3750
 X29.6994 Y140.5935
 X29.6157 Y140.8230
 X29.5545 Y141.0608
 X29.5167 Y141.3105
 X29.5017 Y141.6069
 Y149.0670
 X21.5022
 Y152.5770
G0 Z2.0000
 Y82.5786
G1 Z-1.6833
 X21.4878 Y83.1498
 X21.4434 Y83.7335
 X21.3701 Y84.3090
 X21.2689 Y84.8755
 X21.1404 Y85.4321
 X20.9852 Y85.9785
 X20.8040 Y86.5135
 X20.5980 Y87.0360
 X20.3675 Y87.5457
 X20.1133 Y88.0420
 X19.8363 Y88.5235
 X19.5372 Y88.9902
 X19.2167 Y89.4408
 X18.8755 Y89.8751
 X18.5139 Y90.2924
 X18.1336 Y90.6913
 X17.7347 Y91.0717
 X17.3174 Y91.4332
 X16.8831 Y91.7742
 X16.4327 Y92.0947
 X15.9660 Y92.3940
 X15.4844 Y92.6709
 X14.9883 Y92.9251
 X14.4783 Y93.1558
 X13.9557 Y93.3618
 X13.4209 Y93.5428
 X12.8745 Y93.6981
 X12.3176 Y93.8266
 X11.7514 Y93.9276
 X11.1760 Y94.0010
 X10.5921 Y94.0454
 X10.0020 Y94.0602
 X9.4116 Y94.0454
 X8.8276 Y94.0010
 X8.2521 Y93.9276
 X7.6858 Y93.8266
 X7.1287 Y93.6981
 X6.5822 Y93.5429
 X6.0473 Y93.3618
 X5.5246 Y93.1558
 X5.0145 Y92.9252
 X4.5183 Y92.6709
 X4.0367 Y92.3940
 X3.5700 Y92.0948
 X3.1193 Y91.7743
 X2.6851 Y91.4331
 X2.2679 Y91.0718
 X1.8689 Y90.6914
 X1.4882 Y90.2924
 X1.1268 Y89.8750
 X0.7856 Y89.4409
 X0.4651 Y88.9904
 X0.1658 Y88.5236
 X-0.1112 Y88.0419
 X-0.3653 Y87.5458
 X-0.5958 Y87.0362
 X-0.8020 Y86.5134
 X-0.9830 Y85.9784
 X-1.1382 Y85.4323
 X-1.2668 Y84.8754
 X-1.3680 Y84.3088
 X-1.4412 Y83.7334
 X-1.4856 Y83.1498
 X-1.5000 Y82.5785
 Y62.5465
 X-1.4856 Y61.9750
 X-1.4412 Y61.3915
 X-1.3680 Y60.8159
 X-1.2668 Y60.2493
 X-1.1383 Y59.6922
 X-0.9831 Y59.1459
 X-0.8021 Y58.6110
 X-0.5959 Y58.0880
 X-0.3653 Y57.5784
 X-0.1113 Y57.0823
 X0.1658 Y56.6002
 X0.4650 Y56.1337
 X0.7855 Y55.6829
 X1.1269 Y55.2486
 X1.4881 Y54.8317
 X1.8687 Y54.4324
 X2.2679 Y54.0518
 X2.6849 Y53.6906
 X3.1191 Y53.3493
 X3.5701 Y53.0286
 X4.0366 Y52.7296
 X4.5183 Y52.4524
 X5.0147 Y52.1982
 X5.5245 Y51.9678
 X6.0472 Y51.7616
 X6.5822 Y51.5805
 X7.1286 Y51.4253
 X7.6857 Y51.2968
 X8.2521 Y51.1957
 X8.8276 Y51.1223
 X9.4114 Y51.0779
 X9.9831 Y51.0635
 X89.5086
 Y46.0724
 X108.5060
 Y51.0635
 X149.5070
 Y46.0724
 X168.5040
 Y51.0635
 X191.5070
 Y79.0676
 X174.5100 Y79.0576
 Y71.5997
 X174.4947 Y71.3018
 X174.4570 Y71.0510
 X174.3964 Y70.8137
 X174.3125 Y70.5848
 X174.2072 Y70.3653
 X174.0834 Y70.1609
 X173.9391 Y69.9685
 X173.7773 Y69.7903
 X173.5990 Y69.6286
 X173.4067 Y69.4848
 X173.2000 Y69.3598
 X172.9811 Y69.2545
 X172.7517 Y69.1707
 X172.5136 Y69.1094
 X172.2641 Y69.0715
 X172.0059 Y69.0584
 X171.7468 Y69.0715
 X171.4974 Y69.1094
 X171.2593 Y69.1707
 X171.0307 Y69.2542
 X170.8145 Y69.3585
 X170.6089 Y69.4836
 X170.4161 Y69.6278
 X170.2396 Y69.7883
 X170.0799 Y69.9650
 X169.9362 Y70.1582
 X169.8127 Y70.3623
 X169.7087 Y70.5815
 X169.6242 Y70.8120
 X169.5639 Y71.0510
 X169.5254 Y71.3018
 X169.5110 Y71.5979
 Y79.0585
 X158.5110
 Y71.5997
 X158.4958 Y71.3036
 X158.4571 Y71.0510
 X158.3968 Y70.8120
 X158.3135 Y70.5848
 X158.2082 Y70.3653
 X158.0836 Y70.1596
 X157.9409 Y69.9685
 X157.7785 Y69.7903
 X157.5991 Y69.6270
 X157.4087 Y69.4842
 X157.2030 Y69.3598
 X156.9841 Y69.2545
 X156.7547 Y69.1707
 X156.5166 Y69.1094
 X156.2672 Y69.0715
 X156.0079 Y69.0584
 X155.7483 Y69.0715
 X155.5000 Y69.1094
 X155.2595 Y69.1710
 X155.0325 Y69.2539
 X154.8163 Y69.3585
 X154.6091 Y69.4842
 X154.4181 Y69.6270
 X154.2425 Y69.7873
 X154.0819 Y69.9650
 X153.9382 Y70.1582
 X153.8128 Y70.3653
 X153.7083 Y70.5832
 X153.6250 Y70.8120
 X153.5640 Y71.0510
 X153.5263 Y71.3018
 X153.5110 Y71.5997
 Y79.0585
 X142.5040
 Y71.5997
 X142.4888 Y71.3036
 X142.4501 Y71.0510
 X142.3898 Y70.8120
 X142.3053 Y70.5815
 X142.2013 Y70.3623
 X142.0786 Y70.1596
 X141.9342 Y69.9662
 X141.7725 Y69.7873
 X141.5969 Y69.6270
 X141.4051 Y69.4836
 X141.1995 Y69.3585
 X140.9833 Y69.2542
 X140.7547 Y69.1707
 X140.5166 Y69.1094
 X140.2672 Y69.0715
 X140.0081 Y69.0584
 X139.7499 Y69.0715
 X139.4999 Y69.1095
 X139.2609 Y69.1708
 X139.0319 Y69.2545
 X138.8139 Y69.3594
 X138.6081 Y69.4842
 X138.4150 Y69.6286
 X138.2367 Y69.7903
 X138.0760 Y69.9673
 X137.9314 Y70.1609
 X137.8061 Y70.3668
 X137.7023 Y70.5832
 X137.6184 Y70.8137
 X137.5568 Y71.0528
 X137.5193 Y71.3018
 X137.5040 Y71.5997
 Y79.0585
 X126.5060
 Y71.5979
 X126.4916 Y71.3018
 X126.4534 Y71.0528
 X126.3920 Y70.8120
 X126.3081 Y70.5815
 X126.2043 Y70.3638
 X126.0806 Y70.1596
 X125.9362 Y69.9662
 X125.7754 Y69.7883
 X125.5981 Y69.6270
 X125.4069 Y69.4836
 X125.2014 Y69.3589
 X124.9843 Y69.2542
 X124.7557 Y69.1707
 X124.5174 Y69.1093
 X124.2690 Y69.0715
 X124.0091 Y69.0584
 X123.7501 Y69.0715
 X123.5012 Y69.1094
 X123.2619 Y69.1708
 X123.0329 Y69.2545
 X122.8149 Y69.3594
 X122.6091 Y69.4842
 X122.4171 Y69.6278
 X122.2396 Y69.7893
 X122.0780 Y69.9673
 X121.9344 Y70.1596
 X121.8089 Y70.3668
 X121.7037 Y70.5848
 X121.6210 Y70.8120
 X121.5596 Y71.0528
 X121.5214 Y71.3018
 X121.5070 Y71.5979
 Y79.0585
 X110.5070
 Y71.5997
 X110.4917 Y71.3018
 X110.4540 Y71.0510
 X110.3930 Y70.8120
 X110.3091 Y70.5815
 X110.2053 Y70.3638
 X110.0808 Y70.1582
 X109.9380 Y69.9662
 X109.7766 Y69.7883
 X109.5990 Y69.6262
 X109.4089 Y69.4836
 X109.2034 Y69.3589
 X108.9857 Y69.2539
 X108.7585 Y69.1707
 X108.5198 Y69.1094
 X108.2709 Y69.0715
 X108.0120 Y69.0584
 X107.7531 Y69.0715
 X107.5042 Y69.1094
 X107.2649 Y69.1708
 X107.0351 Y69.2548
 X106.8161 Y69.3598
 X106.6111 Y69.4842
 X106.4191 Y69.6278
 X106.2416 Y69.7893
 X106.0789 Y69.9685
 X105.9346 Y70.1609
 X105.8108 Y70.3653
 X105.7055 Y70.5848
 X105.6216 Y70.8137
 X105.5606 Y71.0528
 X105.5222 Y71.3036
 X105.5070 Y71.5997
 Y79.0585
 X94.5078
 Y71.5991
 X94.4928 Y71.3023
 X94.4548 Y71.0526
 X94.3935 Y70.8130
 X94.3100 Y70.5842
 X94.2052 Y70.3661
 X94.0803 Y70.1600
 X93.9365 Y69.9676
 X93.7748 Y69.7895
 X93.5972 Y69.6279
 X93.4050 Y69.4843
 X93.1991 Y69.3594
 X92.9812 Y69.2545
 X92.7521 Y69.1708
 X92.5127 Y69.1094
 X92.2638 Y69.0715
 X92.0047 Y69.0584
 X91.7459 Y69.0715
 X91.4973 Y69.1093
 X91.2587 Y69.1707
 X91.0304 Y69.2541
 X90.8133 Y69.3588
 X90.6084 Y69.4834
 X90.4170 Y69.6267
 X90.2402 Y69.7880
 X90.0792 Y69.9658
 X89.9361 Y70.1581
 X89.8116 Y70.3641
 X89.7072 Y70.5822
 X89.6238 Y70.8116
 X89.5626 Y71.0515
 X89.5248 Y71.3014
 X89.5099 Y71.5988
 Y79.0585
 X78.5104
 Y71.5991
 X78.4954 Y71.3022
 X78.4576 Y71.0530
 X78.3962 Y70.8139
 X78.3124 Y70.5845
 X78.2074 Y70.3662
 X78.0826 Y70.1604
 X77.9388 Y69.9680
 X77.7769 Y69.7899
 X77.5989 Y69.6281
 X77.4067 Y69.4844
 X77.2008 Y69.3595
 X76.9825 Y69.2546
 X76.7531 Y69.1709
 X76.5138 Y69.1094
 X76.2647 Y69.0715
 X76.0057 Y69.0584
 X75.7467 Y69.0715
 X75.4982 Y69.1093
 X75.2596 Y69.1707
 X75.0313 Y69.2542
 X74.8141 Y69.3588
 X74.6093 Y69.4833
 X74.4179 Y69.6267
 X74.2410 Y69.7880
 X74.0800 Y69.9659
 X73.9368 Y70.1581
 X73.8125 Y70.3640
 X73.7079 Y70.5825
 X73.6245 Y70.8117
 X73.5635 Y71.0512
 X73.5256 Y71.3014
 X73.5107 Y71.5990
 Y79.0585
 X62.5111
 Y71.5988
 X62.4963 Y71.3020
 X62.4583 Y71.0526
 X62.3971 Y70.8134
 X62.3134 Y70.5843
 X62.2084 Y70.3658
 X62.0837 Y70.1600
 X61.9400 Y69.9677
 X61.7782 Y69.7895
 X61.6005 Y69.6279
 X61.4084 Y69.4842
 X61.2026 Y69.3594
 X60.9847 Y69.2545
 X60.7556 Y69.1708
 X60.5163 Y69.1094
 X60.2672 Y69.0715
 X60.0082 Y69.0584
 X59.7487 Y69.0715
 X59.4993 Y69.1094
 X59.2597 Y69.1709
 X59.0305 Y69.2546
 X58.8122 Y69.3595
 X58.6062 Y69.4844
 X58.4141 Y69.6280
 X58.2366 Y69.7895
 X58.0747 Y69.9678
 X57.9308 Y70.1603
 X57.8061 Y70.3659
 X57.7013 Y70.5840
 X57.6177 Y70.8134
 X57.5562 Y71.0530
 X57.5183 Y71.3020
 X57.5035 Y71.5988
 Y79.0585
 X46.5039
 Y71.5990
 X46.4890 Y71.3014
 X46.4511 Y71.0514
 X46.3900 Y70.8116
 X46.3067 Y70.5824
 X46.2021 Y70.3640
 X46.0778 Y70.1581
 X45.9346 Y69.9659
 X45.7736 Y69.7880
 X45.5966 Y69.6267
 X45.4054 Y69.4833
 X45.2006 Y69.3589
 X44.9833 Y69.2542
 X44.7550 Y69.1707
 X44.5164 Y69.1093
 X44.2678 Y69.0715
 X44.0090 Y69.0584
 X43.7499 Y69.0715
 X43.5008 Y69.1094
 X43.2615 Y69.1709
 X43.0321 Y69.2546
 X42.8138 Y69.3595
 X42.6079 Y69.4844
 X42.4157 Y69.6281
 X42.2377 Y69.7899
 X42.0758 Y69.9680
 X41.9320 Y70.1604
 X41.8072 Y70.3662
 X41.7022 Y70.5845
 X41.6184 Y70.8139
 X41.5570 Y71.0530
 X41.5192 Y71.3020
 X41.5043 Y71.5990
 Y79.0585
 X30.5064
 Y71.5990
 X30.4915 Y71.3014
 X30.4537 Y71.0516
 X30.3925 Y70.8120
 X30.3091 Y70.5827
 X30.2044 Y70.3643
 X30.0801 Y70.1584
 X29.9369 Y69.9663
 X29.7757 Y69.7883
 X29.5986 Y69.6269
 X29.4073 Y69.4836
 X29.2021 Y69.3590
 X28.9846 Y69.2542
 X28.7564 Y69.1707
 X28.5176 Y69.1094
 X28.2688 Y69.0715
 X28.0099 Y69.0584
 X27.7508 Y69.0715
 X27.5018 Y69.1094
 X27.2625 Y69.1708
 X27.0335 Y69.2545
 X26.8155 Y69.3594
 X26.6096 Y69.4843
 X26.4174 Y69.6279
 X26.2398 Y69.7895
 X26.0781 Y69.9676
 X25.9343 Y70.1600
 X25.8094 Y70.3661
 X25.7046 Y70.5842
 X25.6211 Y70.8130
 X25.5598 Y71.0526
 X25.5218 Y71.3022
 X25.5069 Y71.5990
 Y79.0585
 X21.5022
 Y82.5786
G0 Z2.0000
 X193.3390 Y80.1300
G1 Z-1.6833
 X193.3546 Y79.5581
 X193.3991 Y78.9785
 X193.4705 Y78.4020
 X193.5732 Y77.8341
 X193.7007 Y77.2785
 X193.8562 Y76.7315
 X194.0369 Y76.1970
 X194.2434 Y75.6732
 X194.4748 Y75.1631
 X194.7288 Y74.6676
 X195.0051 Y74.1876
 X195.3029 Y73.7209
 X195.6254 Y73.2676
 X195.9675 Y72.8341
 X196.3272 Y72.4184
 X196.7084 Y72.0183
 X197.1078 Y71.6383
 X197.5234 Y71.2775
 X197.9584 Y70.9358
 X198.4083 Y70.6157
 X198.8751 Y70.3158
 X199.3580 Y70.0390
 X199.8519 Y69.7854
 X200.3623 Y69.5545
 X200.8857 Y69.3480
 X201.4213 Y69.1673
 X201.9659 Y69.0120
 X202.5247 Y68.8834
 X203.0904 Y68.7823
 X203.6662 Y68.7091
 X204.2491 Y68.6646
 X204.8400 Y68.6498
 X205.4298 Y68.6646
 X206.0139 Y68.7091
 X206.5883 Y68.7823
 X207.1564 Y68.8834
 X207.7130 Y69.0120
 X208.2594 Y69.1672
 X208.7947 Y69.3482
 X209.3177 Y69.5545
 X209.8275 Y69.7851
 X210.3231 Y70.0390
 X210.8048 Y70.3158
 X211.2720 Y70.6152
 X211.7234 Y70.9364
 X212.1557 Y71.2768
 X212.5727 Y71.6369
 X212.9744 Y72.0191
 X213.3545 Y72.4193
 X213.7143 Y72.8351
 X214.0553 Y73.2686
 X214.3764 Y73.7198
 X214.6746 Y74.1853
 X214.9526 Y74.6664
 X215.2078 Y75.1643
 X215.4381 Y75.6745
 X215.6441 Y76.1970
 X215.8252 Y76.7329
 X215.9789 Y77.2771
 X216.1090 Y77.8341
 X216.2093 Y78.4020
 X216.2827 Y78.9755
 X216.3275 Y79.5596
 X216.3420 Y80.1314
 Y100.1629
 X216.3275 Y100.7354
 X216.2827 Y101.3195
 X216.2093 Y101.8938
 X216.1090 Y102.4613
 X215.9788 Y103.0187
 X215.8252 Y103.5622
 X215.6442 Y104.0983
 X215.4381 Y104.6210
 X215.2081 Y105.1306
 X214.9527 Y105.6298
 X214.6743 Y106.1106
 X214.3764 Y106.5759
 X214.0555 Y107.0268
 X213.7146 Y107.4606
 X213.3550 Y107.8763
 X212.9748 Y108.2772
 X212.5724 Y108.6600
 X212.1555 Y109.0196
 X211.7236 Y109.3599
 X211.2719 Y109.6814
 X210.8048 Y109.9804
 X210.3236 Y110.2573
 X209.8272 Y110.5118
 X209.3170 Y110.7421
 X208.7957 Y110.9477
 X208.2606 Y111.1295
 X207.7123 Y111.2853
 X207.1557 Y111.4132
 X206.5889 Y111.5142
 X206.0133 Y111.5879
 X205.4290 Y111.6316
 X204.8590 Y111.6460
 X201.3400
 Y111.6540
 X125.3330
 Y116.6470
 X106.3360
 Y111.6540
 X65.3349
 Y116.6470
 X46.3374
 Y111.6540
 X23.3349
 Y83.6514
 X38.3392
 Y91.1111
 X38.3540 Y91.4081
 X38.3919 Y91.6569
 X38.4534 Y91.8967
 X38.5371 Y92.1262
 X38.6416 Y92.3439
 X38.7665 Y92.5496
 X38.9106 Y92.7426
 X39.0721 Y92.9205
 X39.2495 Y93.0818
 X39.4421 Y93.2257
 X39.6480 Y93.3508
 X39.8656 Y93.4555
 X40.0947 Y93.5392
 X40.3337 Y93.6005
 X40.5828 Y93.6383
 X40.8421 Y93.6514
 X41.1015 Y93.6383
 X41.3502 Y93.6005
 X41.5887 Y93.5393
 X41.8170 Y93.4558
 X42.0341 Y93.3512
 X42.2394 Y93.2264
 X42.4312 Y93.0827
 X42.6081 Y92.9216
 X42.7689 Y92.7440
 X42.9124 Y92.5513
 X43.0369 Y92.3455
 X43.1413 Y92.1273
 X43.2249 Y91.8979
 X43.2860 Y91.6583
 X43.3238 Y91.4086
 X43.3387 Y91.1111
 Y83.6514
 X54.3365
 Y91.1108
 X54.3515 Y91.4077
 X54.3895 Y91.6571
 X54.4508 Y91.8965
 X54.5343 Y92.1252
 X54.6394 Y92.3434
 X54.7644 Y92.5496
 X54.9082 Y92.7420
 X55.0699 Y92.9200
 X55.2478 Y93.0816
 X55.4404 Y93.2256
 X55.6465 Y93.3507
 X55.8644 Y93.4554
 X56.0936 Y93.5391
 X56.3328 Y93.6005
 X56.5818 Y93.6383
 X56.8413 Y93.6514
 X57.1005 Y93.6383
 X57.3492 Y93.6006
 X57.5874 Y93.5393
 X57.8157 Y93.4559
 X58.0325 Y93.3514
 X58.2375 Y93.2266
 X58.4292 Y93.0830
 X58.6058 Y92.9220
 X58.7666 Y92.7442
 X58.9100 Y92.5517
 X59.0344 Y92.3457
 X59.1390 Y92.1275
 X59.2223 Y91.8984
 X59.2835 Y91.6585
 X59.3212 Y91.4088
 X59.3361 Y91.1111
 Y83.6514
 X70.3439
 Y91.1113
 X70.3587 Y91.4088
 X70.3965 Y91.6583
 X70.4577 Y91.8982
 X70.5411 Y92.1275
 X70.6456 Y92.3457
 X70.7700 Y92.5516
 X70.9134 Y92.7441
 X71.0742 Y92.9218
 X71.2509 Y93.0828
 X71.4428 Y93.2265
 X71.6478 Y93.3512
 X71.8647 Y93.4557
 X72.0933 Y93.5392
 X72.3320 Y93.6005
 X72.5808 Y93.6383
 X72.8406 Y93.6514
 X73.0999 Y93.6383
 X73.3489 Y93.6005
 X73.5879 Y93.5392
 X73.8168 Y93.4556
 X74.0346 Y93.3507
 X74.2406 Y93.2257
 X74.4331 Y93.0818
 X74.6106 Y92.9204
 X74.7721 Y92.7426
 X74.9161 Y92.5497
 X75.0410 Y92.3437
 X75.1457 Y92.1260
 X75.2293 Y91.8967
 X75.2907 Y91.6571
 X75.3286 Y91.4081
 X75.3435 Y91.1110
 Y83.6514
 X86.3431
 Y91.1111
 X86.3580 Y91.4090
 X86.3957 Y91.6585
 X86.4569 Y91.8982
 X86.5403 Y92.1278
 X86.6446 Y92.3457
 X86.7691 Y92.5516
 X86.9125 Y92.7442
 X87.0732 Y92.9218
 X87.2502 Y93.0830
 X87.4418 Y93.2267
 X87.6466 Y93.3513
 X87.8635 Y93.4558
 X88.0918 Y93.5393
 X88.3301 Y93.6006
 X88.5786 Y93.6383
 X88.8379 Y93.6514
 X89.0974 Y93.6383
 X89.3464 Y93.6005
 X89.5855 Y93.5391
 X89.8147 Y93.4554
 X90.0327 Y93.3506
 X90.2386 Y93.2256
 X90.4314 Y93.0815
 X90.6092 Y92.9200
 X90.7708 Y92.7421
 X90.9149 Y92.5493
 X91.0400 Y92.3433
 X91.1447 Y92.1255
 X91.2284 Y91.8965
 X91.2897 Y91.6571
 X91.3276 Y91.4079
 X91.3426 Y91.1108
 Y83.6514
 X102.3420
 Y91.1102
 X102.3573 Y91.4083
 X102.3950 Y91.6589
 X102.4560 Y91.8980
 X102.5399 Y92.1285
 X102.6437 Y92.3460
 X102.7682 Y92.5516
 X102.9112 Y92.7440
 X103.0723 Y92.9215
 X103.2498 Y93.0834
 X103.4404 Y93.2264
 X103.6459 Y93.3512
 X103.8627 Y93.4558
 X104.0913 Y93.5393
 X104.3293 Y93.6006
 X104.5777 Y93.6383
 X104.8370 Y93.6514
 X105.0963 Y93.6383
 X105.3452 Y93.6005
 X105.5841 Y93.5392
 X105.8131 Y93.4555
 X106.0308 Y93.3508
 X106.2366 Y93.2258
 X106.4292 Y93.0819
 X106.6077 Y92.9195
 X106.7697 Y92.7417
 X106.9126 Y92.5502
 X107.0372 Y92.3445
 X107.1417 Y92.1268
 X107.2256 Y91.8963
 X107.2872 Y91.6571
 X107.3247 Y91.4083
 X107.3400 Y91.1102
 Y83.6514
 X118.3400
 Y91.1121
 X118.3544 Y91.4083
 X118.3926 Y91.6571
 X118.4536 Y91.8963
 X118.5375 Y92.1252
 X118.6420 Y92.3430
 X118.7674 Y92.5489
 X118.9121 Y92.7428
 X119.0734 Y92.9205
 X119.2508 Y93.0819
 X119.4426 Y93.2252
 X119.6493 Y93.3503
 X119.8679 Y93.4555
 X120.0969 Y93.5392
 X120.3358 Y93.6005
 X120.5847 Y93.6383
 X120.8440 Y93.6514
 X121.1033 Y93.6383
 X121.3522 Y93.6005
 X121.5905 Y93.5393
 X121.8185 Y93.4558
 X122.0359 Y93.3512
 X122.2398 Y93.2270
 X122.4323 Y93.0826
 X122.6096 Y92.9215
 X122.7689 Y92.7452
 X122.9128 Y92.5516
 X123.0382 Y92.3445
 X123.1419 Y92.1285
 X123.2245 Y91.8998
 X123.2864 Y91.6571
 X123.3246 Y91.4083
 X123.3390 Y91.1121
 Y83.6514
 X134.3390
 Y91.1121
 X134.3534 Y91.4083
 X134.3916 Y91.6571
 X134.4526 Y91.8963
 X134.5365 Y92.1252
 X134.6418 Y92.3445
 X134.7664 Y92.5502
 X134.9101 Y92.7428
 X135.0714 Y92.9205
 X135.2488 Y93.0819
 X135.4406 Y93.2252
 X135.6473 Y93.3503
 X135.8659 Y93.4555
 X136.0949 Y93.5392
 X136.3338 Y93.6005
 X136.5827 Y93.6383
 X136.8420 Y93.6514
 X137.1013 Y93.6383
 X137.3497 Y93.6006
 X137.5877 Y93.5393
 X137.8171 Y93.4555
 X138.0348 Y93.3508
 X138.2396 Y93.2264
 X138.4302 Y93.0834
 X138.6077 Y92.9215
 X138.7688 Y92.7440
 X138.9118 Y92.5516
 X139.0363 Y92.3460
 X139.1409 Y92.1268
 X139.2248 Y91.8980
 X139.2851 Y91.6589
 X139.3238 Y91.4064
 X139.3390 Y91.1102
 Y83.6514
 X150.3360
 Y91.1102
 X150.3512 Y91.4064
 X150.3899 Y91.6589
 X150.4502 Y91.8980
 X150.5335 Y92.1252
 X150.6380 Y92.3430
 X150.7626 Y92.5476
 X150.9081 Y92.7417
 X151.0704 Y92.9205
 X151.2478 Y93.0819
 X151.4396 Y93.2252
 X151.6463 Y93.3503
 X151.8649 Y93.4555
 X152.0939 Y93.5392
 X152.3328 Y93.6005
 X152.5816 Y93.6383
 X152.8418 Y93.6514
 X153.1002 Y93.6383
 X153.3492 Y93.6005
 X153.5881 Y93.5392
 X153.8171 Y93.4555
 X154.0357 Y93.3503
 X154.2424 Y93.2252
 X154.4342 Y93.0819
 X154.6116 Y92.9205
 X154.7739 Y92.7417
 X154.9174 Y92.5502
 X155.0423 Y92.3430
 X155.1481 Y92.1252
 X155.2301 Y91.8981
 X155.2927 Y91.6553
 X155.3308 Y91.4064
 X155.3460 Y91.1102
 Y83.6514
 X166.3430
 Y91.1102
 X166.3583 Y91.4083
 X166.3960 Y91.6589
 X166.4570 Y91.8980
 X166.5403 Y92.1268
 X166.6448 Y92.3445
 X166.7702 Y92.5516
 X166.9141 Y92.7452
 X167.0743 Y92.9225
 X167.2499 Y93.0826
 X167.4414 Y93.2258
 X167.6472 Y93.3508
 X167.8661 Y93.4561
 X168.0927 Y93.5393
 X168.3316 Y93.6005
 X168.5799 Y93.6383
 X168.8399 Y93.6514
 X169.0996 Y93.6383
 X169.3490 Y93.6005
 X169.5867 Y93.5393
 X169.8161 Y93.4555
 X170.0347 Y93.3503
 X170.2414 Y93.2252
 X170.4321 Y93.0826
 X170.6098 Y92.9205
 X170.7727 Y92.7417
 X170.9156 Y92.5502
 X171.0402 Y92.3445
 X171.1455 Y92.1252
 X171.2300 Y91.8946
 X171.2908 Y91.6589
 X171.3276 Y91.4101
 X171.3430 Y91.1102
 Y83.6514
 X182.3430
 Y91.1102
 X182.3583 Y91.4083
 X182.3963 Y91.6607
 X182.4562 Y91.8980
 X182.5407 Y92.1285
 X182.6446 Y92.3475
 X182.7682 Y92.5516
 X182.9103 Y92.7428
 X183.0722 Y92.9205
 X183.2508 Y93.0834
 X183.4422 Y93.2270
 X183.6461 Y93.3512
 X183.8635 Y93.4558
 X184.0920 Y93.5395
 X184.3290 Y93.6005
 X184.5785 Y93.6383
 X184.8371 Y93.6514
 X185.0966 Y93.6383
 X185.3469 Y93.6004
 X185.5865 Y93.5390
 X185.8151 Y93.4555
 X186.0319 Y93.3512
 X186.2368 Y93.2264
 X186.4312 Y93.0811
 X186.6095 Y92.9195
 X186.7709 Y92.7417
 X186.9154 Y92.5489
 X187.0392 Y92.3445
 X187.1445 Y92.1252
 X187.2284 Y91.8963
 X187.2894 Y91.6571
 X187.3276 Y91.4083
 X187.3420 Y91.1121
 Y83.6514
 X193.3390
 Y80.1300
G0 Z2.0000
 Y10.1315
G1 Z-1.6833
 X193.3546 Y9.5594
 X193.3991 Y8.9796
 X193.4705 Y8.4031
 X193.5731 Y7.8351
 X193.7006 Y7.2793
 X193.8562 Y6.7324
 X194.0368 Y6.1978
 X194.2434 Y5.6737
 X194.4748 Y5.1636
 X194.7287 Y4.6681
 X195.0050 Y4.1878
 X195.3029 Y3.7211
 X195.6253 Y3.2680
 X195.9673 Y2.8343
 X196.3272 Y2.4183
 X196.7084 Y2.0183
 X197.1077 Y1.6384
 X197.5233 Y1.2773
 X197.9584 Y0.9355
 X198.4084 Y0.6155
 X198.8750 Y0.3156
 X199.3578 Y0.0388
 X199.8519 Y-0.2150
 X200.3624 Y-0.4459
 X200.8856 Y-0.6522
 X201.4214 Y-0.8331
 X201.9659 Y-0.9882
 X202.5245 Y-1.1169
 X203.0904 Y-1.2180
 X203.6664 Y-1.2912
 X204.2490 Y-1.3356
 X204.8400 Y-1.3505
 X205.4299 Y-1.3356
 X206.0137 Y-1.2912
 X206.5883 Y-1.2181
 X207.1566 Y-1.1169
 X207.7129 Y-0.9882
 X208.2593 Y-0.8332
 X208.7948 Y-0.6521
 X209.3176 Y-0.4459
 X209.8275 Y-0.2153
 X210.3233 Y0.0388
 X210.8049 Y0.3156
 X211.2719 Y0.6150
 X211.7233 Y0.9361
 X212.1558 Y1.2767
 X212.5729 Y1.6369
 X212.9745 Y2.0191
 X213.3545 Y2.4192
 X213.7145 Y2.8352
 X214.0555 Y3.2690
 X214.3763 Y3.7200
 X214.6746 Y4.1855
 X214.9527 Y4.6669
 X215.2079 Y5.1648
 X215.4382 Y5.6750
 X215.6442 Y6.1978
 X215.8253 Y6.7337
 X215.9789 Y7.2779
 X216.1090 Y7.8351
 X216.2093 Y8.4031
 X216.2827 Y8.9767
 X216.3275 Y9.5609
 X216.3420 Y10.1330
 Y30.1631
 X216.3275 Y30.7353
 X216.2827 Y31.3194
 X216.2093 Y31.8929
 X216.1090 Y32.4609
 X215.9789 Y33.0181
 X215.8253 Y33.5623
 X215.6442 Y34.0985
 X215.4382 Y34.6211
 X215.2079 Y35.1313
 X214.9527 Y35.6292
 X214.6746 Y36.1107
 X214.3763 Y36.5760
 X214.0555 Y37.0271
 X213.7144 Y37.4609
 X213.3545 Y37.8768
 X212.9745 Y38.2769
 X212.5730 Y38.6590
 X212.1559 Y39.0194
 X211.7233 Y39.3601
 X211.2720 Y39.6811
 X210.8050 Y39.9805
 X210.3231 Y40.2574
 X209.8275 Y40.5113
 X209.3177 Y40.7419
 X208.7947 Y40.9482
 X208.2594 Y41.1292
 X207.7130 Y41.2844
 X207.1564 Y41.4130
 X206.5882 Y41.5141
 X206.0139 Y41.5872
 X205.4300 Y41.6318
 X204.8588 Y41.6461
 X125.3330
 Y46.6372
 X106.3360
 Y41.6461
 X65.3349
 Y46.6372
 X46.3374
 Y41.6461
 X23.3349
 Y13.6429
 X42.3340
 Y21.1025
 X42.3489 Y21.3996
 X42.3868 Y21.6488
 X42.4482 Y21.8882
 X42.5318 Y22.1173
 X42.6367 Y22.3356
 X42.7615 Y22.5414
 X42.9054 Y22.7341
 X43.0669 Y22.9119
 X43.2445 Y23.0733
 X43.4372 Y23.2173
 X43.6429 Y23.3422
 X43.8610 Y23.4470
 X44.0902 Y23.5307
 X44.3296 Y23.5920
 X44.5793 Y23.6300
 X44.8387 Y23.6431
 X45.0975 Y23.6300
 X45.3465 Y23.5921
 X45.5852 Y23.5309
 X45.8131 Y23.4475
 X46.0300 Y23.3430
 X46.2348 Y23.2184
 X46.4264 Y23.0747
 X46.6034 Y22.9134
 X46.7641 Y22.7359
 X46.9074 Y22.5434
 X47.0318 Y22.3375
 X47.1363 Y22.1194
 X47.2196 Y21.8899
 X47.2809 Y21.6499
 X47.3187 Y21.4002
 X47.3336 Y21.1026
 Y13.6429
 X58.3332
 Y21.1025
 X58.3481 Y21.3996
 X58.3860 Y21.6488
 X58.4474 Y21.8882
 X58.5311 Y22.1176
 X58.6357 Y22.3356
 X58.7606 Y22.5414
 X58.9046 Y22.7342
 X59.0661 Y22.9120
 X59.2438 Y23.0736
 X59.4362 Y23.2175
 X59.6418 Y23.3424
 X59.8596 Y23.4471
 X60.0886 Y23.5308
 X60.3277 Y23.5920
 X60.5771 Y23.6300
 X60.8361 Y23.6431
 X61.0950 Y23.6300
 X61.3440 Y23.5921
 X61.5824 Y23.5309
 X61.8105 Y23.4474
 X62.0276 Y23.3429
 X62.2324 Y23.2183
 X62.4239 Y23.0748
 X62.6007 Y22.9135
 X62.7618 Y22.7357
 X62.9049 Y22.5434
 X63.0293 Y22.3375
 X63.1338 Y22.1194
 X63.2171 Y21.8899
 X63.2784 Y21.6499
 X63.3162 Y21.4002
 X63.3311 Y21.1026
 Y13.6429
 X74.3406
 Y21.1028
 X74.3554 Y21.4004
 X74.3932 Y21.6501
 X74.4544 Y21.8899
 X74.5378 Y22.1194
 X74.6422 Y22.3375
 X74.7667 Y22.5434
 X74.9100 Y22.7361
 X75.0706 Y22.9134
 X75.2475 Y23.0747
 X75.4392 Y23.2184
 X75.6439 Y23.3429
 X75.8610 Y23.4474
 X76.0891 Y23.5309
 X76.3276 Y23.5921
 X76.5765 Y23.6300
 X76.8353 Y23.6431
 X77.0943 Y23.6300
 X77.3437 Y23.5921
 X77.5828 Y23.5308
 X77.8118 Y23.4471
 X78.0297 Y23.3423
 X78.2353 Y23.2175
 X78.4278 Y23.0736
 X78.6056 Y22.9119
 X78.7670 Y22.7342
 X78.9108 Y22.5415
 X79.0356 Y22.3357
 X79.1406 Y22.1173
 X79.2242 Y21.8881
 X79.2855 Y21.6488
 X79.3235 Y21.3996
 X79.3383 Y21.1026
 Y13.6429
 X90.3379
 Y21.1028
 X90.3527 Y21.4004
 X90.3905 Y21.6499
 X90.4518 Y21.8899
 X90.5351 Y22.1194
 X90.6396 Y22.3375
 X90.7639 Y22.5433
 X90.9073 Y22.7358
 X91.0682 Y22.9136
 X91.2449 Y23.0747
 X91.4365 Y23.2183
 X91.6413 Y23.3429
 X91.8584 Y23.4475
 X92.0864 Y23.5309
 X92.3249 Y23.5921
 X92.5739 Y23.6300
 X92.8328 Y23.6431
 X93.0922 Y23.6300
 X93.3419 Y23.5920
 X93.5813 Y23.5307
 X93.8105 Y23.4470
 X94.0286 Y23.3422
 X94.2342 Y23.2174
 X94.4268 Y23.0734
 X94.6047 Y22.9117
 X94.7661 Y22.7341
 X94.9100 Y22.5414
 X95.0349 Y22.3354
 X95.1397 Y22.1174
 X95.2233 Y21.8882
 X95.2847 Y21.6488
 X95.3226 Y21.3996
 X95.3375 Y21.1025
 Y13.6429
 X106.3370
 Y21.1017
 X106.3523 Y21.3998
 X106.3900 Y21.6506
 X106.4510 Y21.8895
 X106.5349 Y22.1201
 X106.6387 Y22.3378
 X106.7632 Y22.5433
 X106.9061 Y22.7356
 X107.0673 Y22.9131
 X107.2449 Y23.0752
 X107.4362 Y23.2187
 X107.6399 Y23.3428
 X107.8575 Y23.4474
 X108.0854 Y23.5310
 X108.3238 Y23.5921
 X108.5731 Y23.6300
 X108.8320 Y23.6431
 X109.0909 Y23.6300
 X109.3402 Y23.5921
 X109.5793 Y23.5308
 X109.8089 Y23.4469
 X110.0277 Y23.3420
 X110.2326 Y23.2175
 X110.4250 Y23.0736
 X110.6026 Y22.9121
 X110.7650 Y22.7333
 X110.9094 Y22.5406
 X111.0341 Y22.3348
 X111.1393 Y22.1168
 X111.2220 Y21.8895
 X111.2834 Y21.6488
 X111.3218 Y21.3980
 X111.3370 Y21.1017
 Y13.6429
 X122.3350
 Y21.1036
 X122.3494 Y21.3998
 X122.3876 Y21.6488
 X122.4486 Y21.8878
 X122.5326 Y22.1168
 X122.6378 Y22.3363
 X122.7616 Y22.5406
 X122.9060 Y22.7333
 X123.0684 Y22.9121
 X123.2460 Y23.0736
 X123.4376 Y23.2169
 X123.6441 Y23.3420
 X123.8629 Y23.4472
 X124.0917 Y23.5308
 X124.3308 Y23.5921
 X124.5801 Y23.6300
 X124.8390 Y23.6431
 X125.0979 Y23.6300
 X125.3472 Y23.5921
 X125.5856 Y23.5310
 X125.8135 Y23.4474
 X126.0311 Y23.3428
 X126.2348 Y23.2187
 X126.4272 Y23.0744
 X126.6046 Y22.9131
 X126.7640 Y22.7368
 X126.9078 Y22.5433
 X127.0332 Y22.3363
 X127.1369 Y22.1201
 X127.2195 Y21.8913
 X127.2810 Y21.6506
 X127.3187 Y21.3998
 X127.3340 Y21.1017
 Y13.6429
 X138.3340
 Y21.1036
 X138.3484 Y21.3998
 X138.3866 Y21.6488
 X138.4476 Y21.8878
 X138.5316 Y22.1168
 X138.6368 Y22.3363
 X138.7606 Y22.5406
 X138.9050 Y22.7333
 X139.0674 Y22.9121
 X139.2450 Y23.0736
 X139.4366 Y23.2169
 X139.6431 Y23.3420
 X139.8619 Y23.4472
 X140.0903 Y23.5306
 X140.3306 Y23.5921
 X140.5793 Y23.6300
 X140.8389 Y23.6431
 X141.0976 Y23.6300
 X141.3464 Y23.5921
 X141.5854 Y23.5310
 X141.8119 Y23.4477
 X142.0301 Y23.3428
 X142.2338 Y23.2187
 X142.4262 Y23.0744
 X142.6036 Y22.9131
 X142.7641 Y22.7356
 X142.9076 Y22.5433
 X143.0314 Y22.3378
 X143.1359 Y22.1201
 X143.2192 Y21.8896
 X143.2812 Y21.6488
 X143.3185 Y21.4017
 X143.3330 Y21.1036
 Y13.6429
 X154.3330
 Y21.1036
 X154.3474 Y21.3998
 X154.3853 Y21.6470
 X154.4474 Y21.8878
 X154.5313 Y22.1184
 X154.6358 Y22.3363
 X154.7596 Y22.5406
 X154.9049 Y22.7344
 X155.0656 Y22.9121
 X155.2429 Y23.0729
 X155.4372 Y23.2181
 X155.6419 Y23.3428
 X155.8589 Y23.4472
 X156.0873 Y23.5306
 X156.3276 Y23.5921
 X156.5763 Y23.6300
 X156.8359 Y23.6431
 X157.0949 Y23.6300
 X157.3442 Y23.5921
 X157.5833 Y23.5308
 X157.8121 Y23.4472
 X158.0300 Y23.3424
 X158.2366 Y23.2169
 X158.4299 Y23.0729
 X158.6077 Y22.9111
 X158.7698 Y22.7333
 X158.9126 Y22.5419
 X159.0372 Y22.3363
 X159.1424 Y22.1168
 X159.2271 Y21.8861
 X159.2878 Y21.6506
 X159.3246 Y21.4017
 X159.3400 Y21.1017
 Y13.6429
 X170.3400
 Y21.1017
 X170.3553 Y21.3998
 X170.3930 Y21.6506
 X170.4540 Y21.8895
 X170.5373 Y22.1184
 X170.6433 Y22.3394
 X170.7664 Y22.5446
 X170.9081 Y22.7344
 X171.0703 Y22.9131
 X171.2479 Y23.0752
 X171.4392 Y23.2187
 X171.6429 Y23.3428
 X171.8605 Y23.4474
 X172.0879 Y23.5308
 X172.3276 Y23.5921
 X172.5764 Y23.6300
 X172.8349 Y23.6431
 X173.0931 Y23.6300
 X173.3439 Y23.5919
 X173.5837 Y23.5306
 X173.8121 Y23.4472
 X174.0291 Y23.3428
 X174.2338 Y23.2181
 X174.4281 Y23.0729
 X174.6054 Y22.9121
 X174.7661 Y22.7344
 X174.9114 Y22.5406
 X175.0352 Y22.3363
 X175.1397 Y22.1184
 X175.2236 Y21.8878
 X175.2857 Y21.6470
 X175.3233 Y21.4016
 X175.3370 Y21.1054
 Y13.6429
 X186.3370
 Y21.1017
 X186.3523 Y21.3998
 X186.3898 Y21.6488
 X186.4518 Y21.8896
 X186.5351 Y22.1201
 X186.6396 Y22.3378
 X186.7634 Y22.5433
 X186.9069 Y22.7356
 X187.0674 Y22.9131
 X187.2457 Y23.0752
 X187.4364 Y23.2187
 X187.6400 Y23.3424
 X187.8591 Y23.4477
 X188.0856 Y23.5310
 X188.3246 Y23.5921
 X188.5734 Y23.6300
 X188.8321 Y23.6431
 X189.0923 Y23.6300
 X189.3420 Y23.5921
 X189.5798 Y23.5310
 X189.8099 Y23.4469
 X190.0287 Y23.3420
 X190.2336 Y23.2175
 X190.4271 Y23.0729
 X190.6055 Y22.9111
 X190.7649 Y22.7356
 X190.9098 Y22.5406
 X191.0366 Y22.3333
 X191.1389 Y22.1201
 X191.2222 Y21.8896
 X191.2847 Y21.6470
 X191.3226 Y21.3998
 X191.3370 Y21.1036
 Y13.6429
 X193.3390
 Y10.1315
G0 Z2.0000
 X10.0020 Y155.0610
G1 Z-3.3667
 X10.2600 Y155.0478
 X10.5078 Y155.0103
 X10.7461 Y154.9488
 X10.9731 Y154.8661
 X11.1912 Y154.7601
 X11.3974 Y154.6352
 X11.5903 Y154.4900
 X11.7716 Y154.3255
 X11.9325 Y154.1493
 X12.0760 Y153.9570
 X12.2018 Y153.7501
 X12.3068 Y153.5321
 X12.3906 Y153.3034
 X12.4520 Y153.0645
 X12.4900 Y152.8154
 X12.5031 Y152.5580
 X12.4900 Y152.3011
 X12.4521 Y152.0541
 X12.3906 Y151.8146
 X12.3074 Y151.5874
 X12.2031 Y151.3723
 X12.0767 Y151.1648
 X11.9325 Y150.9717
 X11.7726 Y150.7966
 X11.5926 Y150.6340
 X11.3987 Y150.4886
 X11.1942 Y150.3647
 X10.9780 Y150.2609
 X10.7479 Y150.1777
 X10.5060 Y150.1152
 X10.2600 Y150.0774
 X10.0020 Y150.0648
 X9.7436 Y150.0774
 X9.4977 Y150.1152
 X9.2561 Y150.1776
 X9.0267 Y150.2606
 X8.8113 Y150.3642
 X8.6075 Y150.4879
 X8.4143 Y150.6330
 X8.2351 Y150.7953
 X8.0759 Y150.9701
 X7.9324 Y151.1631
 X7.8063 Y151.3705
 X7.7023 Y151.5857
 X7.6194 Y151.8131
 X7.5579 Y152.0530
 X7.5202 Y152.3003
 X7.5072 Y152.5580
 X7.5202 Y152.8163
 X7.5581 Y153.0655
 X7.6194 Y153.3049
 X7.7029 Y153.5339
 X7.8076 Y153.7519
 X7.9330 Y153.9588
 X8.0759 Y154.1509
 X8.2361 Y154.3268
 X8.4166 Y154.4910
 X8.6088 Y154.6359
 X8.8143 Y154.7606
 X9.0316 Y154.8663
 X9.2578 Y154.9489
 X9.4959 Y155.0104
 X9.7436 Y155.0478
 X10.0020 Y155.0610
G0 Z2.0000
 Y85.0606
G1 Z-3.3667
 X10.2593 Y85.0476
 X10.5071 Y85.0097
 X10.7453 Y84.9484
 X10.9741 Y84.8645
 X11.1922 Y84.7594
 X11.3984 Y84.6340
 X11.5915 Y84.4896
 X11.7698 Y84.3274
 X11.9321 Y84.1490
 X12.0765 Y83.9560
 X12.2018 Y83.7498
 X12.3070 Y83.5316
 X12.3907 Y83.3031
 X12.4521 Y83.0647
 X12.4900 Y82.8167
 X12.5031 Y82.5596
 X12.4900 Y82.3022
 X12.4521 Y82.0543
 X12.3908 Y81.8162
 X12.3072 Y81.5882
 X12.2023 Y81.3709
 X12.0772 Y81.1654
 X11.9330 Y80.9731
 X11.7710 Y80.7953
 X11.5931 Y80.6339
 X11.4003 Y80.4902
 X11.1940 Y80.3652
 X10.9760 Y80.2605
 X10.7470 Y80.1769
 X10.5080 Y80.1156
 X10.2598 Y80.0778
 X10.0020 Y80.0648
 X9.7438 Y80.0778
 X9.4957 Y80.1156
 X9.2570 Y80.1769
 X9.0286 Y80.2602
 X8.8115 Y80.3647
 X8.6059 Y80.4895
 X8.4138 Y80.6329
 X8.2367 Y80.7939
 X8.0755 Y80.9714
 X7.9318 Y81.1636
 X7.8071 Y81.3691
 X7.7025 Y81.5865
 X7.6192 Y81.8147
 X7.5580 Y82.0532
 X7.5202 Y82.3013
 X7.5072 Y82.5596
 X7.5202 Y82.8175
 X7.5580 Y83.0658
 X7.6192 Y83.3046
 X7.7027 Y83.5333
 X7.8076 Y83.7516
 X7.9325 Y83.9578
 X8.0763 Y84.1506
 X8.2379 Y84.3288
 X8.4155 Y84.4906
 X8.6077 Y84.6347
 X8.8133 Y84.7598
 X9.0306 Y84.8647
 X9.2587 Y84.9484
 X9.4966 Y85.0097
 X9.7443 Y85.0475
 X10.0020 Y85.0606
G0 Z2.0000
 X204.8400 Y77.6493
G1 Z-3.3667
 X204.5826 Y77.6624
 X204.3340 Y77.7003
 X204.0962 Y77.7616
 X203.8669 Y77.8456
 X203.6498 Y77.9502
 X203.4438 Y78.0758
 X203.2496 Y78.2208
 X203.0716 Y78.3828
 X202.9093 Y78.5609
 X202.7664 Y78.7524
 X202.6399 Y78.9612
 X202.5339 Y79.1794
 X202.4512 Y79.4062
 X202.3892 Y79.6464
 X202.3511 Y79.8942
 X202.3380 Y80.1504
 X202.3511 Y80.4069
 X202.3892 Y80.6546
 X202.4511 Y80.8945
 X202.5337 Y81.1207
 X202.6394 Y81.3380
 X202.7657 Y81.5462
 X202.9082 Y81.7368
 X203.0702 Y81.9142
 X203.2480 Y82.0756
 X203.4421 Y82.2200
 X203.6482 Y82.3453
 X203.8651 Y82.4495
 X204.0945 Y82.5331
 X204.3331 Y82.5944
 X204.5818 Y82.6322
 X204.8400 Y82.6452
 X205.0979 Y82.6322
 X205.3456 Y82.5945
 X205.5845 Y82.5331
 X205.8131 Y82.4498
 X206.0291 Y82.3457
 X206.2349 Y82.2206
 X206.4281 Y82.0764
 X206.6057 Y81.9152
 X206.7658 Y81.7391
 X206.9084 Y81.5476
 X207.0338 Y81.3410
 X207.1389 Y81.1224
 X207.2233 Y80.8928
 X207.2839 Y80.6582
 X207.3207 Y80.4106
 X207.3340 Y80.1504
 X207.3207 Y79.8905
 X207.2839 Y79.6428
 X207.2232 Y79.4079
 X207.1387 Y79.1777
 X207.0333 Y78.9582
 X206.9078 Y78.7510
 X206.7648 Y78.5586
 X206.6043 Y78.3818
 X206.4266 Y78.2200
 X206.2332 Y78.0752
 X206.0275 Y77.9497
 X205.8114 Y77.8453
 X205.5828 Y77.7616
 X205.3447 Y77.7003
 X205.0972 Y77.6624
 X204.8400 Y77.6493
G0 Z2.0000
 Y7.6491
G1 Z-3.3667
 X204.5824 Y7.6621
 X204.3341 Y7.7000
 X204.0962 Y7.7613
 X203.8669 Y7.8453
 X203.6499 Y7.9499
 X203.4440 Y8.0755
 X203.2497 Y8.2205
 X203.0717 Y8.3825
 X202.9095 Y8.5606
 X202.7666 Y8.7523
 X202.6400 Y8.9614
 X202.5340 Y9.1795
 X202.4513 Y9.4066
 X202.3892 Y9.6471
 X202.3511 Y9.8953
 X202.3380 Y10.1519
 X202.3511 Y10.4080
 X202.3891 Y10.6554
 X202.4511 Y10.8950
 X202.5336 Y11.1210
 X202.6392 Y11.3381
 X202.7655 Y11.5461
 X202.9082 Y11.7367
 X203.0701 Y11.9142
 X203.2478 Y12.0753
 X203.4420 Y12.2198
 X203.6479 Y12.3449
 X203.8651 Y12.4492
 X204.0945 Y12.5329
 X204.3331 Y12.5941
 X204.5818 Y12.6320
 X204.8400 Y12.6449
 X205.0979 Y12.6320
 X205.3456 Y12.5942
 X205.5845 Y12.5329
 X205.8132 Y12.4495
 X206.0294 Y12.3453
 X206.2350 Y12.2204
 X206.4283 Y12.0761
 X206.6058 Y11.9151
 X206.7659 Y11.7391
 X206.9087 Y11.5474
 X207.0339 Y11.3411
 X207.1390 Y11.1227
 X207.2234 Y10.8932
 X207.2839 Y10.6589
 X207.3207 Y10.4117
 X207.3340 Y10.1519
 X207.3207 Y9.8916
 X207.2838 Y9.6435
 X207.2232 Y9.4084
 X207.1386 Y9.1779
 X207.0332 Y8.9584
 X206.9076 Y8.7510
 X206.7645 Y8.5583
 X206.6042 Y8.3815
 X206.4264 Y8.2197
 X206.2330 Y8.0749
 X206.0274 Y7.9494
 X205.8113 Y7.8450
 X205.5828 Y7.7613
 X205.3446 Y7.6999
 X205.0973 Y7.6621
 X204.8400 Y7.6491
G0 Z2.0000
 X21.5022 Y152.5770
G1 Z-3.3667
 X21.4878 Y153.1477
 X21.4434 Y153.7326
 X21.3701 Y154.3077
 X21.2689 Y154.8750
 X21.1403 Y155.4308
 X20.9854 Y155.9774
 X20.8041 Y156.5129
 X20.5981 Y157.0354
 X20.3674 Y157.5455
 X20.1133 Y158.0413
 X19.8365 Y158.5228
 X19.5373 Y158.9898
 X19.2162 Y159.4413
 X18.8755 Y159.8739
 X18.5152 Y160.2909
 X18.1333 Y160.6923
 X17.7342 Y161.0716
 X17.3172 Y161.4336
 X16.8824 Y161.7741
 X16.4337 Y162.0935
 X15.9671 Y162.3936
 X15.4847 Y162.6713
 X14.9879 Y162.9258
 X14.4780 Y163.1561
 X13.9553 Y163.3621
 X13.4194 Y163.5432
 X12.8753 Y163.6969
 X12.3183 Y163.8270
 X11.7504 Y163.9273
 X11.1769 Y164.0007
 X10.5928 Y164.0455
 X10.0020 Y164.0605
 X9.4108 Y164.0455
 X8.8267 Y164.0007
 X8.2531 Y163.9274
 X7.6851 Y163.8270
 X7.1279 Y163.6969
 X6.5837 Y163.5432
 X6.0477 Y163.3622
 X5.5250 Y163.1562
 X5.0148 Y162.9259
 X4.5181 Y162.6713
 X4.0355 Y162.3937
 X3.5690 Y162.0936
 X3.1200 Y161.7741
 X2.6852 Y161.4336
 X2.2683 Y161.0717
 X1.8692 Y160.6925
 X1.4870 Y160.2909
 X1.1267 Y159.8738
 X0.7861 Y159.4413
 X0.4650 Y158.9899
 X0.1656 Y158.5229
 X-0.1112 Y158.0412
 X-0.3652 Y157.5455
 X-0.5958 Y157.0356
 X-0.8021 Y156.5128
 X-0.9832 Y155.9773
 X-1.1382 Y155.4310
 X-1.2668 Y154.8749
 X-1.3680 Y154.3075
 X-1.4412 Y153.7325
 X-1.4856 Y153.1477
 X-1.5000 Y152.5769
 Y132.5471
 X-1.4856 Y131.9752
 X-1.4412 Y131.3913
 X-1.3680 Y130.8165
 X-1.2669 Y130.2494
 X-1.1382 Y129.6919
 X-0.9830 Y129.1463
 X-0.8021 Y128.6112
 X-0.5958 Y128.0884
 X-0.3655 Y127.5791
 X-0.1112 Y127.0817
 X0.1661 Y126.6005
 X0.4650 Y126.1341
 X0.7855 Y125.6834
 X1.1267 Y125.2491
 X1.4877 Y124.8324
 X1.8684 Y124.4324
 X2.2683 Y124.0512
 X2.6852 Y123.6905
 X3.1190 Y123.3496
 X3.5701 Y123.0286
 X4.0367 Y122.7297
 X4.5181 Y122.4527
 X5.0148 Y122.1981
 X5.5250 Y121.9678
 X6.0477 Y121.7618
 X6.5823 Y121.5812
 X7.1279 Y121.4260
 X7.6851 Y121.2971
 X8.2517 Y121.1958
 X8.8282 Y121.1221
 X9.4123 Y121.0784
 X9.9831 Y121.0640
 X89.5086
 Y116.0730
 X108.5060
 Y121.0640
 X149.5070
 Y116.0730
 X168.5040
 Y121.0640
 X191.5070
 Y149.0670
 X178.5060
 Y141.6075
 X178.4908 Y141.3122
 X178.4527 Y141.0628
 X178.3904 Y140.8216
 X178.3082 Y140.5942
 X178.2027 Y140.3770
 X178.0762 Y140.1676
 X177.9316 Y139.9740
 X177.7720 Y139.7970
 X177.5958 Y139.6375
 X177.4020 Y139.4928
 X177.1954 Y139.3674
 X176.9784 Y139.2632
 X176.7485 Y139.1795
 X176.5084 Y139.1177
 X176.2603 Y139.0803
 X176.0001 Y139.0670
 X175.7405 Y139.0803
 X175.4918 Y139.1177
 X175.2542 Y139.1790
 X175.0258 Y139.2626
 X174.8094 Y139.3665
 X174.6056 Y139.4910
 X174.4121 Y139.6359
 X174.2349 Y139.7970
 X174.0746 Y139.9740
 X173.9326 Y140.1649
 X173.8078 Y140.3726
 X173.7014 Y140.5942
 X173.6180 Y140.8216
 X173.5583 Y141.0574
 X173.5205 Y141.3085
 X173.5060 Y141.6057
 Y149.0670
 X162.5060
 Y141.6075
 X162.4907 Y141.3103
 X162.4533 Y141.0610
 X162.3918 Y140.8233
 X162.3078 Y140.5926
 X162.2029 Y140.3741
 X162.0790 Y140.1690
 X161.9345 Y139.9764
 X161.7721 Y139.7970
 X161.5957 Y139.6367
 X161.4022 Y139.4922
 X161.1965 Y139.3669
 X160.9810 Y139.2635
 X160.7493 Y139.1794
 X160.5107 Y139.1177
 X160.2625 Y139.0803
 X160.0030 Y139.0670
 X159.7433 Y139.0803
 X159.4940 Y139.1177
 X159.2563 Y139.1792
 X159.0264 Y139.2629
 X158.8121 Y139.3661
 X158.6066 Y139.4916
 X158.4144 Y139.6352
 X158.2396 Y139.7950
 X158.0776 Y139.9740
 X157.9337 Y140.1676
 X157.8092 Y140.3726
 X157.7056 Y140.5909
 X157.6210 Y140.8216
 X157.5608 Y141.0592
 X157.5224 Y141.3104
 X157.5080 Y141.6057
 Y149.0670
 X146.4990
 Y141.6075
 X146.4837 Y141.3103
 X146.4463 Y141.0610
 X146.3844 Y140.8216
 X146.3010 Y140.5909
 X146.1969 Y140.3741
 X146.0714 Y140.1663
 X145.9276 Y139.9729
 X145.7672 Y139.7950
 X145.5918 Y139.6352
 X145.3994 Y139.4910
 X145.1956 Y139.3665
 X144.9810 Y139.2635
 X144.7493 Y139.1794
 X144.5104 Y139.1176
 X144.2632 Y139.0802
 X144.0039 Y139.0670
 X143.7437 Y139.0803
 X143.4956 Y139.1177
 X143.2555 Y139.1795
 X143.0256 Y139.2632
 X142.8095 Y139.3669
 X142.6048 Y139.4916
 X142.4111 Y139.6367
 X142.2330 Y139.7980
 X142.0725 Y139.9752
 X141.9288 Y140.1676
 X141.8032 Y140.3756
 X141.6984 Y140.5926
 X141.6156 Y140.8216
 X141.5533 Y141.0628
 X141.5152 Y141.3122
 X141.5000 Y141.6075
 Y149.0670
 X130.5010
 Y141.6075
 X130.4857 Y141.3103
 X130.4480 Y141.0592
 X130.3872 Y140.8216
 X130.3032 Y140.5909
 X130.1990 Y140.3726
 X130.0744 Y140.1663
 X129.9314 Y139.9740
 X129.7703 Y139.7960
 X129.5938 Y139.6352
 X129.4022 Y139.4916
 X129.1968 Y139.3665
 X128.9810 Y139.2626
 X128.7525 Y139.1792
 X128.5142 Y139.1177
 X128.2655 Y139.0803
 X128.0060 Y139.0670
 X127.7463 Y139.0803
 X127.4966 Y139.1178
 X127.2579 Y139.1793
 X127.0276 Y139.2632
 X126.8106 Y139.3674
 X126.6040 Y139.4928
 X126.4113 Y139.6367
 X126.2349 Y139.7970
 X126.0735 Y139.9752
 X125.9298 Y140.1676
 X125.8042 Y140.3756
 X125.6986 Y140.5942
 X125.6158 Y140.8216
 X125.5546 Y141.0610
 X125.5162 Y141.3122
 X125.5010 Y141.6075
 Y149.0670
 X114.5020
 Y141.6075
 X114.4867 Y141.3103
 X114.4490 Y141.0592
 X114.3882 Y140.8216
 X114.3042 Y140.5909
 X114.2000 Y140.3726
 X114.0754 Y140.1663
 X113.9324 Y139.9740
 X113.7713 Y139.7960
 X113.5948 Y139.6352
 X113.4032 Y139.4916
 X113.1978 Y139.3665
 X112.9826 Y139.2629
 X112.7527 Y139.1792
 X112.5147 Y139.1177
 X112.2665 Y139.0803
 X112.0070 Y139.0670
 X111.7475 Y139.0803
 X111.4984 Y139.1178
 X111.2585 Y139.1795
 X111.0286 Y139.2632
 X110.8125 Y139.3669
 X110.6068 Y139.4922
 X110.4133 Y139.6367
 X110.2358 Y139.7980
 X110.0737 Y139.9764
 X109.9308 Y140.1676
 X109.8052 Y140.3756
 X109.6996 Y140.5942
 X109.6162 Y140.8233
 X109.5547 Y141.0610
 X109.5173 Y141.3103
 X109.5020 Y141.6075
 Y149.0670
 X98.5040
 Y141.6060
 X98.4894 Y141.3100
 X98.4516 Y141.0612
 X98.3904 Y140.8232
 X98.3067 Y140.5940
 X98.2014 Y140.3753
 X98.0762 Y140.1684
 X97.9323 Y139.9759
 X97.7706 Y139.7976
 X97.5937 Y139.6370
 X97.4001 Y139.4924
 X97.1942 Y139.3672
 X96.9778 Y139.2633
 X96.7471 Y139.1794
 X96.5081 Y139.1178
 X96.2592 Y139.0803
 X95.9997 Y139.0670
 X95.7402 Y139.0803
 X95.4919 Y139.1177
 X95.2536 Y139.1792
 X95.0240 Y139.2629
 X94.8087 Y139.3664
 X94.6039 Y139.4914
 X94.4112 Y139.6356
 X94.2354 Y139.7957
 X94.0745 Y139.9739
 X93.9312 Y140.1662
 X93.8069 Y140.3726
 X93.7019 Y140.5918
 X93.6184 Y140.8213
 X93.5575 Y141.0596
 X93.5196 Y141.3102
 X93.5047 Y141.6068
 Y149.0670
 X82.5053
 Y141.6069
 X82.4903 Y141.3109
 X82.4524 Y141.0610
 X82.3913 Y140.8232
 X82.3075 Y140.5939
 X82.2023 Y140.3751
 X82.0772 Y140.1686
 X81.9331 Y139.9758
 X81.7715 Y139.7975
 X81.5947 Y139.6371
 X81.4011 Y139.4925
 X81.1951 Y139.3671
 X80.9787 Y139.2633
 X80.7482 Y139.1794
 X80.5090 Y139.1178
 X80.2602 Y139.0803
 X80.0006 Y139.0670
 X79.7410 Y139.0803
 X79.4927 Y139.1177
 X79.2544 Y139.1792
 X79.0248 Y139.2629
 X78.8095 Y139.3665
 X78.6046 Y139.4914
 X78.4121 Y139.6356
 X78.2362 Y139.7957
 X78.0755 Y139.9737
 X77.9322 Y140.1662
 X77.8076 Y140.3729
 X77.7028 Y140.5916
 X77.6193 Y140.8213
 X77.5583 Y141.0597
 X77.5205 Y141.3098
 X77.5057 Y141.6064
 Y149.0670
 X66.5060
 Y141.6068
 X66.4911 Y141.3105
 X66.4532 Y141.0610
 X66.3920 Y140.8230
 X66.3082 Y140.5934
 X66.2032 Y140.3748
 X66.0781 Y140.1682
 X65.9342 Y139.9754
 X65.7727 Y139.7971
 X65.5962 Y139.6368
 X65.4026 Y139.4923
 X65.1969 Y139.3670
 X64.9806 Y139.2632
 X64.7503 Y139.1793
 X64.5115 Y139.1178
 X64.2627 Y139.0803
 X64.0031 Y139.0670
 X63.7434 Y139.0803
 X63.4945 Y139.1178
 X63.2555 Y139.1794
 X63.0249 Y139.2633
 X62.8086 Y139.3671
 X62.6026 Y139.4925
 X62.4088 Y139.6371
 X62.2320 Y139.7976
 X62.0703 Y139.9759
 X61.9264 Y140.1684
 X61.8014 Y140.3750
 X61.6962 Y140.5937
 X61.6123 Y140.8235
 X61.5510 Y141.0614
 X61.5132 Y141.3105
 X61.4983 Y141.6068
 Y149.0670
 X50.4987
 Y141.6066
 X50.4838 Y141.3100
 X50.4460 Y141.0597
 X50.3850 Y140.8213
 X50.3015 Y140.5916
 X50.1967 Y140.3729
 X50.0721 Y140.1662
 X49.9288 Y139.9737
 X49.7681 Y139.7957
 X49.5924 Y139.6357
 X49.3996 Y139.4914
 X49.1947 Y139.3664
 X48.9794 Y139.2629
 X48.7500 Y139.1792
 X48.5117 Y139.1177
 X48.2633 Y139.0803
 X48.0039 Y139.0670
 X47.7443 Y139.0803
 X47.4955 Y139.1178
 X47.2565 Y139.1794
 X47.0261 Y139.2632
 X46.8101 Y139.3669
 X46.6044 Y139.4922
 X46.4107 Y139.6369
 X46.2340 Y139.7973
 X46.0726 Y139.9754
 X45.9289 Y140.1679
 X45.8038 Y140.3748
 X45.6984 Y140.5937
 X45.6149 Y140.8227
 X45.5538 Y141.0608
 X45.5158 Y141.3105
 X45.5010 Y141.6066
 Y149.0670
 X34.5013
 Y141.6068
 X34.4863 Y141.3098
 X34.4487 Y141.0596
 X34.3876 Y140.8213
 X34.3042 Y140.5916
 X34.1994 Y140.3730
 X34.0748 Y140.1663
 X33.9313 Y139.9736
 X33.7707 Y139.7956
 X33.5950 Y139.6357
 X33.4022 Y139.4914
 X33.1974 Y139.3664
 X32.9821 Y139.2629
 X32.7525 Y139.1792
 X32.5143 Y139.1177
 X32.2658 Y139.0803
 X32.0064 Y139.0670
 X31.7464 Y139.0803
 X31.4972 Y139.1178
 X31.2579 Y139.1794
 X31.0275 Y139.2633
 X30.8113 Y139.3670
 X30.6054 Y139.4924
 X30.4116 Y139.6371
 X30.2350 Y139.7974
 X30.0735 Y139.9756
 X29.9297 Y140.1682
 X29.8045 Y140.3750
 X29.6994 Y140.5935
 X29.6157 Y140.8230
 X29.5545 Y141.0608
 X29.5167 Y141.3105
 X29.5017 Y141.6069
 Y149.0670
 X21.5022
 Y152.5770
G0 Z2.0000
 Y82.5786
G1 Z-3.3667
 X21.4878 Y83.1498
 X21.4434 Y83.7335
 X21.3701 Y84.3090
 X21.2689 Y84.8755
 X21.1404 Y85.4321
 X20.9852 Y85.9785
 X20.8040 Y86.5135
 X20.5980 Y87.0360
 X20.3675 Y87.5457
 X20.1133 Y88.0420
 X19.8363 Y88.5235
 X19.5372 Y88.9902
 X19.2167 Y89.4408
 X18.8755 Y89.8751
 X18.5139 Y90.2924
 X18.1336 Y90.6913
 X17.7347 Y91.0717
 X17.3174 Y91.4332
 X16.8831 Y91.7742
 X16.4327 Y92.0947
 X15.9660 Y92.3940
 X15.4844 Y92.6709
 X14.9883 Y92.9251
 X14.4783 Y93.1558
 X13.9557 Y93.3618
 X13.4209 Y93.5428
 X12.8745 Y93.6981
 X12.3176 Y93.8266
 X11.7514 Y93.9276
 X11.1760 Y94.0010
 X10.5921 Y94.0454
 X10.0020 Y94.0602
 X9.4116 Y94.0454
 X8.8276 Y94.0010
 X8.2521 Y93.9276
 X7.6858 Y93.8266
 X7.1287 Y93.6981
 X6.5822 Y93.5429
 X6.0473 Y93.3618
 X5.5246 Y93.1558
 X5.0145 Y92.9252
 X4.5183 Y92.6709
 X4.0367 Y92.3940
 X3.5700 Y92.0948
 X3.1193 Y91.7743
 X2.6851 Y91.4331
 X2.2679 Y91.0718
 X1.8689 Y90.6914
 X1.4882 Y90.2924
 X1.1268 Y89.8750
 X0.7856 Y89.4409
 X0.4651 Y88.9904
 X0.1658 Y88.5236
 X-0.1112 Y88.0419
 X-0.3653 Y87.5458
 X-0.5958 Y87.0362
 X-0.8020 Y86.5134
 X-0.9830 Y85.9784
 X-1.1382 Y85.4323
 X-1.2668 Y84.8754
 X-1.3680 Y84.3088
 X-1.4412 Y83.7334
 X-1.4856 Y83.1498
 X-1.5000 Y82.5785
 Y62.5465
 X-1.4856 Y61.9750
 X-1.4412 Y61.3915
 X-1.3680 Y60.8159
 X-1.2668 Y60.2493
 X-1.1383 Y59.6922
 X-0.9831 Y59.1459
 X-0.8021 Y58.6110
 X-0.5959 Y58.0880
 X-0.3653 Y57.5784
 X-0.1113 Y57.0823
 X0.1658 Y56.6002
 X0.4650 Y56.1337
 X0.7855 Y55.6829
 X1.1269 Y55.2486
 X1.4881 Y54.8317
 X1.8687 Y54.4324
 X2.2679 Y54.0518
 X2.6849 Y53.6906
 X3.1191 Y53.3493
 X3.5701 Y53.0286
 X4.0366 Y52.7296
 X4.5183 Y52.4524
 X5.0147 Y52.1982
 X5.5245 Y51.9678
 X6.0472 Y51.7616
 X6.5822 Y51.5805
 X7.1286 Y51.4253
 X7.6857 Y51.2968
 X8.2521 Y51.1957
 X8.8276 Y51.1223
 X9.4114 Y51.0779
 X9.9831 Y51.0635
 X89.5086
 Y46.0724
 X108.5060
 Y51.0635
 X149.5070
 Y46.0724
 X168.5040
 Y51.0635
 X191.5070
 Y79.0676
 X174.5100 Y79.0576
 Y71.5997
 X174.4947 Y71.3018
 X174.4570 Y71.0510
 X174.3964 Y70.8137
 X174.3125 Y70.5848
 X174.2072 Y70.3653
 X174.0834 Y70.1609
 X173.9391 Y69.9685
 X173.7773 Y69.7903
 X173.5990 Y69.6286
 X173.4067 Y69.4848
 X173.2000 Y69.3598
 X172.9811 Y69.2545
 X172.7517 Y69.1707
 X172.5136 Y69.1094
 X172.2641 Y69.0715
 X172.0059 Y69.0584
 X171.7468 Y69.0715
 X171.4974 Y69.1094
 X171.2593 Y69.1707
 X171.0307 Y69.2542
 X170.8145 Y69.3585
 X170.6089 Y69.4836
 X170.4161 Y69.6278
 X170.2396 Y69.7883
 X170.0799 Y69.9650
 X169.9362 Y70.1582
 X169.8127 Y70.3623
 X169.7087 Y70.5815
 X169.6242 Y70.8120
 X169.5639 Y71.0510
 X169.5254 Y71.3018
 X169.5110 Y71.5979
 Y79.0585
 X158.5110
 Y71.5997
 X158.4958 Y71.3036
 X158.4571 Y71.0510
 X158.3968 Y70.8120
 X158.3135 Y70.5848
 X158.2082 Y70.3653
 X158.0836 Y70.1596
 X157.9409 Y69.9685
 X157.7785 Y69.7903
 X157.5991 Y69.6270
 X157.4087 Y69.4842
 X157.2030 Y69.3598
 X156.9841 Y69.2545
 X156.7547 Y69.1707
 X156.5166 Y69.1094
 X156.2672 Y69.0715
 X156.0079 Y69.0584
 X155.7483 Y69.0715
 X155.5000 Y69.1094
 X155.2595 Y69.1710
 X155.0325 Y69.2539
 X154.8163 Y69.3585
 X154.6091 Y69.4842
 X154.4181 Y69.6270
 X154.2425 Y69.7873
 X154.0819 Y69.9650
 X153.9382 Y70.1582
 X153.8128 Y70.3653
 X153.7083 Y70.5832
 X153.6250 Y70.8120
 X153.5640 Y71.0510
 X153.5263 Y71.3018
 X153.5110 Y71.5997
 Y79.0585
 X142.5040
 Y71.5997
 X142.4888 Y71.3036
 X142.4501 Y71.0510
 X142.3898 Y70.8120
 X142.3053 Y70.5815
 X142.2013 Y70.3623
 X142.0786 Y70.1596
 X141.9342 Y69.9662
 X141.7725 Y69.7873
 X141.5969 Y69.6270
 X141.4051 Y69.4836
 X141.1995 Y69.3585
 X140.9833 Y69.2542
 X140.7547 Y69.1707
 X140.5166 Y69.1094
 X140.2672 Y69.0715
 X140.0081 Y69.0584
 X139.7499 Y69.0715
 X139.4999 Y69.1095
 X139.2609 Y69.1708
 X139.0319 Y69.2545
 X138.8139 Y69.3594
 X138.6081 Y69.4842
 X138.4150 Y69.6286
 X138.2367 Y69.7903
 X138.0760 Y69.9673
 X137.9314 Y70.1609
 X137.8061 Y70.3668
 X137.7023 Y70.5832
 X137.6184 Y70.8137
 X137.5568 Y71.0528
 X137.5193 Y71.3018
 X137.5040 Y71.5997
 Y79.0585
 X126.5060
 Y71.5979
 X126.4916 Y71.3018
 X126.4534 Y71.0528
 X126.3920 Y70.8120
 X126.3081 Y70.5815
 X126.2043 Y70.3638
 X126.0806 Y70.1596
 X125.9362 Y69.9662
 X125.7754 Y69.7883
 X125.5981 Y69.6270
 X125.4069 Y69.4836
 X125.2014 Y69.3589
 X124.9843 Y69.2542
 X124.7557 Y69.1707
 X124.5174 Y69.1093
 X124.2690 Y69.0715
 X124.0091 Y69.0584
 X123.7501 Y69.0715
 X123.5012 Y69.1094
 X123.2619 Y69.1708
 X123.0329 Y69.2545
 X122.8149 Y69.3594
 X122.6091 Y69.4842
 X122.4171 Y69.6278
 X122.2396 Y69.7893
 X122.0780 Y69.9673
 X121.9344 Y70.1596
 X121.8089 Y70.3668
 X121.7037 Y70.5848
 X121.6210 Y70.8120
 X121.5596 Y71.0528
 X121.5214 Y71.3018
 X121.5070 Y71.5979
 Y79.0585
 X110.5070
 Y71.5997
 X110.4917 Y71.3018
 X110.4540 Y71.0510
 X110.3930 Y70.8120
 X110.3091 Y70.5815
 X110.2053 Y70.3638
 X110.0808 Y70.1582
 X109.9380 Y69.9662
 X109.7766 Y69.7883
 X109.5990 Y69.6262
 X109.4089 Y69.4836
 X109.2034 Y69.3589
 X108.9857 Y69.2539
 X108.7585 Y69.1707
 X108.5198 Y69.1094
 X108.2709 Y69.0715
 X108.0120 Y69.0584
 X107.7531 Y69.0715
 X107.5042 Y69.1094
 X107.2649 Y69.1708
 X107.0351 Y69.2548
 X106.8161 Y69.3598
 X106.6111 Y69.4842
 X106.4191 Y69.6278
 X106.2416 Y69.7893
 X106.0789 Y69.9685
 X105.9346 Y70.1609
 X105.8108 Y70.3653
 X105.7055 Y70.5848
 X105.6216 Y70.8137
 X105.5606 Y71.0528
 X105.5222 Y71.3036
 X105.5070 Y71.5997
 Y79.0585
 X94.5078
 Y71.5991
 X94.4928 Y71.3023
 X94.4548 Y71.0526
 X94.3935 Y70.8130
 X94.3100 Y70.5842
 X94.2052 Y70.3661
 X94.0803 Y70.1600
 X93.9365 Y69.9676
 X93.7748 Y69.7895
 X93.5972 Y69.6279
 X93.4050 Y69.4843
 X93.1991 Y69.3594
 X92.9812 Y69.2545
 X92.7521 Y69.1708
 X92.5127 Y69.1094
 X92.2638 Y69.0715
 X92.0047 Y69.0584
 X91.7459 Y69.0715
 X91.4973 Y69.1093
 X91.2587 Y69.1707
 X91.0304 Y69.2541
 X90.8133 Y69.3588
 X90.6084 Y69.4834
 X90.4170 Y69.6267
 X90.2402 Y69.7880
 X90.0792 Y69.9658
 X89.9361 Y70.1581
 X89.8116 Y70.3641
 X89.7072 Y70.5822
 X89.6238 Y70.8116
 X89.5626 Y71.0515
 X89.5248 Y71.3014
 X89.5099 Y71.5988
 Y79.0585
 X78.5104
 Y71.5991
 X78.4954 Y71.3022
 X78.4576 Y71.0530
 X78.3962 Y70.8139
 X78.3124 Y70.5845
 X78.2074 Y70.3662
 X78.0826 Y70.1604
 X77.9388 Y69.9680
 X77.7769 Y69.7899
 X77.5989 Y69.6281
 X77.4067 Y69.4844
 X77.2008 Y69.3595
 X76.9825 Y69.2546
 X76.7531 Y69.1709
 X76.5138 Y69.1094
 X76.2647 Y69.0715
 X76.0057 Y69.0584
 X75.7467 Y69.0715
 X75.4982 Y69.1093
 X75.2596 Y69.1707
 X75.0313 Y69.2542
 X74.8141 Y69.3588
 X74.6093 Y69.4833
 X74.4179 Y69.6267
 X74.2410 Y69.7880
 X74.0800 Y69.9659
 X73.9368 Y70.1581
 X73.8125 Y70.3640
 X73.7079 Y70.5825
 X73.6245 Y70.8117
 X73.5635 Y71.0512
 X73.5256 Y71.3014
 X73.5107 Y71.5990
 Y79.0585
 X62.5111
 Y71.5988
 X62.4963 Y71.3020
 X62.4583 Y71.0526
 X62.3971 Y70.8134
 X62.3134 Y70.5843
 X62.2084 Y70.3658
 X62.0837 Y70.1600
 X61.9400 Y69.9677
 X61.7782 Y69.7895
 X61.6005 Y69.6279
 X61.4084 Y69.4842
 X61.2026 Y69.3594
 X60.9847 Y69.2545
 X60.7556 Y69.1708
 X60.5163 Y69.1094
 X60.2672 Y69.0715
 X60.0082 Y69.0584
 X59.7487 Y69.0715
 X59.4993 Y69.1094
 X59.2597 Y69.1709
 X59.0305 Y69.2546
 X58.8122 Y69.3595
 X58.6062 Y69.4844
 X58.4141 Y69.6280
 X58.2366 Y69.7895
 X58.0747 Y69.9678
 X57.9308 Y70.1603
 X57.8061 Y70.3659
 X57.7013 Y70.5840
 X57.6177 Y70.8134
 X57.5562 Y71.0530
 X57.5183 Y71.3020
 X57.5035 Y71.5988
 Y79.0585
 X46.5039
 Y71.5990
 X46.4890 Y71.3014
 X46.4511 Y71.0514
 X46.3900 Y70.8116
 X46.3067 Y70.5824
 X46.2021 Y70.3640
 X46.0778 Y70.1581
 X45.9346 Y69.9659
 X45.7736 Y69.7880
 X45.5966 Y69.6267
 X45.4054 Y69.4833
 X45.2006 Y69.3589
 X44.9833 Y69.2542
 X44.7550 Y69.1707
 X44.5164 Y69.1093
 X44.2678 Y69.0715
 X44.0090 Y69.0584
 X43.7499 Y69.0715
 X43.5008 Y69.1094
 X43.2615 Y69.1709
 X43.0321 Y69.2546
 X42.8138 Y69.3595
 X42.6079 Y69.4844
 X42.4157 Y69.6281
 X42.2377 Y69.7899
 X42.0758 Y69.9680
 X41.9320 Y70.1604
 X41.8072 Y70.3662
 X41.7022 Y70.5845
 X41.6184 Y70.8139
 X41.5570 Y71.0530
 X41.5192 Y71.3020
 X41.5043 Y71.5990
 Y79.0585
 X30.5064
 Y71.5990
 X30.4915 Y71.3014
 X30.4537 Y71.0516
 X30.3925 Y70.8120
 X30.3091 Y70.5827
 X30.2044 Y70.3643
 X30.0801 Y70.1584
 X29.9369 Y69.9663
 X29.7757 Y69.7883
 X29.5986 Y69.6269
 X29.4073 Y69.4836
 X29.2021 Y69.3590
 X28.9846 Y69.2542
 X28.7564 Y69.1707
 X28.5176 Y69.1094
 X28.2688 Y69.0715
 X28.0099 Y69.0584
 X27.7508 Y69.0715
 X27.5018 Y69.1094
 X27.2625 Y69.1708
 X27.0335 Y69.2545
 X26.8155 Y69.3594
 X26.6096 Y69.4843
 X26.4174 Y69.6279
 X26.2398 Y69.7895
 X26.0781 Y69.9676
 X25.9343 Y70.1600
 X25.8094 Y70.3661
 X25.7046 Y70.5842
 X25.6211 Y70.8130
 X25.5598 Y71.0526
 X25.5218 Y71.3022
 X25.5069 Y71.5990
 Y79.0585
 X21.5022
 Y82.5786
G0 Z2.0000
 X193.3390 Y80.1300
G1 Z-3.3667
 X193.3546 Y79.5581
 X193.3991 Y78.9785
 X193.4705 Y78.4020
 X193.5732 Y77.8341
 X193.7007 Y77.2785
 X193.8562 Y76.7315
 X194.0369 Y76.1970
 X194.2434 Y75.6732
 X194.4748 Y75.1631
 X194.7288 Y74.6676
 X195.0051 Y74.1876
 X195.3029 Y73.7209
 X195.6254 Y73.2676
 X195.9675 Y72.8341
 X196.3272 Y72.4184
 X196.7084 Y72.0183
 X197.1078 Y71.6383
 X197.5234 Y71.2775
 X197.9584 Y70.9358
 X198.4083 Y70.6157
 X198.8751 Y70.3158
 X199.3580 Y70.0390
 X199.8519 Y69.7854
 X200.3623 Y69.5545
 X200.8857 Y69.3480
 X201.4213 Y69.1673
 X201.9659 Y69.0120
 X202.5247 Y68.8834
 X203.0904 Y68.7823
 X203.6662 Y68.7091
 X204.2491 Y68.6646
 X204.8400 Y68.6498
 X205.4298 Y68.6646
 X206.0139 Y68.7091
 X206.5883 Y68.7823
 X207.1564 Y68.8834
 X207.7130 Y69.0120
 X208.2594 Y69.1672
 X208.7947 Y69.3482
 X209.3177 Y69.5545
 X209.8275 Y69.7851
 X210.3231 Y70.0390
 X210.8048 Y70.3158
 X211.2720 Y70.6152
 X211.7234 Y70.9364
 X212.1557 Y71.2768
 X212.5727 Y71.6369
 X212.9744 Y72.0191
 X213.3545 Y72.4193
 X213.7143 Y72.8351
 X214.0553 Y73.2686
 X214.3764 Y73.7198
 X214.6746 Y74.1853
 X214.9526 Y74.6664
 X215.2078 Y75.1643
 X215.4381 Y75.6745
 X215.6441 Y76.1970
 X215.8252 Y76.7329
 X215.9789 Y77.2771
 X216.1090 Y77.8341
 X216.2093 Y78.4020
 X216.2827 Y78.9755
 X216.3275 Y79.5596
 X216.3420 Y80.1314
 Y100.1629
 X216.3275 Y100.7354
 X216.2827 Y101.3195
 X216.2093 Y101.8938
 X216.1090 Y102.4613
 X215.9788 Y103.0187
 X215.8252 Y103.5622
 X215.6442 Y104.0983
 X215.4381 Y104.6210
 X215.2081 Y105.1306
 X214.9527 Y105.6298
 X214.6743 Y106.1106
 X214.3764 Y106.5759
 X214.0555 Y107.0268
 X213.7146 Y107.4606
 X213.3550 Y107.8763
 X212.9748 Y108.2772
 X212.5724 Y108.6600
 X212.1555 Y109.0196
 X211.7236 Y109.3599
 X211.2719 Y109.6814
 X210.8048 Y109.9804
 X210.3236 Y110.2573
 X209.8272 Y110.5118
 X209.3170 Y110.7421
 X208.7957 Y110.9477
 X208.2606 Y111.1295
 X207.7123 Y111.2853
 X207.1557 Y111.4132
 X206.5889 Y111.5142
 X206.0133 Y111.5879
 X205.4290 Y111.6316
 X204.8590 Y111.6460
 X201.3400
 Y111.6540
 X125.3330
 Y116.6470
 X106.3360
 Y111.6540
 X65.3349
 Y116.6470
 X46.3374
 Y111.6540
 X23.3349
 Y83.6514
 X38.3392
 Y91.1111
 X38.3540 Y91.4081
 X38.3919 Y91.6569
 X38.4534 Y91.8967
 X38.5371 Y92.1262
 X38.6416 Y92.3439
 X38.7665 Y92.5496
 X38.9106 Y92.7426
 X39.0721 Y92.9205
 X39.2495 Y93.0818
 X39.4421 Y93.2257
 X39.6480 Y93.3508
 X39.8656 Y93.4555
 X40.0947 Y93.5392
 X40.3337 Y93.6005
 X40.5828 Y93.6383
 X40.8421 Y93.6514
 X41.1015 Y93.6383
 X41.3502 Y93.6005
 X41.5887 Y93.5393
 X41.8170 Y93.4558
 X42.0341 Y93.3512
 X42.2394 Y93.2264
 X42.4312 Y93.0827
 X42.6081 Y92.9216
 X42.7689 Y92.7440
 X42.9124 Y92.5513
 X43.0369 Y92.3455
 X43.1413 Y92.1273
 X43.2249 Y91.8979
 X43.2860 Y91.6583
 X43.3238 Y91.4086
 X43.3387 Y91.1111
 Y83.6514
 X54.3365
 Y91.1108
 X54.3515 Y91.4077
 X54.3895 Y91.6571
 X54.4508 Y91.8965
 X54.5343 Y92.1252
 X54.6394 Y92.3434
 X54.7644 Y92.5496
 X54.9082 Y92.7420
 X55.0699 Y92.9200
 X55.2478 Y93.0816
 X55.4404 Y93.2256
 X55.6465 Y93.3507
 X55.8644 Y93.4554
 X56.0936 Y93.5391
 X56.3328 Y93.6005
 X56.5818 Y93.6383
 X56.8413 Y93.6514
 X57.1005 Y93.6383
 X57.3492 Y93.6006
 X57.5874 Y93.5393
 X57.8157 Y93.4559
 X58.0325 Y93.3514
 X58.2375 Y93.2266
 X58.4292 Y93.0830
 X58.6058 Y92.9220
 X58.7666 Y92.7442
 X58.9100 Y92.5517
 X59.0344 Y92.3457
 X59.1390 Y92.1275
 X59.2223 Y91.8984
 X59.2835 Y91.6585
 X59.3212 Y91.4088
 X59.3361 Y91.1111
 Y83.6514
 X70.3439
 Y91.1113
 X70.3587 Y91.4088
 X70.3965 Y91.6583
 X70.4577 Y91.8982
 X70.5411 Y92.1275
 X70.6456 Y92.3457
 X70.7700 Y92.5516
 X70.9134 Y92.7441
 X71.0742 Y92.9218
 X71.2509 Y93.0828
 X71.4428 Y93.2265
 X71.6478 Y93.3512
 X71.8647 Y93.4557
 X72.0933 Y93.5392
 X72.3320 Y93.6005
 X72.5808 Y93.6383
 X72.8406 Y93.6514
 X73.0999 Y93.6383
 X73.3489 Y93.6005
 X73.5879 Y93.5392
 X73.8168 Y93.4556
 X74.0346 Y93.3507
 X74.2406 Y93.2257
 X74.4331 Y93.0818
 X74.6106 Y92.9204
 X74.7721 Y92.7426
 X74.9161 Y92.5497
 X75.0410 Y92.3437
 X75.1457 Y92.1260
 X75.2293 Y91.8967
 X75.2907 Y91.6571
 X75.3286 Y91.4081
 X75.3435 Y91.1110
 Y83.6514
 X86.3431
 Y91.1111
 X86.3580 Y91.4090
 X86.3957 Y91.6585
 X86.4569 Y91.8982
 X86.5403 Y92.1278
 X86.6446 Y92.3457
 X86.7691 Y92.5516
 X86.9125 Y92.7442
 X87.0732 Y92.9218
 X87.2502 Y93.0830
 X87.4418 Y93.2267
 X87.6466 Y93.3513
 X87.8635 Y93.4558
 X88.0918 Y93.5393
 X88.3301 Y93.6006
 X88.5786 Y93.6383
 X88.8379 Y93.6514
 X89.0974 Y93.6383
 X89.3464 Y93.6005
 X89.5855 Y93.5391
 X89.8147 Y93.4554
 X90.0327 Y93.3506
 X90.2386 Y93.2256
 X90.4314 Y93.0815
 X90.6092 Y92.9200
 X90.7708 Y92.7421
 X90.9149 Y92.5493
 X91.0400 Y92.3433
 X91.1447 Y92.1255
 X91.2284 Y91.8965
 X91.2897 Y91.6571
 X91.3276 Y91.4079
 X91.3426 Y91.1108
 Y83.6514
 X102.3420
 Y91.1102
 X102.3573 Y91.4083
 X102.3950 Y91.6589
 X102.4560 Y91.8980
 X102.5399 Y92.1285
 X102.6437 Y92.3460
 X102.7682 Y92.5516
 X102.9112 Y92.7440
 X103.0723 Y92.9215
 X103.2498 Y93.0834
 X103.4404 Y93.2264
 X103.6459 Y93.3512
 X103.8627 Y93.4558
 X104.0913 Y93.5393
 X104.3293 Y93.6006
 X104.5777 Y93.6383
 X104.8370 Y93.6514
 X105.0963 Y93.6383
 X105.3452 Y93.6005
 X105.5841 Y93.5392
 X105.8131 Y93.4555
 X106.0308 Y93.3508
 X106.2366 Y93.2258
 X106.4292 Y93.0819
 X106.6077 Y92.9195
 X106.7697 Y92.7417
 X106.9126 Y92.5502
 X107.0372 Y92.3445
 X107.1417 Y92.1268
 X107.2256 Y91.8963
 X107.2872 Y91.6571
 X107.3247 Y91.4083
 X107.3400 Y91.1102
 Y83.6514
 X118.3400
 Y91.1121
 X118.3544 Y91.4083
 X118.3926 Y91.6571
 X118.4536 Y91.8963
 X118.5375 Y92.1252
 X118.6420 Y92.3430
 X118.7674 Y92.5489
 X118.9121 Y92.7428
 X119.0734 Y92.9205
 X119.2508 Y93.0819
 X119.4426 Y93.2252
 X119.6493 Y93.3503
 X119.8679 Y93.4555
 X120.0969 Y93.5392
 X120.3358 Y93.6005
 X120.5847 Y93.6383
 X120.8440 Y93.6514
 X121.1033 Y93.6383
 X121.3522 Y93.6005
 X121.5905 Y93.5393
 X121.8185 Y93.4558
 X122.0359 Y93.3512
 X122.2398 Y93.2270
 X122.4323 Y93.0826
 X122.6096 Y92.9215
 X122.7689 Y92.7452
 X122.9128 Y92.5516
 X123.0382 Y92.3445
 X123.1419 Y92.1285
 X123.2245 Y91.8998
 X123.2864 Y91.6571
 X123.3246 Y91.4083
 X123.3390 Y91.1121
 Y83.6514
 X134.3390
 Y91.1121
 X134.3534 Y91.4083
 X134.3916 Y91.6571
 X134.4526 Y91.8963
 X134.5365 Y92.1252
 X134.6418 Y92.3445
 X134.7664 Y92.5502
 X134.9101 Y92.7428
 X135.0714 Y92.9205
 X135.2488 Y93.0819
 X135.4406 Y93.2252
 X135.6473 Y93.3503
 X135.8659 Y93.4555
 X136.0949 Y93.5392
 X136.3338 Y93.6005
 X136.5827 Y93.6383
 X136.8420 Y93.6514
 X137.1013 Y93.6383
 X137.3497 Y93.6006
 X137.5877 Y93.5393
 X137.8171 Y93.4555
 X138.0348 Y93.3508
 X138.2396 Y93.2264
 X138.4302 Y93.0834
 X138.6077 Y92.9215
 X138.7688 Y92.7440
 X138.9118 Y92.5516
 X139.0363 Y92.3460
 X139.1409 Y92.1268
 X139.2248 Y91.8980
 X139.2851 Y91.6589
 X139.3238 Y91.4064
 X139.3390 Y91.1102
 Y83.6514
 X150.3360
 Y91.1102
 X150.3512 Y91.4064
 X150.3899 Y91.6589
 X150.4502 Y91.8980
 X150.5335 Y92.1252
 X150.6380 Y92.3430
 X150.7626 Y92.5476
 X150.9081 Y92.7417
 X151.0704 Y92.9205
 X151.2478 Y93.0819
 X151.4396 Y93.2252
 X151.6463 Y93.3503
 X151.8649 Y93.4555
 X152.0939 Y93.5392
 X152.3328 Y93.6005
 X152.5816 Y93.6383
 X152.8418 Y93.6514
 X153.1002 Y93.6383
 X153.3492 Y93.6005
 X153.5881 Y93.5392
 X153.8171 Y93.4555
 X154.0357 Y93.3503
 X154.2424 Y93.2252
 X154.4342 Y93.0819
 X154.6116 Y92.9205
 X154.7739 Y92.7417
 X154.9174 Y92.5502
 X155.0423 Y92.3430
 X155.1481 Y92.1252
 X155.2301 Y91.8981
 X155.2927 Y91.6553
 X155.3308 Y91.4064
 X155.3460 Y91.1102
 Y83.6514
 X166.3430
 Y91.1102
 X166.3583 Y91.4083
 X166.3960 Y91.6589
 X166.4570 Y91.8980
 X166.5403 Y92.1268
 X166.6448 Y92.3445
 X166.7702 Y92.5516
 X166.9141 Y92.7452
 X167.0743 Y92.9225
 X167.2499 Y93.0826
 X167.4414 Y93.2258
 X167.6472 Y93.3508
 X167.8661 Y93.4561
 X168.0927 Y93.5393
 X168.3316 Y93.6005
 X168.5799 Y93.6383
 X168.8399 Y93.6514
 X169.0996 Y93.6383
 X169.3490 Y93.6005
 X169.5867 Y93.5393
 X169.8161 Y93.4555
 X170.0347 Y93.3503
 X170.2414 Y93.2252
 X170.4321 Y93.0826
 X170.6098 Y92.9205
 X170.7727 Y92.7417
 X170.9156 Y92.5502
 X171.0402 Y92.3445
 X171.1455 Y92.1252
 X171.2300 Y91.8946
 X171.2908 Y91.6589
 X171.3276 Y91.4101
 X171.3430 Y91.1102
 Y83.6514
 X182.3430
 Y91.1102
 X182.3583 Y91.4083
 X182.3963 Y91.6607
 X182.4562 Y91.8980
 X182.5407 Y92.1285
 X182.6446 Y92.3475
 X182.7682 Y92.5516
 X182.9103 Y92.7428
 X183.0722 Y92.9205
 X183.2508 Y93.0834
 X183.4422 Y93.2270
 X183.6461 Y93.3512
 X183.8635 Y93.4558
 X184.0920 Y93.5395
 X184.3290 Y93.6005
 X184.5785 Y93.6383
 X184.8371 Y93.6514
 X185.0966 Y93.6383
 X185.3469 Y93.6004
 X185.5865 Y93.5390
 X185.8151 Y93.4555
 X186.0319 Y93.3512
 X186.2368 Y93.2264
 X186.4312 Y93.0811
 X186.6095 Y92.9195
 X186.7709 Y92.7417
 X186.9154 Y92.5489
 X187.0392 Y92.3445
 X187.1445 Y92.1252
 X187.2284 Y91.8963
 X187.2894 Y91.6571
 X187.3276 Y91.4083
 X187.3420 Y91.1121
 Y83.6514
 X193.3390
 Y80.1300
G0 Z2.0000
 Y10.1315
G1 Z-3.3667
 X193.3546 Y9.5594
 X193.3991 Y8.9796
 X193.4705 Y8.4031
 X193.5731 Y7.8351
 X193.7006 Y7.2793
 X193.8562 Y6.7324
 X194.0368 Y6.1978
 X194.2434 Y5.6737
 X194.4748 Y5.1636
 X194.7287 Y4.6681
 X195.0050 Y4.1878
 X195.3029 Y3.7211
 X195.6253 Y3.2680
 X195.9673 Y2.8343
 X196.3272 Y2.4183
 X196.7084 Y2.0183
 X197.1077 Y1.6384
 X197.5233 Y1.2773
 X197.9584 Y0.9355
 X198.4084 Y0.6155
 X198.8750 Y0.3156
 X199.3578 Y0.0388
 X199.8519 Y-0.2150
 X200.3624 Y-0.4459
 X200.8856 Y-0.6522
 X201.4214 Y-0.8331
 X201.9659 Y-0.9882
 X202.5245 Y-1.1169
 X203.0904 Y-1.2180
 X203.6664 Y-1.2912
 X204.2490 Y-1.3356
 X204.8400 Y-1.3505
 X205.4299 Y-1.3356
 X206.0137 Y-1.2912
 X206.5883 Y-1.2181
 X207.1566 Y-1.1169
 X207.7129 Y-0.9882
 X208.2593 Y-0.8332
 X208.7948 Y-0.6521
 X209.3176 Y-0.4459
 X209.8275 Y-0.2153
 X210.3233 Y0.0388
 X210.8049 Y0.3156
 X211.2719 Y0.6150
 X211.7233 Y0.9361
 X212.1558 Y1.2767
 X212.5729 Y1.6369
 X212.9745 Y2.0191
 X213.3545 Y2.4192
 X213.7145 Y2.8352
 X214.0555 Y3.2690
 X214.3763 Y3.7200
 X214.6746 Y4.1855
 X214.9527 Y4.6669
 X215.2079 Y5.1648
 X215.4382 Y5.6750
 X215.6442 Y6.1978
 X215.8253 Y6.7337
 X215.9789 Y7.2779
 X216.1090 Y7.8351
 X216.2093 Y8.4031
 X216.2827 Y8.9767
 X216.3275 Y9.5609
 X216.3420 Y10.1330
 Y30.1631
 X216.3275 Y30.7353
 X216.2827 Y31.3194
 X216.2093 Y31.8929
 X216.1090 Y32.4609
 X215.9789 Y33.0181
 X215.8253 Y33.5623
 X215.6442 Y34.0985
 X215.4382 Y34.6211
 X215.2079 Y35.1313
 X214.9527 Y35.6292
 X214.6746 Y36.1107
 X214.3763 Y36.5760
 X214.0555 Y37.0271
 X213.7144 Y37.4609
 X213.3545 Y37.8768
 X212.9745 Y38.2769
 X212.5730 Y38.6590
 X212.1559 Y39.0194
 X211.7233 Y39.3601
 X211.2720 Y39.6811
 X210.8050 Y39.9805
 X210.3231 Y40.2574
 X209.8275 Y40.5113
 X209.3177 Y40.7419
 X208.7947 Y40.9482
 X208.2594 Y41.1292
 X207.7130 Y41.2844
 X207.1564 Y41.4130
 X206.5882 Y41.5141
 X206.0139 Y41.5872
 X205.4300 Y41.6318
 X204.8588 Y41.6461
 X125.3330
 Y46.6372
 X106.3360
 Y41.6461
 X65.3349
 Y46.6372
 X46.3374
 Y41.6461
 X23.3349
 Y13.6429
 X42.3340
 Y21.1025
 X42.3489 Y21.3996
 X42.3868 Y21.6488
 X42.4482 Y21.8882
 X42.5318 Y22.1173
 X42.6367 Y22.3356
 X42.7615 Y22.5414
 X42.9054 Y22.7341
 X43.0669 Y22.9119
 X43.2445 Y23.0733
 X43.4372 Y23.2173
 X43.6429 Y23.3422
 X43.8610 Y23.4470
 X44.0902 Y23.5307
 X44.3296 Y23.5920
 X44.5793 Y23.6300
 X44.8387 Y23.6431
 X45.0975 Y23.6300
 X45.3465 Y23.5921
 X45.5852 Y23.5309
 X45.8131 Y23.4475
 X46.0300 Y23.3430
 X46.2348 Y23.2184
 X46.4264 Y23.0747
 X46.6034 Y22.9134
 X46.7641 Y22.7359
 X46.9074 Y22.5434
 X47.0318 Y22.3375
 X47.1363 Y22.1194
 X47.2196 Y21.8899
 X47.2809 Y21.6499
 X47.3187 Y21.4002
 X47.3336 Y21.1026
 Y13.6429
 X58.3332
 Y21.1025
 X58.3481 Y21.3996
 X58.3860 Y21.6488
 X58.4474 Y21.8882
 X58.5311 Y22.1176
 X58.6357 Y22.3356
 X58.7606 Y22.5414
 X58.9046 Y22.7342
 X59.0661 Y22.9120
 X59.2438 Y23.0736
 X59.4362 Y23.2175
 X59.6418 Y23.3424
 X59.8596 Y23.4471
 X60.0886 Y23.5308
 X60.3277 Y23.5920
 X60.5771 Y23.6300
 X60.8361 Y23.6431
 X61.0950 Y23.6300
 X61.3440 Y23.5921
 X61.5824 Y23.5309
 X61.8105 Y23.4474
 X62.0276 Y23.3429
 X62.2324 Y23.2183
 X62.4239 Y23.0748
 X62.6007 Y22.9135
 X62.7618 Y22.7357
 X62.9049 Y22.5434
 X63.0293 Y22.3375
 X63.1338 Y22.1194
 X63.2171 Y21.8899
 X63.2784 Y21.6499
 X63.3162 Y21.4002
 X63.3311 Y21.1026
 Y13.6429
 X74.3406
 Y21.1028
 X74.3554 Y21.4004
 X74.3932 Y21.6501
 X74.4544 Y21.8899
 X74.5378 Y22.1194
 X74.6422 Y22.3375
 X74.7667 Y22.5434
 X74.9100 Y22.7361
 X75.0706 Y22.9134
 X75.2475 Y23.0747
 X75.4392 Y23.2184
 X75.6439 Y23.3429
 X75.8610 Y23.4474
 X76.0891 Y23.5309
 X76.3276 Y23.5921
 X76.5765 Y23.6300
 X76.8353 Y23.6431
 X77.0943 Y23.6300
 X77.3437 Y23.5921
 X77.5828 Y23.5308
 X77.8118 Y23.4471
 X78.0297 Y23.3423
 X78.2353 Y23.2175
 X78.4278 Y23.0736
 X78.6056 Y22.9119
 X78.7670 Y22.7342
 X78.9108 Y22.5415
 X79.0356 Y22.3357
 X79.1406 Y22.1173
 X79.2242 Y21.8881
 X79.2855 Y21.6488
 X79.3235 Y21.3996
 X79.3383 Y21.1026
 Y13.6429
 X90.3379
 Y21.1028
 X90.3527 Y21.4004
 X90.3905 Y21.6499
 X90.4518 Y21.8899
 X90.5351 Y22.1194
 X90.6396 Y22.3375
 X90.7639 Y22.5433
 X90.9073 Y22.7358
 X91.0682 Y22.9136
 X91.2449 Y23.0747
 X91.4365 Y23.2183
 X91.6413 Y23.3429
 X91.8584 Y23.4475
 X92.0864 Y23.5309
 X92.3249 Y23.5921
 X92.5739 Y23.6300
 X92.8328 Y23.6431
 X93.0922 Y23.6300
 X93.3419 Y23.5920
 X93.5813 Y23.5307
 X93.8105 Y23.4470
 X94.0286 Y23.3422
 X94.2342 Y23.2174
 X94.4268 Y23.0734
 X94.6047 Y22.9117
 X94.7661 Y22.7341
 X94.9100 Y22.5414
 X95.0349 Y22.3354
 X95.1397 Y22.1174
 X95.2233 Y21.8882
 X95.2847 Y21.6488
 X95.3226 Y21.3996
 X95.3375 Y21.1025
 Y13.6429
 X106.3370
 Y21.1017
 X106.3523 Y21.3998
 X106.3900 Y21.6506
 X106.4510 Y21.8895
 X106.5349 Y22.1201
 X106.6387 Y22.3378
 X106.7632 Y22.5433
 X106.9061 Y22.7356
 X107.0673 Y22.9131
 X107.2449 Y23.0752
 X107.4362 Y23.2187
 X107.6399 Y23.3428
 X107.8575 Y23.4474
 X108.0854 Y23.5310
 X108.3238 Y23.5921
 X108.5731 Y23.6300
 X108.8320 Y23.6431
 X109.0909 Y23.6300
 X109.3402 Y23.5921
 X109.5793 Y23.5308
 X109.8089 Y23.4469
 X110.0277 Y23.3420
 X110.2326 Y23.2175
 X110.4250 Y23.0736
 X110.6026 Y22.9121
 X110.7650 Y22.7333
 X110.9094 Y22.5406
 X111.0341 Y22.3348
 X111.1393 Y22.1168
 X111.2220 Y21.8895
 X111.2834 Y21.6488
 X111.3218 Y21.3980
 X111.3370 Y21.1017
 Y13.6429
 X122.3350
 Y21.1036
 X122.3494 Y21.3998
 X122.3876 Y21.6488
 X122.4486 Y21.8878
 X122.5326 Y22.1168
 X122.6378 Y22.3363
 X122.7616 Y22.5406
 X122.9060 Y22.7333
 X123.0684 Y22.9121
 X123.2460 Y23.0736
 X123.4376 Y23.2169
 X123.6441 Y23.3420
 X123.8629 Y23.4472
 X124.0917 Y23.5308
 X124.3308 Y23.5921
 X124.5801 Y23.6300
 X124.8390 Y23.6431
 X125.0979 Y23.6300
 X125.3472 Y23.5921
 X125.5856 Y23.5310
 X125.8135 Y23.4474
 X126.0311 Y23.3428
 X126.2348 Y23.2187
 X126.4272 Y23.0744
 X126.6046 Y22.9131
 X126.7640 Y22.7368
 X126.9078 Y22.5433
 X127.0332 Y22.3363
 X127.1369 Y22.1201
 X127.2195 Y21.8913
 X127.2810 Y21.6506
 X127.3187 Y21.3998
 X127.3340 Y21.1017
 Y13.6429
 X138.3340
 Y21.1036
 X138.3484 Y21.3998
 X138.3866 Y21.6488
 X138.4476 Y21.8878
 X138.5316 Y22.1168
 X138.6368 Y22.3363
 X138.7606 Y22.5406
 X138.9050 Y22.7333
 X139.0674 Y22.9121
 X139.2450 Y23.0736
 X139.4366 Y23.2169
 X139.6431 Y23.3420
 X139.8619 Y23.4472
 X140.0903 Y23.5306
 X140.3306 Y23.5921
 X140.5793 Y23.6300
 X140.8389 Y23.6431
 X141.0976 Y23.6300
 X141.3464 Y23.5921
 X141.5854 Y23.5310
 X141.8119 Y23.4477
 X142.0301 Y23.3428
 X142.2338 Y23.2187
 X142.4262 Y23.0744
 X142.6036 Y22.9131
 X142.7641 Y22.7356
 X142.9076 Y22.5433
 X143.0314 Y22.3378
 X143.1359 Y22.1201
 X143.2192 Y21.8896
 X143.2812 Y21.6488
 X143.3185 Y21.4017
 X143.3330 Y21.1036
 Y13.6429
 X154.3330
 Y21.1036
 X154.3474 Y21.3998
 X154.3853 Y21.6470
 X154.4474 Y21.8878
 X154.5313 Y22.1184
 X154.6358 Y22.3363
 X154.7596 Y22.5406
 X154.9049 Y22.7344
 X155.0656 Y22.9121
 X155.2429 Y23.0729
 X155.4372 Y23.2181
 X155.6419 Y23.3428
 X155.8589 Y23.4472
 X156.0873 Y23.5306
 X156.3276 Y23.5921
 X156.5763 Y23.6300
 X156.8359 Y23.6431
 X157.0949 Y23.6300
 X157.3442 Y23.5921
 X157.5833 Y23.5308
 X157.8121 Y23.4472
 X158.0300 Y23.3424
 X158.2366 Y23.2169
 X158.4299 Y23.0729
 X158.6077 Y22.9111
 X158.7698 Y22.7333
 X158.9126 Y22.5419
 X159.0372 Y22.3363
 X159.1424 Y22.1168
 X159.2271 Y21.8861
 X159.2878 Y21.6506
 X159.3246 Y21.4017
 X159.3400 Y21.1017
 Y13.6429
 X170.3400
 Y21.1017
 X170.3553 Y21.3998
 X170.3930 Y21.6506
 X170.4540 Y21.8895
 X170.5373 Y22.1184
 X170.6433 Y22.3394
 X170.7664 Y22.5446
 X170.9081 Y22.7344
 X171.0703 Y22.9131
 X171.2479 Y23.0752
 X171.4392 Y23.2187
 X171.6429 Y23.3428
 X171.8605 Y23.4474
 X172.0879 Y23.5308
 X172.3276 Y23.5921
 X172.5764 Y23.6300
 X172.8349 Y23.6431
 X173.0931 Y23.6300
 X173.3439 Y23.5919
 X173.5837 Y23.5306
 X173.8121 Y23.4472
 X174.0291 Y23.3428
 X174.2338 Y23.2181
 X174.4281 Y23.0729
 X174.6054 Y22.9121
 X174.7661 Y22.7344
 X174.9114 Y22.5406
 X175.0352 Y22.3363
 X175.1397 Y22.1184
 X175.2236 Y21.8878
 X175.2857 Y21.6470
 X175.3233 Y21.4016
 X175.3370 Y21.1054
 Y13.6429
 X186.3370
 Y21.1017
 X186.3523 Y21.3998
 X186.3898 Y21.6488
 X186.4518 Y21.8896
 X186.5351 Y22.1201
 X186.6396 Y22.3378
 X186.7634 Y22.5433
 X186.9069 Y22.7356
 X187.0674 Y22.9131
 X187.2457 Y23.0752
 X187.4364 Y23.2187
 X187.6400 Y23.3424
 X187.8591 Y23.4477
 X188.0856 Y23.5310
 X188.3246 Y23.5921
 X188.5734 Y23.6300
 X188.8321 Y23.6431
 X189.0923 Y23.6300
 X189.3420 Y23.5921
 X189.5798 Y23.5310
 X189.8099 Y23.4469
 X190.0287 Y23.3420
 X190.2336 Y23.2175
 X190.4271 Y23.0729
 X190.6055 Y22.9111
 X190.7649 Y22.7356
 X190.9098 Y22.5406
 X191.0366 Y22.3333
 X191.1389 Y22.1201
 X191.2222 Y21.8896
 X191.2847 Y21.6470
 X191.3226 Y21.3998
 X191.3370 Y21.1036
 Y13.6429
 X193.3390
 Y10.1315
G0 Z2.0000
 X10.0020 Y155.0610
G1 Z-5.0500
 X10.2600 Y155.0478
 X10.5078 Y155.0103
 X10.7461 Y154.9488
 X10.9731 Y154.8661
 X11.1912 Y154.7601
 X11.3974 Y154.6352
 X11.5903 Y154.4900
 X11.7716 Y154.3255
 X11.9325 Y154.1493
 X12.0760 Y153.9570
 X12.2018 Y153.7501
 X12.3068 Y153.5321
 X12.3906 Y153.3034
 X12.4520 Y153.0645
 X12.4900 Y152.8154
 X12.5031 Y152.5580
 X12.4900 Y152.3011
 X12.4521 Y152.0541
 X12.3906 Y151.8146
 X12.3074 Y151.5874
 X12.2031 Y151.3723
 X12.0767 Y151.1648
 X11.9325 Y150.9717
 X11.7726 Y150.7966
 X11.5926 Y150.6340
 X11.3987 Y150.4886
 X11.1942 Y150.3647
 X10.9780 Y150.2609
 X10.7479 Y150.1777
 X10.5060 Y150.1152
 X10.2600 Y150.0774
 X10.0020 Y150.0648
 X9.7436 Y150.0774
 X9.4977 Y150.1152
 X9.2561 Y150.1776
 X9.0267 Y150.2606
 X8.8113 Y150.3642
 X8.6075 Y150.4879
 X8.4143 Y150.6330
 X8.2351 Y150.7953
 X8.0759 Y150.9701
 X7.9324 Y151.1631
 X7.8063 Y151.3705
 X7.7023 Y151.5857
 X7.6194 Y151.8131
 X7.5579 Y152.0530
 X7.5202 Y152.3003
 X7.5072 Y152.5580
 X7.5202 Y152.8163
 X7.5581 Y153.0655
 X7.6194 Y153.3049
 X7.7029 Y153.5339
 X7.8076 Y153.7519
 X7.9330 Y153.9588
 X8.0759 Y154.1509
 X8.2361 Y154.3268
 X8.4166 Y154.4910
 X8.6088 Y154.6359
 X8.8143 Y154.7606
 X9.0316 Y154.8663
 X9.2578 Y154.9489
 X9.4959 Y155.0104
 X9.7436 Y155.0478
 X10.0020 Y155.0610
G0 Z2.0000
 Y85.0606
G1 Z-5.0500
 X10.2593 Y85.0476
 X10.5071 Y85.0097
 X10.7453 Y84.9484
 X10.9741 Y84.8645
 X11.1922 Y84.7594
 X11.3984 Y84.6340
 X11.5915 Y84.4896
 X11.7698 Y84.3274
 X11.9321 Y84.1490
 X12.0765 Y83.9560
 X12.2018 Y83.7498
 X12.3070 Y83.5316
 X12.3907 Y83.3031
 X12.4521 Y83.0647
 X12.4900 Y82.8167
 X12.5031 Y82.5596
 X12.4900 Y82.3022
 X12.4521 Y82.0543
 X12.3908 Y81.8162
 X12.3072 Y81.5882
 X12.2023 Y81.3709
 X12.0772 Y81.1654
 X11.9330 Y80.9731
 X11.7710 Y80.7953
 X11.5931 Y80.6339
 X11.4003 Y80.4902
 X11.1940 Y80.3652
 X10.9760 Y80.2605
 X10.7470 Y80.1769
 X10.5080 Y80.1156
 X10.2598 Y80.0778
 X10.0020 Y80.0648
 X9.7438 Y80.0778
 X9.4957 Y80.1156
 X9.2570 Y80.1769
 X9.0286 Y80.2602
 X8.8115 Y80.3647
 X8.6059 Y80.4895
 X8.4138 Y80.6329
 X8.2367 Y80.7939
 X8.0755 Y80.9714
 X7.9318 Y81.1636
 X7.8071 Y81.3691
 X7.7025 Y81.5865
 X7.6192 Y81.8147
 X7.5580 Y82.0532
 X7.5202 Y82.3013
 X7.5072 Y82.5596
 X7.5202 Y82.8175
 X7.5580 Y83.0658
 X7.6192 Y83.3046
 X7.7027 Y83.5333
 X7.8076 Y83.7516
 X7.9325 Y83.9578
 X8.0763 Y84.1506
 X8.2379 Y84.3288
 X8.4155 Y84.4906
 X8.6077 Y84.6347
 X8.8133 Y84.7598
 X9.0306 Y84.8647
 X9.2587 Y84.9484
 X9.4966 Y85.0097
 X9.7443 Y85.0475
 X10.0020 Y85.0606
G0 Z2.0000
 X204.8400 Y77.6493
G1 Z-5.0500
 X204.5826 Y77.6624
 X204.3340 Y77.7003
 X204.0962 Y77.7616
 X203.8669 Y77.8456
 X203.6498 Y77.9502
 X203.4438 Y78.0758
 X203.2496 Y78.2208
 X203.0716 Y78.3828
 X202.9093 Y78.5609
 X202.7664 Y78.7524
 X202.6399 Y78.9612
 X202.5339 Y79.1794
 X202.4512 Y79.4062
 X202.3892 Y79.6464
 X202.3511 Y79.8942
 X202.3380 Y80.1504
 X202.3511 Y80.4069
 X202.3892 Y80.6546
 X202.4511 Y80.8945
 X202.5337 Y81.1207
 X202.6394 Y81.3380
 X202.7657 Y81.5462
 X202.9082 Y81.7368
 X203.0702 Y81.9142
 X203.2480 Y82.0756
 X203.4421 Y82.2200
 X203.6482 Y82.3453
 X203.8651 Y82.4495
 X204.0945 Y82.5331
 X204.3331 Y82.5944
 X204.5818 Y82.6322
 X204.8400 Y82.6452
 X205.0979 Y82.6322
 X205.3456 Y82.5945
 X205.5845 Y82.5331
 X205.8131 Y82.4498
 X206.0291 Y82.3457
 X206.2349 Y82.2206
 X206.4281 Y82.0764
 X206.6057 Y81.9152
 X206.7658 Y81.7391
 X206.9084 Y81.5476
 X207.0338 Y81.3410
 X207.1389 Y81.1224
 X207.2233 Y80.8928
 X207.2839 Y80.6582
 X207.3207 Y80.4106
 X207.3340 Y80.1504
 X207.3207 Y79.8905
 X207.2839 Y79.6428
 X207.2232 Y79.4079
 X207.1387 Y79.1777
 X207.0333 Y78.9582
 X206.9078 Y78.7510
 X206.7648 Y78.5586
 X206.6043 Y78.3818
 X206.4266 Y78.2200
 X206.2332 Y78.0752
 X206.0275 Y77.9497
 X205.8114 Y77.8453
 X205.5828 Y77.7616
 X205.3447 Y77.7003
 X205.0972 Y77.6624
 X204.8400 Y77.6493
G0 Z2.0000
 Y7.6491
G1 Z-5.0500
 X204.5824 Y7.6621
 X204.3341 Y7.7000
 X204.0962 Y7.7613
 X203.8669 Y7.8453
 X203.6499 Y7.9499
 X203.4440 Y8.0755
 X203.2497 Y8.2205
 X203.0717 Y8.3825
 X202.9095 Y8.5606
 X202.7666 Y8.7523
 X202.6400 Y8.9614
 X202.5340 Y9.1795
 X202.4513 Y9.4066
 X202.3892 Y9.6471
 X202.3511 Y9.8953
 X202.3380 Y10.1519
 X202.3511 Y10.4080
 X202.3891 Y10.6554
 X202.4511 Y10.8950
 X202.5336 Y11.1210
 X202.6392 Y11.3381
 X202.7655 Y11.5461
 X202.9082 Y11.7367
 X203.0701 Y11.9142
 X203.2478 Y12.0753
 X203.4420 Y12.2198
 X203.6479 Y12.3449
 X203.8651 Y12.4492
 X204.0945 Y12.5329
 X204.3331 Y12.5941
 X204.5818 Y12.6320
 X204.8400 Y12.6449
 X205.0979 Y12.6320
 X205.3456 Y12.5942
 X205.5845 Y12.5329
 X205.8132 Y12.4495
 X206.0294 Y12.3453
 X206.2350 Y12.2204
 X206.4283 Y12.0761
 X206.6058 Y11.9151
 X206.7659 Y11.7391
 X206.9087 Y11.5474
 X207.0339 Y11.3411
 X207.1390 Y11.1227
 X207.2234 Y10.8932
 X207.2839 Y10.6589
 X207.3207 Y10.4117
 X207.3340 Y10.1519
 X207.3207 Y9.8916
 X207.2838 Y9.6435
 X207.2232 Y9.4084
 X207.1386 Y9.1779
 X207.0332 Y8.9584
 X206.9076 Y8.7510
 X206.7645 Y8.5583
 X206.6042 Y8.3815
 X206.4264 Y8.2197
 X206.2330 Y8.0749
 X206.0274 Y7.9494
 X205.8113 Y7.8450
 X205.5828 Y7.7613
 X205.3446 Y7.6999
 X205.0973 Y7.6621
 X204.8400 Y7.6491
G0 Z2.0000
 X21.5022 Y152.5770
G1 Z-5.0500
 X21.4878 Y153.1477
 X21.4434 Y153.7326
 X21.3701 Y154.3077
 X21.2689 Y154.8750
 X21.1403 Y155.4308
 X20.9854 Y155.9774
 X20.8041 Y156.5129
 X20.5981 Y157.0354
 X20.3674 Y157.5455
 X20.1133 Y158.0413
 X19.8365 Y158.5228
 X19.5373 Y158.9898
 X19.2162 Y159.4413
 X18.8755 Y159.8739
 X18.5152 Y160.2909
 X18.1333 Y160.6923
 X17.7342 Y161.0716
 X17.3172 Y161.4336
 X16.8824 Y161.7741
 X16.4337 Y162.0935
 X15.9671 Y162.3936
 X15.4847 Y162.6713
 X14.9879 Y162.9258
 X14.4780 Y163.1561
 X13.9553 Y163.3621
 X13.4194 Y163.5432
 X12.8753 Y163.6969
 X12.3183 Y163.8270
 X11.7504 Y163.9273
 X11.1769 Y164.0007
 X10.5928 Y164.0455
 X10.0020 Y164.0605
 X9.4108 Y164.0455
 X8.8267 Y164.0007
 X8.2531 Y163.9274
 X7.6851 Y163.8270
 X7.1279 Y163.6969
 X6.5837 Y163.5432
 X6.0477 Y163.3622
 X5.5250 Y163.1562
 X5.0148 Y162.9259
 X4.5181 Y162.6713
 X4.0355 Y162.3937
 X3.5690 Y162.0936
 X3.1200 Y161.7741
 X2.6852 Y161.4336
 X2.2683 Y161.0717
 X1.8692 Y160.6925
 X1.4870 Y160.2909
 X1.1267 Y159.8738
 X0.7861 Y159.4413
 X0.4650 Y158.9899
 X0.1656 Y158.5229
 X-0.1112 Y158.0412
 X-0.3652 Y157.5455
 X-0.5958 Y157.0356
 X-0.8021 Y156.5128
 X-0.9832 Y155.9773
 X-1.1382 Y155.4310
 X-1.2668 Y154.8749
 X-1.3680 Y154.3075
 X-1.4412 Y153.7325
 X-1.4856 Y153.1477
 X-1.5000 Y152.5769
 Y132.5471
 X-1.4856 Y131.9752
 X-1.4412 Y131.3913
 X-1.3680 Y130.8165
 X-1.2669 Y130.2494
 X-1.1382 Y129.6919
 X-0.9830 Y129.1463
 X-0.8021 Y128.6112
 X-0.5958 Y128.0884
 X-0.3655 Y127.5791
 X-0.1112 Y127.0817
 X0.1661 Y126.6005
 X0.4650 Y126.1341
 X0.7855 Y125.6834
 X1.1267 Y125.2491
 X1.4877 Y124.8324
 X1.8684 Y124.4324
 X2.2683 Y124.0512
 X2.6852 Y123.6905
 X3.1190 Y123.3496
 X3.5701 Y123.0286
 X4.0367 Y122.7297
 X4.5181 Y122.4527
 X5.0148 Y122.1981
 X5.5250 Y121.9678
 X6.0477 Y121.7618
 X6.5823 Y121.5812
 X7.1279 Y121.4260
 X7.6851 Y121.2971
 X8.2517 Y121.1958
 X8.8282 Y121.1221
 X9.4123 Y121.0784
 X9.9831 Y121.0640
 X89.5086
 Y116.0730
 X108.5060
 Y121.0640
 X149.5070
 Y116.0730
 X168.5040
 Y121.0640
 X191.5070
 Y149.0670
 X178.5060
 Y141.6075
 X178.4908 Y141.3122
 X178.4527 Y141.0628
 X178.3904 Y140.8216
 X178.3082 Y140.5942
 X178.2027 Y140.3770
 X178.0762 Y140.1676
 X177.9316 Y139.9740
 X177.7720 Y139.7970
 X177.5958 Y139.6375
 X177.4020 Y139.4928
 X177.1954 Y139.3674
 X176.9784 Y139.2632
 X176.7485 Y139.1795
 X176.5084 Y139.1177
 X176.2603 Y139.0803
 X176.0001 Y139.0670
 X175.7405 Y139.0803
 X175.4918 Y139.1177
 X175.2542 Y139.1790
 X175.0258 Y139.2626
 X174.8094 Y139.3665
 X174.6056 Y139.4910
 X174.4121 Y139.6359
 X174.2349 Y139.7970
 X174.0746 Y139.9740
 X173.9326 Y140.1649
 X173.8078 Y140.3726
 X173.7014 Y140.5942
 X173.6180 Y140.8216
 X173.5583 Y141.0574
 X173.5205 Y141.3085
 X173.5060 Y141.6057
 Y149.0670
 X162.5060
 Y141.6075
 X162.4907 Y141.3103
 X162.4533 Y141.0610
 X162.3918 Y140.8233
 X162.3078 Y140.5926
 X162.2029 Y140.3741
 X162.0790 Y140.1690
 X161.9345 Y139.9764
 X161.7721 Y139.7970
 X161.5957 Y139.6367
 X161.4022 Y139.4922
 X161.1965 Y139.3669
 X160.9810 Y139.2635
 X160.7493 Y139.1794
 X160.5107 Y139.1177
 X160.2625 Y139.0803
 X160.0030 Y139.0670
 X159.7433 Y139.0803
 X159.4940 Y139.1177
 X159.2563 Y139.1792
 X159.0264 Y139.2629
 X158.8121 Y139.3661
 X158.6066 Y139.4916
 X158.4144 Y139.6352
 X158.2396 Y139.7950
 X158.0776 Y139.9740
 X157.9337 Y140.1676
 X157.8092 Y140.3726
 X157.7056 Y140.5909
 X157.6210 Y140.8216
 X157.5608 Y141.0592
 X157.5224 Y141.3104
 X157.5080 Y141.6057
 Y149.0670
 X146.4990
 Y141.6075
 X146.4837 Y141.3103
 X146.4463 Y141.0610
 X146.3844 Y140.8216
 X146.3010 Y140.5909
 X146.1969 Y140.3741
 X146.0714 Y140.1663
 X145.9276 Y139.9729
 X145.7672 Y139.7950
 X145.5918 Y139.6352
 X145.3994 Y139.4910
 X145.1956 Y139.3665
 X144.9810 Y139.2635
 X144.7493 Y139.1794
 X144.5104 Y139.1176
 X144.2632 Y139.0802
 X144.0039 Y139.0670
 X143.7437 Y139.0803
 X143.4956 Y139.1177
 X143.2555 Y139.1795
 X143.0256 Y139.2632
 X142.8095 Y139.3669
 X142.6048 Y139.4916
 X142.4111 Y139.6367
 X142.2330 Y139.7980
 X142.0725 Y139.9752
 X141.9288 Y140.1676
 X141.8032 Y140.3756
 X141.6984 Y140.5926
 X141.6156 Y140.8216
 X141.5533 Y141.0628
 X141.5152 Y141.3122
 X141.5000 Y141.6075
 Y149.0670
 X130.5010
 Y141.6075
 X130.4857 Y141.3103
 X130.4480 Y141.0592
 X130.3872 Y140.8216
 X130.3032 Y140.5909
 X130.1990 Y140.3726
 X130.0744 Y140.1663
 X129.9314 Y139.9740
 X129.7703 Y139.7960
 X129.5938 Y139.6352
 X129.4022 Y139.4916
 X129.1968 Y139.3665
 X128.9810 Y139.2626
 X128.7525 Y139.1792
 X128.5142 Y139.1177
 X128.2655 Y139.0803
 X128.0060 Y139.0670
 X127.7463 Y139.0803
 X127.4966 Y139.1178
 X127.2579 Y139.1793
 X127.0276 Y139.2632
 X126.8106 Y139.3674
 X126.6040 Y139.4928
 X126.4113 Y139.6367
 X126.2349 Y139.7970
 X126.0735 Y139.9752
 X125.9298 Y140.1676
 X125.8042 Y140.3756
 X125.6986 Y140.5942
 X125.6158 Y140.8216
 X125.5546 Y141.0610
 X125.5162 Y141.3122
 X125.5010 Y141.6075
 Y149.0670
 X114.5020
 Y141.6075
 X114.4867 Y141.3103
 X114.4490 Y141.0592
 X114.3882 Y140.8216
 X114.3042 Y140.5909
 X114.2000 Y140.3726
 X114.0754 Y140.1663
 X113.9324 Y139.9740
 X113.7713 Y139.7960
 X113.5948 Y139.6352
 X113.4032 Y139.4916
 X113.1978 Y139.3665
 X112.9826 Y139.2629
 X112.7527 Y139.1792
 X112.5147 Y139.1177
 X112.2665 Y139.0803
 X112.0070 Y139.0670
 X111.7475 Y139.0803
 X111.4984 Y139.1178
 X111.2585 Y139.1795
 X111.0286 Y139.2632
 X110.8125 Y139.3669
 X110.6068 Y139.4922
 X110.4133 Y139.6367
 X110.2358 Y139.7980
 X110.0737 Y139.9764
 X109.9308 Y140.1676
 X109.8052 Y140.3756
 X109.6996 Y140.5942
 X109.6162 Y140.8233
 X109.5547 Y141.0610
 X109.5173 Y141.3103
 X109.5020 Y141.6075
 Y149.0670
 X98.5040
 Y141.6060
 X98.4894 Y141.3100
 X98.4516 Y141.0612
 X98.3904 Y140.8232
 X98.3067 Y140.5940
 X98.2014 Y140.3753
 X98.0762 Y140.1684
 X97.9323 Y139.9759
 X97.7706 Y139.7976
 X97.5937 Y139.6370
 X97.4001 Y139.4924
 X97.1942 Y139.3672
 X96.9778 Y139.2633
 X96.7471 Y139.1794
 X96.5081 Y139.1178
 X96.2592 Y139.0803
 X95.9997 Y139.0670
 X95.7402 Y139.0803
 X95.4919 Y139.1177
 X95.2536 Y139.1792
 X95.0240 Y139.2629
 X94.8087 Y139.3664
 X94.6039 Y139.4914
 X94.4112 Y139.6356
 X94.2354 Y139.7957
 X94.0745 Y139.9739
 X93.9312 Y140.1662
 X93.8069 Y140.3726
 X93.7019 Y140.5918
 X93.6184 Y140.8213
 X93.5575 Y141.0596
 X93.5196 Y141.3102
 X93.5047 Y141.6068
 Y149.0670
 X82.5053
 Y141.6069
 X82.4903 Y141.3109
 X82.4524 Y141.0610
 X82.3913 Y140.8232
 X82.3075 Y140.5939
 X82.2023 Y140.3751
 X82.0772 Y140.1686
 X81.9331 Y139.9758
 X81.7715 Y139.7975
 X81.5947 Y139.6371
 X81.4011 Y139.4925
 X81.1951 Y139.3671
 X80.9787 Y139.2633
 X80.7482 Y139.1794
 X80.5090 Y139.1178
 X80.2602 Y139.0803
 X80.0006 Y139.0670
 X79.7410 Y139.0803
 X79.4927 Y139.1177
 X79.2544 Y139.1792
 X79.0248 Y139.2629
 X78.8095 Y139.3665
 X78.6046 Y139.4914
 X78.4121 Y139.6356
 X78.2362 Y139.7957
 X78.0755 Y139.9737
 X77.9322 Y140.1662
 X77.8076 Y140.3729
 X77.7028 Y140.5916
 X77.6193 Y140.8213
 X77.5583 Y141.0597
 X77.5205 Y141.3098
 X77.5057 Y141.6064
 Y149.0670
 X66.5060
 Y141.6068
 X66.4911 Y141.3105
 X66.4532 Y141.0610
 X66.3920 Y140.8230
 X66.3082 Y140.5934
 X66.2032 Y140.3748
 X66.0781 Y140.1682
 X65.9342 Y139.9754
 X65.7727 Y139.7971
 X65.5962 Y139.6368
 X65.4026 Y139.4923
 X65.1969 Y139.3670
 X64.9806 Y139.2632
 X64.7503 Y139.1793
 X64.5115 Y139.1178
 X64.2627 Y139.0803
 X64.0031 Y139.0670
 X63.7434 Y139.0803
 X63.4945 Y139.1178
 X63.2555 Y139.1794
 X63.0249 Y139.2633
 X62.8086 Y139.3671
 X62.6026 Y139.4925
 X62.4088 Y139.6371
 X62.2320 Y139.7976
 X62.0703 Y139.9759
 X61.9264 Y140.1684
 X61.8014 Y140.3750
 X61.6962 Y140.5937
 X61.6123 Y140.8235
 X61.5510 Y141.0614
 X61.5132 Y141.3105
 X61.4983 Y141.6068
 Y149.0670
 X50.4987
 Y141.6066
 X50.4838 Y141.3100
 X50.4460 Y141.0597
 X50.3850 Y140.8213
 X50.3015 Y140.5916
 X50.1967 Y140.3729
 X50.0721 Y140.1662
 X49.9288 Y139.9737
 X49.7681 Y139.7957
 X49.5924 Y139.6357
 X49.3996 Y139.4914
 X49.1947 Y139.3664
 X48.9794 Y139.2629
 X48.7500 Y139.1792
 X48.5117 Y139.1177
 X48.2633 Y139.0803
 X48.0039 Y139.0670
 X47.7443 Y139.0803
 X47.4955 Y139.1178
 X47.2565 Y139.1794
 X47.0261 Y139.2632
 X46.8101 Y139.3669
 X46.6044 Y139.4922
 X46.4107 Y139.6369
 X46.2340 Y139.7973
 X46.0726 Y139.9754
 X45.9289 Y140.1679
 X45.8038 Y140.3748
 X45.6984 Y140.5937
 X45.6149 Y140.8227
 X45.5538 Y141.0608
 X45.5158 Y141.3105
 X45.5010 Y141.6066
 Y149.0670
 X34.5013
 Y141.6068
 X34.4863 Y141.3098
 X34.4487 Y141.0596
 X34.3876 Y140.8213
 X34.3042 Y140.5916
 X34.1994 Y140.3730
 X34.0748 Y140.1663
 X33.9313 Y139.9736
 X33.7707 Y139.7956
 X33.5950 Y139.6357
 X33.4022 Y139.4914
 X33.1974 Y139.3664
 X32.9821 Y139.2629
 X32.7525 Y139.1792
 X32.5143 Y139.1177
 X32.2658 Y139.0803
 X32.0064 Y139.0670
 X31.7464 Y139.0803
 X31.4972 Y139.1178
 X31.2579 Y139.1794
 X31.0275 Y139.2633
 X30.8113 Y139.3670
 X30.6054 Y139.4924
 X30.4116 Y139.6371
 X30.2350 Y139.7974
 X30.0735 Y139.9756
 X29.9297 Y140.1682
 X29.8045 Y140.3750
 X29.6994 Y140.5935
 X29.6157 Y140.8230
 X29.5545 Y141.0608
 X29.5167 Y141.3105
 X29.5017 Y141.6069
 Y149.0670
 X21.5022
 Y152.5770
G0 Z2.0000
 Y82.5786
G1 Z-5.0500
 X21.4878 Y83.1498
 X21.4434 Y83.7335
 X21.3701 Y84.3090
 X21.2689 Y84.8755
 X21.1404 Y85.4321
 X20.9852 Y85.9785
 X20.8040 Y86.5135
 X20.5980 Y87.0360
 X20.3675 Y87.5457
 X20.1133 Y88.0420
 X19.8363 Y88.5235
 X19.5372 Y88.9902
 X19.2167 Y89.4408
 X18.8755 Y89.8751
 X18.5139 Y90.2924
 X18.1336 Y90.6913
 X17.7347 Y91.0717
 X17.3174 Y91.4332
 X16.8831 Y91.7742
 X16.4327 Y92.0947
 X15.9660 Y92.3940
 X15.4844 Y92.6709
 X14.9883 Y92.9251
 X14.4783 Y93.1558
 X13.9557 Y93.3618
 X13.4209 Y93.5428
 X12.8745 Y93.6981
 X12.3176 Y93.8266
 X11.7514 Y93.9276
 X11.1760 Y94.0010
 X10.5921 Y94.0454
 X10.0020 Y94.0602
 X9.4116 Y94.0454
 X8.8276 Y94.0010
 X8.2521 Y93.9276
 X7.6858 Y93.8266
 X7.1287 Y93.6981
 X6.5822 Y93.5429
 X6.0473 Y93.3618
 X5.5246 Y93.1558
 X5.0145 Y92.9252
 X4.5183 Y92.6709
 X4.0367 Y92.3940
 X3.5700 Y92.0948
 X3.1193 Y91.7743
 X2.6851 Y91.4331
 X2.2679 Y91.0718
 X1.8689 Y90.6914
 X1.4882 Y90.2924
 X1.1268 Y89.8750
 X0.7856 Y89.4409
 X0.4651 Y88.9904
 X0.1658 Y88.5236
 X-0.1112 Y88.0419
 X-0.3653 Y87.5458
 X-0.5958 Y87.0362
 X-0.8020 Y86.5134
 X-0.9830 Y85.9784
 X-1.1382 Y85.4323
 X-1.2668 Y84.8754
 X-1.3680 Y84.3088
 X-1.4412 Y83.7334
 X-1.4856 Y83.1498
 X-1.5000 Y82.5785
 Y62.5465
 X-1.4856 Y61.9750
 X-1.4412 Y61.3915
 X-1.3680 Y60.8159
 X-1.2668 Y60.2493
 X-1.1383 Y59.6922
 X-0.9831 Y59.1459
 X-0.8021 Y58.6110
 X-0.5959 Y58.0880
 X-0.3653 Y57.5784
 X-0.1113 Y57.0823
 X0.1658 Y56.6002
 X0.4650 Y56.1337
 X0.7855 Y55.6829
 X1.1269 Y55.2486
 X1.4881 Y54.8317
 X1.8687 Y54.4324
 X2.2679 Y54.0518
 X2.6849 Y53.6906
 X3.1191 Y53.3493
 X3.5701 Y53.0286
 X4.0366 Y52.7296
 X4.5183 Y52.4524
 X5.0147 Y52.1982
 X5.5245 Y51.9678
 X6.0472 Y51.7616
 X6.5822 Y51.5805
 X7.1286 Y51.4253
 X7.6857 Y51.2968
 X8.2521 Y51.1957
 X8.8276 Y51.1223
 X9.4114 Y51.0779
 X9.9831 Y51.0635
 X89.5086
 Y46.0724
 X108.5060
 Y51.0635
 X149.5070
 Y46.0724
 X168.5040
 Y51.0635
 X191.5070
 Y79.0676
 X174.5100 Y79.0576
 Y71.5997
 X174.4947 Y71.3018
 X174.4570 Y71.0510
 X174.3964 Y70.8137
 X174.3125 Y70.5848
 X174.2072 Y70.3653
 X174.0834 Y70.1609
 X173.9391 Y69.9685
 X173.7773 Y69.7903
 X173.5990 Y69.6286
 X173.4067 Y69.4848
 X173.2000 Y69.3598
 X172.9811 Y69.2545
 X172.7517 Y69.1707
 X172.5136 Y69.1094
 X172.2641 Y69.0715
 X172.0059 Y69.0584
 X171.7468 Y69.0715
 X171.4974 Y69.1094
 X171.2593 Y69.1707
 X171.0307 Y69.2542
 X170.8145 Y69.3585
 X170.6089 Y69.4836
 X170.4161 Y69.6278
 X170.2396 Y69.7883
 X170.0799 Y69.9650
 X169.9362 Y70.1582
 X169.8127 Y70.3623
 X169.7087 Y70.5815
 X169.6242 Y70.8120
 X169.5639 Y71.0510
 X169.5254 Y71.3018
 X169.5110 Y71.5979
 Y79.0585
 X158.5110
 Y71.5997
 X158.4958 Y71.3036
 X158.4571 Y71.0510
 X158.3968 Y70.8120
 X158.3135 Y70.5848
 X158.2082 Y70.3653
 X158.0836 Y70.1596
 X157.9409 Y69.9685
 X157.7785 Y69.7903
 X157.5991 Y69.6270
 X157.4087 Y69.4842
 X157.2030 Y69.3598
 X156.9841 Y69.2545
 X156.7547 Y69.1707
 X156.5166 Y69.1094
 X156.2672 Y69.0715
 X156.0079 Y69.0584
 X155.7483 Y69.0715
 X155.5000 Y69.1094
 X155.2595 Y69.1710
 X155.0325 Y69.2539
 X154.8163 Y69.3585
 X154.6091 Y69.4842
 X154.4181 Y69.6270
 X154.2425 Y69.7873
 X154.0819 Y69.9650
 X153.9382 Y70.1582
 X153.8128 Y70.3653
 X153.7083 Y70.5832
 X153.6250 Y70.8120
 X153.5640 Y71.0510
 X153.5263 Y71.3018
 X153.5110 Y71.5997
 Y79.0585
 X142.5040
 Y71.5997
 X142.4888 Y71.3036
 X142.4501 Y71.0510
 X142.3898 Y70.8120
 X142.3053 Y70.5815
 X142.2013 Y70.3623
 X142.0786 Y70.1596
 X141.9342 Y69.9662
 X141.7725 Y69.7873
 X141.5969 Y69.6270
 X141.4051 Y69.4836
 X141.1995 Y69.3585
 X140.9833 Y69.2542
 X140.7547 Y69.1707
 X140.5166 Y69.1094
 X140.2672 Y69.0715
 X140.0081 Y69.0584
 X139.7499 Y69.0715
 X139.4999 Y69.1095
 X139.2609 Y69.1708
 X139.0319 Y69.2545
 X138.8139 Y69.3594
 X138.6081 Y69.4842
 X138.4150 Y69.6286
 X138.2367 Y69.7903
 X138.0760 Y69.9673
 X137.9314 Y70.1609
 X137.8061 Y70.3668
 X137.7023 Y70.5832
 X137.6184 Y70.8137
 X137.5568 Y71.0528
 X137.5193 Y71.3018
 X137.5040 Y71.5997
 Y79.0585
 X126.5060
 Y71.5979
 X126.4916 Y71.3018
 X126.4534 Y71.0528
 X126.3920 Y70.8120
 X126.3081 Y70.5815
 X126.2043 Y70.3638
 X126.0806 Y70.1596
 X125.9362 Y69.9662
 X125.7754 Y69.7883
 X125.5981 Y69.6270
 X125.4069 Y69.4836
 X125.2014 Y69.3589
 X124.9843 Y69.2542
 X124.7557 Y69.1707
 X124.5174 Y69.1093
 X124.2690 Y69.0715
 X124.0091 Y69.0584
 X123.7501 Y69.0715
 X123.5012 Y69.1094
 X123.2619 Y69.1708
 X123.0329 Y69.2545
 X122.8149 Y69.3594
 X122.6091 Y69.4842
 X122.4171 Y69.6278
 X122.2396 Y69.7893
 X122.0780 Y69.9673
 X121.9344 Y70.1596
 X121.8089 Y70.3668
 X121.7037 Y70.5848
 X121.6210 Y70.8120
 X121.5596 Y71.0528
 X121.5214 Y71.3018
 X121.5070 Y71.5979
 Y79.0585
 X110.5070
 Y71.5997
 X110.4917 Y71.3018
 X110.4540 Y71.0510
 X110.3930 Y70.8120
 X110.3091 Y70.5815
 X110.2053 Y70.3638
 X110.0808 Y70.1582
 X109.9380 Y69.9662
 X109.7766 Y69.7883
 X109.5990 Y69.6262
 X109.4089 Y69.4836
 X109.2034 Y69.3589
 X108.9857 Y69.2539
 X108.7585 Y69.1707
 X108.5198 Y69.1094
 X108.2709 Y69.0715
 X108.0120 Y69.0584
 X107.7531 Y69.0715
 X107.5042 Y69.1094
 X107.2649 Y69.1708
 X107.0351 Y69.2548
 X106.8161 Y69.3598
 X106.6111 Y69.4842
 X106.4191 Y69.6278
 X106.2416 Y69.7893
 X106.0789 Y69.9685
 X105.9346 Y70.1609
