;PYCAM-META-DATA: Filename: None
;PYCAM-META-DATA: Timestamp: 2012-04-23 15:40:03.192859
;PYCAM-META-DATA: Version: 0.5.1
;Estimated machine time: 2 minutes
G40 (disable tool radius compensation)
G49 (disable tool length compensation)
G80 (cancel modal motion)
G54 (select coordinate system 1)
G90 (disable incremental moves)
G21 (metric)
G61 (exact path mode)
F400.00000
S1000.00000
;PYCAM_TOOLPATH_SETTINGS: START
;[Bounds]
;maxz = -5.05
;maxx = 248.53382496
;maxy = 50.25
;minx = -21.17607456
;miny = -14.6408328
;minz = -5.05
;
;[Tool]
;torus_radius = 0.25
;speed = 1000.0
;shape = CylindricalCutter
;tool_radius = 1.5
;feedrate = 400.0
;
;[Process]
;engrave_offset = 1.5
;step_down = 2.0
;generator = EngraveCutter
;postprocessor = SimpleCutter
;milling_style = conventional
;material_allowance = 0.0
;pocketing_type = none
;path_direction = x
;
;PYCAM_TOOLPATH_SETTINGS: END
T1 M6
G0 Z10.0000
M3 (start spindle)
G04 P3 (wait for 3 seconds)
 X89.5086 Y50.2500
G1 Z-5.0500
 Y46.0724
 X108.5060
 Y50.2500
G0 Z10.0000
 X149.5070
G1 Z-5.0500
 Y46.0724
 X168.5040
 Y50.2500
G0 Z10.0000
 X204.8400 Y7.6491
G1 Z-5.0500
 X204.5824 Y7.6621
 X204.3341 Y7.7000
 X204.0962 Y7.7613
 X203.8669 Y7.8453
 X203.6499 Y7.9499
 X203.4440 Y8.0755
 X203.2497 Y8.2205
 X203.0717 Y8.3825
 X202.9095 Y8.5606
 X202.7666 Y8.7523
 X202.6400 Y8.9614
 X202.5340 Y9.1795
 X202.4513 Y9.4066
 X202.3892 Y9.6471
 X202.3511 Y9.8953
 X202.3380 Y10.1519
 X202.3511 Y10.4080
 X202.3891 Y10.6554
 X202.4511 Y10.8950
 X202.5336 Y11.1210
 X202.6392 Y11.3381
 X202.7655 Y11.5461
 X202.9082 Y11.7367
 X203.0701 Y11.9142
 X203.2478 Y12.0753
 X203.4420 Y12.2198
 X203.6479 Y12.3449
 X203.8651 Y12.4492
 X204.0945 Y12.5329
 X204.3331 Y12.5941
 X204.5818 Y12.6320
 X204.8400 Y12.6449
 X205.0979 Y12.6320
 X205.3456 Y12.5942
 X205.5845 Y12.5329
 X205.8132 Y12.4495
 X206.0294 Y12.3453
 X206.2350 Y12.2204
 X206.4283 Y12.0761
 X206.6058 Y11.9151
 X206.7659 Y11.7391
 X206.9087 Y11.5474
 X207.0339 Y11.3411
 X207.1390 Y11.1227
 X207.2234 Y10.8932
 X207.2839 Y10.6589
 X207.3207 Y10.4117
 X207.3340 Y10.1519
 X207.3207 Y9.8916
 X207.2838 Y9.6435
 X207.2232 Y9.4084
 X207.1386 Y9.1779
 X207.0332 Y8.9584
 X206.9076 Y8.7510
 X206.7645 Y8.5583
 X206.6042 Y8.3815
 X206.4264 Y8.2197
 X206.2330 Y8.0749
 X206.0274 Y7.9494
 X205.8113 Y7.8450
 X205.5828 Y7.7613
 X205.3446 Y7.6999
 X205.0973 Y7.6621
 X204.8400 Y7.6491
G0 Z10.0000
 X193.3390 Y10.1315
G1 Z-5.0500
 X193.3546 Y9.5594
 X193.3991 Y8.9796
 X193.4705 Y8.4031
 X193.5731 Y7.8351
 X193.7006 Y7.2793
 X193.8562 Y6.7324
 X194.0368 Y6.1978
 X194.2434 Y5.6737
 X194.4748 Y5.1636
 X194.7287 Y4.6681
 X195.0050 Y4.1878
 X195.3029 Y3.7211
 X195.6253 Y3.2680
 X195.9673 Y2.8343
 X196.3272 Y2.4183
 X196.7084 Y2.0183
 X197.1077 Y1.6384
 X197.5233 Y1.2773
 X197.9584 Y0.9355
 X198.4084 Y0.6155
 X198.8750 Y0.3156
 X199.3578 Y0.0388
 X199.8519 Y-0.2150
 X200.3624 Y-0.4459
 X200.8856 Y-0.6522
 X201.4214 Y-0.8331
 X201.9659 Y-0.9882
 X202.5245 Y-1.1169
 X203.0904 Y-1.2180
 X203.6664 Y-1.2912
 X204.2490 Y-1.3356
 X204.8400 Y-1.3505
 X205.4299 Y-1.3356
 X206.0137 Y-1.2912
 X206.5883 Y-1.2181
 X207.1566 Y-1.1169
 X207.7129 Y-0.9882
 X208.2593 Y-0.8332
 X208.7948 Y-0.6521
 X209.3176 Y-0.4459
 X209.8275 Y-0.2153
 X210.3233 Y0.0388
 X210.8049 Y0.3156
 X211.2719 Y0.6150
 X211.7233 Y0.9361
 X212.1558 Y1.2767
 X212.5729 Y1.6369
 X212.9745 Y2.0191
 X213.3545 Y2.4192
 X213.7145 Y2.8352
 X214.0555 Y3.2690
 X214.3763 Y3.7200
 X214.6746 Y4.1855
 X214.9527 Y4.6669
 X215.2079 Y5.1648
 X215.4382 Y5.6750
 X215.6442 Y6.1978
 X215.8253 Y6.7337
 X215.9789 Y7.2779
 X216.1090 Y7.8351
 X216.2093 Y8.4031
 X216.2827 Y8.9767
 X216.3275 Y9.5609
 X216.3420 Y10.1330
 Y30.1631
 X216.3275 Y30.7353
 X216.2827 Y31.3194
 X216.2093 Y31.8929
 X216.1090 Y32.4609
 X215.9789 Y33.0181
 X215.8253 Y33.5623
 X215.6442 Y34.0985
 X215.4382 Y34.6211
 X215.2079 Y35.1313
 X214.9527 Y35.6292
 X214.6746 Y36.1107
 X214.3763 Y36.5760
 X214.0555 Y37.0271
 X213.7144 Y37.4609
 X213.3545 Y37.8768
 X212.9745 Y38.2769
 X212.5730 Y38.6590
 X212.1559 Y39.0194
 X211.7233 Y39.3601
 X211.2720 Y39.6811
 X210.8050 Y39.9805
 X210.3231 Y40.2574
 X209.8275 Y40.5113
 X209.3177 Y40.7419
 X208.7947 Y40.9482
 X208.2594 Y41.1292
 X207.7130 Y41.2844
 X207.1564 Y41.4130
 X206.5882 Y41.5141
 X206.0139 Y41.5872
 X205.4300 Y41.6318
 X204.8588 Y41.6461
 X125.3330
 Y46.6372
 X106.3360
 Y41.6461
 X65.3349
 Y46.6372
 X46.3374
 Y41.6461
 X23.3349
 Y13.6429
 X42.3340
 Y21.1025
 X42.3489 Y21.3996
 X42.3868 Y21.6488
 X42.4482 Y21.8882
 X42.5318 Y22.1173
 X42.6367 Y22.3356
 X42.7615 Y22.5414
 X42.9054 Y22.7341
 X43.0669 Y22.9119
 X43.2445 Y23.0733
 X43.4372 Y23.2173
 X43.6429 Y23.3422
 X43.8610 Y23.4470
 X44.0902 Y23.5307
 X44.3296 Y23.5920
 X44.5793 Y23.6300
 X44.8387 Y23.6431
 X45.0975 Y23.6300
 X45.3465 Y23.5921
 X45.5852 Y23.5309
 X45.8131 Y23.4475
 X46.0300 Y23.3430
 X46.2348 Y23.2184
 X46.4264 Y23.0747
 X46.6034 Y22.9134
 X46.7641 Y22.7359
 X46.9074 Y22.5434
 X47.0318 Y22.3375
 X47.1363 Y22.1194
 X47.2196 Y21.8899
 X47.2809 Y21.6499
 X47.3187 Y21.4002
 X47.3336 Y21.1026
 Y13.6429
 X58.3332
 Y21.1025
 X58.3481 Y21.3996
 X58.3860 Y21.6488
 X58.4474 Y21.8882
 X58.5311 Y22.1176
 X58.6357 Y22.3356
 X58.7606 Y22.5414
 X58.9046 Y22.7342
 X59.0661 Y22.9120
 X59.2438 Y23.0736
 X59.4362 Y23.2175
 X59.6418 Y23.3424
 X59.8596 Y23.4471
 X60.0886 Y23.5308
 X60.3277 Y23.5920
 X60.5771 Y23.6300
 X60.8361 Y23.6431
 X61.0950 Y23.6300
 X61.3440 Y23.5921
 X61.5824 Y23.5309
 X61.8105 Y23.4474
 X62.0276 Y23.3429
 X62.2324 Y23.2183
 X62.4239 Y23.0748
 X62.6007 Y22.9135
 X62.7618 Y22.7357
 X62.9049 Y22.5434
 X63.0293 Y22.3375
 X63.1338 Y22.1194
 X63.2171 Y21.8899
 X63.2784 Y21.6499
 X63.3162 Y21.4002
 X63.3311 Y21.1026
 Y13.6429
 X74.3406
 Y21.1028
 X74.3554 Y21.4004
 X74.3932 Y21.6501
 X74.4544 Y21.8899
 X74.5378 Y22.1194
 X74.6422 Y22.3375
 X74.7667 Y22.5434
 X74.9100 Y22.7361
 X75.0706 Y22.9134
 X75.2475 Y23.0747
 X75.4392 Y23.2184
 X75.6439 Y23.3429
 X75.8610 Y23.4474
 X76.0891 Y23.5309
 X76.3276 Y23.5921
 X76.5765 Y23.6300
 X76.8353 Y23.6431
 X77.0943 Y23.6300
 X77.3437 Y23.5921
 X77.5828 Y23.5308
 X77.8118 Y23.4471
 X78.0297 Y23.3423
 X78.2353 Y23.2175
 X78.4278 Y23.0736
 X78.6056 Y22.9119
 X78.7670 Y22.7342
 X78.9108 Y22.5415
 X79.0356 Y22.3357
 X79.1406 Y22.1173
 X79.2242 Y21.8881
 X79.2855 Y21.6488
 X79.3235 Y21.3996
 X79.3383 Y21.1026
 Y13.6429
 X90.3379
 Y21.1028
 X90.3527 Y21.4004
 X90.3905 Y21.6499
 X90.4518 Y21.8899
 X90.5351 Y22.1194
 X90.6396 Y22.3375
 X90.7639 Y22.5433
 X90.9073 Y22.7358
 X91.0682 Y22.9136
 X91.2449 Y23.0747
 X91.4365 Y23.2183
 X91.6413 Y23.3429
 X91.8584 Y23.4475
 X92.0864 Y23.5309
 X92.3249 Y23.5921
 X92.5739 Y23.6300
 X92.8328 Y23.6431
 X93.0922 Y23.6300
 X93.3419 Y23.5920
 X93.5813 Y23.5307
 X93.8105 Y23.4470
 X94.0286 Y23.3422
 X94.2342 Y23.2174
 X94.4268 Y23.0734
 X94.6047 Y22.9117
 X94.7661 Y22.7341
 X94.9100 Y22.5414
 X95.0349 Y22.3354
 X95.1397 Y22.1174
 X95.2233 Y21.8882
 X95.2847 Y21.6488
 X95.3226 Y21.3996
 X95.3375 Y21.1025
 Y13.6429
 X106.3370
 Y21.1017
 X106.3523 Y21.3998
 X106.3900 Y21.6506
 X106.4510 Y21.8895
 X106.5349 Y22.1201
 X106.6387 Y22.3378
 X106.7632 Y22.5433
 X106.9061 Y22.7356
 X107.0673 Y22.9131
 X107.2449 Y23.0752
 X107.4362 Y23.2187
 X107.6399 Y23.3428
 X107.8575 Y23.4474
 X108.0854 Y23.5310
 X108.3238 Y23.5921
 X108.5731 Y23.6300
 X108.8320 Y23.6431
 X109.0909 Y23.6300
 X109.3402 Y23.5921
 X109.5793 Y23.5308
 X109.8089 Y23.4469
 X110.0277 Y23.3420
 X110.2326 Y23.2175
 X110.4250 Y23.0736
 X110.6026 Y22.9121
 X110.7650 Y22.7333
 X110.9094 Y22.5406
 X111.0341 Y22.3348
 X111.1393 Y22.1168
 X111.2220 Y21.8895
 X111.2834 Y21.6488
 X111.3218 Y21.3980
 X111.3370 Y21.1017
 Y13.6429
 X122.3350
 Y21.1036
 X122.3494 Y21.3998
 X122.3876 Y21.6488
 X122.4486 Y21.8878
 X122.5326 Y22.1168
 X122.6378 Y22.3363
 X122.7616 Y22.5406
 X122.9060 Y22.7333
 X123.0684 Y22.9121
 X123.2460 Y23.0736
 X123.4376 Y23.2169
 X123.6441 Y23.3420
 X123.8629 Y23.4472
 X124.0917 Y23.5308
 X124.3308 Y23.5921
 X124.5801 Y23.6300
 X124.8390 Y23.6431
 X125.0979 Y23.6300
 X125.3472 Y23.5921
 X125.5856 Y23.5310
 X125.8135 Y23.4474
 X126.0311 Y23.3428
 X126.2348 Y23.2187
 X126.4272 Y23.0744
 X126.6046 Y22.9131
 X126.7640 Y22.7368
 X126.9078 Y22.5433
 X127.0332 Y22.3363
 X127.1369 Y22.1201
 X127.2195 Y21.8913
 X127.2810 Y21.6506
 X127.3187 Y21.3998
 X127.3340 Y21.1017
 Y13.6429
 X138.3340
 Y21.1036
 X138.3484 Y21.3998
 X138.3866 Y21.6488
 X138.4476 Y21.8878
 X138.5316 Y22.1168
 X138.6368 Y22.3363
 X138.7606 Y22.5406
 X138.9050 Y22.7333
 X139.0674 Y22.9121
 X139.2450 Y23.0736
 X139.4366 Y23.2169
 X139.6431 Y23.3420
 X139.8619 Y23.4472
 X140.0903 Y23.5306
 X140.3306 Y23.5921
 X140.5793 Y23.6300
 X140.8389 Y23.6431
 X141.0976 Y23.6300
 X141.3464 Y23.5921
 X141.5854 Y23.5310
 X141.8119 Y23.4477
 X142.0301 Y23.3428
 X142.2338 Y23.2187
 X142.4262 Y23.0744
 X142.6036 Y22.9131
 X142.7641 Y22.7356
 X142.9076 Y22.5433
 X143.0314 Y22.3378
 X143.1359 Y22.1201
 X143.2192 Y21.8896
 X143.2812 Y21.6488
 X143.3185 Y21.4017
 X143.3330 Y21.1036
 Y13.6429
 X154.3330
 Y21.1036
 X154.3474 Y21.3998
 X154.3853 Y21.6470
 X154.4474 Y21.8878
 X154.5313 Y22.1184
 X154.6358 Y22.3363
 X154.7596 Y22.5406
 X154.9049 Y22.7344
 X155.0656 Y22.9121
 X155.2429 Y23.0729
 X155.4372 Y23.2181
 X155.6419 Y23.3428
 X155.8589 Y23.4472
 X156.0873 Y23.5306
 X156.3276 Y23.5921
 X156.5763 Y23.6300
 X156.8359 Y23.6431
 X157.0949 Y23.6300
 X157.3442 Y23.5921
 X157.5833 Y23.5308
 X157.8121 Y23.4472
 X158.0300 Y23.3424
 X158.2366 Y23.2169
 X158.4299 Y23.0729
 X158.6077 Y22.9111
 X158.7698 Y22.7333
 X158.9126 Y22.5419
 X159.0372 Y22.3363
 X159.1424 Y22.1168
 X159.2271 Y21.8861
 X159.2878 Y21.6506
 X159.3246 Y21.4017
 X159.3400 Y21.1017
 Y13.6429
 X170.3400
 Y21.1017
 X170.3553 Y21.3998
 X170.3930 Y21.6506
 X170.4540 Y21.8895
 X170.5373 Y22.1184
 X170.6433 Y22.3394
 X170.7664 Y22.5446
 X170.9081 Y22.7344
 X171.0703 Y22.9131
 X171.2479 Y23.0752
 X171.4392 Y23.2187
 X171.6429 Y23.3428
 X171.8605 Y23.4474
 X172.0879 Y23.5308
 X172.3276 Y23.5921
 X172.5764 Y23.6300
 X172.8349 Y23.6431
 X173.0931 Y23.6300
 X173.3439 Y23.5919
 X173.5837 Y23.5306
 X173.8121 Y23.4472
 X174.0291 Y23.3428
 X174.2338 Y23.2181
 X174.4281 Y23.0729
 X174.6054 Y22.9121
 X174.7661 Y22.7344
 X174.9114 Y22.5406
 X175.0352 Y22.3363
 X175.1397 Y22.1184
 X175.2236 Y21.8878
 X175.2857 Y21.6470
 X175.3233 Y21.4016
 X175.3370 Y21.1054
 Y13.6429
 X186.3370
 Y21.1017
 X186.3523 Y21.3998
 X186.3898 Y21.6488
 X186.4518 Y21.8896
 X186.5351 Y22.1201
 X186.6396 Y22.3378
 X186.7634 Y22.5433
 X186.9069 Y22.7356
 X187.0674 Y22.9131
 X187.2457 Y23.0752
 X187.4364 Y23.2187
 X187.6400 Y23.3424
 X187.8591 Y23.4477
 X188.0856 Y23.5310
 X188.3246 Y23.5921
 X188.5734 Y23.6300
 X188.8321 Y23.6431
 X189.0923 Y23.6300
 X189.3420 Y23.5921
 X189.5798 Y23.5310
 X189.8099 Y23.4469
 X190.0287 Y23.3420
 X190.2336 Y23.2175
 X190.4271 Y23.0729
 X190.6055 Y22.9111
 X190.7649 Y22.7356
 X190.9098 Y22.5406
 X191.0366 Y22.3333
 X191.1389 Y22.1201
 X191.2222 Y21.8896
 X191.2847 Y21.6470
 X191.3226 Y21.3998
 X191.3370 Y21.1036
 Y13.6429
 X193.3390
 Y10.1315
G0 Z10.0000
M5 (stop spindle)
G04 P3 (wait for 3 seconds)
G0 Z10.0000
M2 (end program)
