;PYCAM-META-DATA: Filename: None
;PYCAM-META-DATA: Timestamp: 2012-04-14 12:25:12.853769
;PYCAM-META-DATA: Version: 0.5.1
;Estimated machine time: 9 minutes
G40 (disable tool radius compensation)
G49 (disable tool length compensation)
G80 (cancel modal motion)
G54 (select coordinate system 1)
G90 (disable incremental moves)
G21 (metric)
G61 (exact path mode)
F400.00000
S1000.00000
;PYCAM_TOOLPATH_SETTINGS: START
;[Bounds]
;maxz = 0.0
;maxx = 273.55002496
;maxy = 273.7821564
;minx = -23.45027456
;miny = -23.2197204
;minz = -5.1
;
;[Tool]
;torus_radius = 0.25
;speed = 1000.0
;shape = CylindricalCutter
;tool_radius = 1.5
;feedrate = 400.0
;
;[Process]
;engrave_offset = 2.0
;step_down = 2.0
;generator = EngraveCutter
;postprocessor = SimpleCutter
;milling_style = conventional
;material_allowance = 0.0
;pocketing_type = none
;path_direction = x
;
;PYCAM_TOOLPATH_SETTINGS: END
T1 M6
G0 Z2.0000
M3 (start spindle)
G04 P3 (wait for 3 seconds)
 X-1.9502 Y32.1481
G1 Z-1.7000
 Y3.1449
 X74.0553
 Y-1.8476
 X94.0542
 Y3.1449
 X134.0550
 Y-1.8476
 X154.0530
 Y3.1449
 X177.0540
 Y32.1481
 X163.0530
 Y24.2020
 X163.0397 Y23.9414
 X163.0093 Y23.7399
 X162.9612 Y23.5516
 X162.8943 Y23.3691
 X162.8099 Y23.1933
 X162.7114 Y23.0306
 X162.5961 Y22.8768
 X162.4669 Y22.7345
 X162.3238 Y22.6048
 X162.1674 Y22.4879
 X162.0043 Y22.3886
 X161.8315 Y22.3055
 X161.6494 Y22.2389
 X161.4582 Y22.1900
 X161.2570 Y22.1595
 X161.0489 Y22.1490
 X160.8398 Y22.1595
 X160.6400 Y22.1898
 X160.4508 Y22.2385
 X160.2686 Y22.3051
 X160.0967 Y22.3880
 X159.9326 Y22.4879
 X159.7776 Y22.6038
 X159.6367 Y22.7319
 X159.5099 Y22.8721
 X159.3947 Y23.0271
 X159.2965 Y23.1893
 X159.2133 Y23.3648
 X159.1456 Y23.5493
 X159.0975 Y23.7398
 X159.0666 Y23.9414
 X159.0540 Y24.1995
 Y32.1481
 X147.0540
 Y24.2020
 X147.0405 Y23.9389
 X147.0110 Y23.7399
 X146.9631 Y23.5539
 X146.8953 Y23.3691
 X146.8109 Y23.1933
 X146.7114 Y23.0289
 X146.5979 Y22.8768
 X146.4670 Y22.7332
 X146.3240 Y22.6027
 X146.1726 Y22.4895
 X146.0077 Y22.3897
 X145.8325 Y22.3055
 X145.6492 Y22.2385
 X145.4600 Y22.1898
 X145.2602 Y22.1595
 X145.0509 Y22.1489
 X144.8415 Y22.1595
 X144.6437 Y22.1896
 X144.4538 Y22.2385
 X144.2705 Y22.3055
 X144.0977 Y22.3886
 X143.9359 Y22.4871
 X143.7818 Y22.6027
 X143.6382 Y22.7332
 X143.5107 Y22.8737
 X143.3967 Y23.0271
 X143.2973 Y23.1913
 X143.2135 Y23.3670
 X143.1466 Y23.5493
 X143.0985 Y23.7398
 X143.0672 Y23.9438
 X143.0540 Y24.2020
 Y32.1481
 X131.0470
 Y24.2020
 X131.0337 Y23.9414
 X131.0033 Y23.7399
 X130.9547 Y23.5492
 X130.8875 Y23.3648
 X130.8047 Y23.1913
 X130.7053 Y23.0271
 X130.5913 Y22.8737
 X130.4626 Y22.7319
 X130.3198 Y22.6017
 X130.1682 Y22.4879
 X130.0046 Y22.3886
 X129.8314 Y22.3051
 X129.6492 Y22.2385
 X129.4596 Y22.1897
 X129.2608 Y22.1595
 X129.0520 Y22.1489
 X128.8428 Y22.1595
 X128.6424 Y22.1899
 X128.4522 Y22.2387
 X128.2695 Y22.3055
 X128.0955 Y22.3891
 X127.9315 Y22.4887
 X127.7776 Y22.6038
 X127.6338 Y22.7345
 X127.5041 Y22.8768
 X127.3906 Y23.0289
 X127.2899 Y23.1952
 X127.2059 Y23.3692
 X127.1395 Y23.5515
 X127.0904 Y23.7423
 X127.0603 Y23.9414
 X127.0470 Y24.2020
 Y32.1481
 X115.0490
 Y24.1995
 X115.0364 Y23.9414
 X115.0059 Y23.7422
 X114.9561 Y23.5469
 X114.8903 Y23.3648
 X114.8079 Y23.1933
 X114.7073 Y23.0271
 X114.5921 Y22.8721
 X114.4653 Y22.7319
 X114.3232 Y22.6027
 X114.1702 Y22.4879
 X114.0066 Y22.3886
 X113.8334 Y22.3051
 X113.6518 Y22.2387
 X113.4612 Y22.1898
 X113.2618 Y22.1595
 X113.0530 Y22.1489
 X112.8442 Y22.1595
 X112.6448 Y22.1898
 X112.4542 Y22.2387
 X112.2705 Y22.3058
 X112.0968 Y22.3891
 X111.9332 Y22.4887
 X111.7775 Y22.6048
 X111.6362 Y22.7332
 X111.5073 Y22.8752
 X111.3926 Y23.0289
 X111.2919 Y23.1952
 X111.2079 Y23.3692
 X111.1423 Y23.5492
 X111.0931 Y23.7422
 X111.0626 Y23.9414
 X111.0500 Y24.1995
 Y32.1481
 X99.0500
 Y24.2020
 X99.0367 Y23.9414
 X99.0063 Y23.7399
 X98.9577 Y23.5492
 X98.8905 Y23.3648
 X98.8077 Y23.1913
 X98.7083 Y23.0271
 X98.5937 Y22.8729
 X98.4658 Y22.7318
 X98.3237 Y22.6023
 X98.1706 Y22.4875
 X98.0079 Y22.3885
 X97.8345 Y22.3050
 X97.6528 Y22.2385
 X97.4629 Y22.1898
 X97.2638 Y22.1595
 X97.0551 Y22.1489
 X96.8462 Y22.1595
 X96.6466 Y22.1898
 X96.4559 Y22.2387
 X96.2730 Y22.3055
 X96.0987 Y22.3893
 X95.9345 Y22.4889
 X95.7802 Y22.6043
 X95.6375 Y22.7339
 X95.5086 Y22.8758
 X95.3934 Y23.0299
 X95.2936 Y23.1944
 X95.2098 Y23.3687
 X95.1430 Y23.5516
 X95.0941 Y23.7423
 X95.0638 Y23.9416
 X95.0508 Y24.2010
 Y32.1481
 X83.0512
 Y24.2010
 X83.0382 Y23.9419
 X83.0078 Y23.7420
 X82.9589 Y23.5511
 X82.8923 Y23.3687
 X82.8084 Y23.1942
 X82.7084 Y23.0294
 X82.5937 Y22.8757
 X82.4645 Y22.7335
 X82.3220 Y22.6040
 X82.1680 Y22.4888
 X82.0037 Y22.3891
 X81.8298 Y22.3055
 X81.6470 Y22.2387
 X81.4563 Y22.1898
 X81.2567 Y22.1595
 X81.0479 Y22.1489
 X80.8391 Y22.1595
 X80.6401 Y22.1898
 X80.4503 Y22.2385
 X80.2683 Y22.3051
 X80.0952 Y22.3884
 X79.9323 Y22.4875
 X79.7791 Y22.6024
 X79.6373 Y22.7315
 X79.5092 Y22.8730
 X79.3947 Y23.0269
 X79.2951 Y23.1917
 X79.2118 Y23.3657
 X79.1452 Y23.5490
 X79.0963 Y23.7406
 X79.0660 Y23.9404
 X79.0531 Y24.2005
 Y32.1481
 X67.0535
 Y24.2012
 X67.0404 Y23.9421
 X67.0100 Y23.7423
 X66.9611 Y23.5513
 X66.8944 Y23.3687
 X66.8106 Y23.1944
 X66.7108 Y23.0299
 X66.5958 Y22.8760
 X66.4666 Y22.7339
 X66.3239 Y22.6043
 X66.1696 Y22.4889
 X66.0054 Y22.3893
 X65.8311 Y22.3055
 X65.6483 Y22.2387
 X65.4576 Y22.1898
 X65.2580 Y22.1595
 X65.0490 Y22.1489
 X64.8402 Y22.1595
 X64.6411 Y22.1898
 X64.4512 Y22.2385
 X64.2693 Y22.3051
 X64.0961 Y22.3885
 X63.9332 Y22.4875
 X63.7802 Y22.6023
 X63.6383 Y22.7315
 X63.5099 Y22.8733
 X63.3953 Y23.0273
 X63.2959 Y23.1917
 X63.2126 Y23.3657
 X63.1461 Y23.5488
 X63.0971 Y23.7406
 X63.0668 Y23.9406
 X63.0539 Y24.2005
 Y32.1481
 X51.0546
 Y24.2010
 X51.0416 Y23.9416
 X51.0113 Y23.7423
 X50.9623 Y23.5513
 X50.8955 Y23.3683
 X50.8119 Y23.1942
 X50.7121 Y23.0298
 X50.5969 Y22.8755
 X50.4679 Y22.7335
 X50.3254 Y22.6040
 X50.1714 Y22.4888
 X50.0073 Y22.3893
 X49.8330 Y22.3055
 X49.6504 Y22.2387
 X49.4597 Y22.1898
 X49.2602 Y22.1595
 X49.0512 Y22.1489
 X48.8423 Y22.1595
 X48.6427 Y22.1898
 X48.4518 Y22.2388
 X48.2689 Y22.3056
 X48.0947 Y22.3893
 X47.9304 Y22.4890
 X47.7764 Y22.6041
 X47.6336 Y22.7339
 X47.5041 Y22.8763
 X47.3892 Y23.0301
 X47.2893 Y23.1946
 X47.2057 Y23.3685
 X47.1390 Y23.5513
 X47.0900 Y23.7425
 X47.0596 Y23.9421
 X47.0465 Y24.2012
 Y32.1481
 X35.0474
 Y24.2010
 X35.0343 Y23.9411
 X35.0040 Y23.7406
 X34.9550 Y23.5488
 X34.8886 Y23.3661
 X34.8050 Y23.1917
 X34.7054 Y23.0267
 X34.5913 Y22.8734
 X34.4628 Y22.7315
 X34.3211 Y22.6024
 X34.1680 Y22.4876
 X34.0048 Y22.3884
 X33.8318 Y22.3050
 X33.6500 Y22.2385
 X33.4601 Y22.1898
 X33.2608 Y22.1595
 X33.0521 Y22.1489
 X32.8431 Y22.1595
 X32.6435 Y22.1898
 X32.4527 Y22.2388
 X32.2698 Y22.3055
 X32.0956 Y22.3893
 X31.9314 Y22.4889
 X31.7775 Y22.6040
 X31.6346 Y22.7339
 X31.5052 Y22.8761
 X31.3903 Y23.0299
 X31.2905 Y23.1944
 X31.2068 Y23.3685
 X31.1401 Y23.5513
 X31.0911 Y23.7425
 X31.0608 Y23.9416
 X31.0478 Y24.2008
 Y32.1481
 X19.0496
 Y24.2010
 X19.0365 Y23.9409
 X19.0063 Y23.7408
 X18.9574 Y23.5495
 X18.8907 Y23.3663
 X18.8072 Y23.1921
 X18.7077 Y23.0274
 X18.5930 Y22.8735
 X18.4646 Y22.7317
 X18.3230 Y22.6027
 X18.1697 Y22.4879
 X18.0062 Y22.3885
 X17.8331 Y22.3051
 X17.6512 Y22.2386
 X17.4611 Y22.1898
 X17.2620 Y22.1595
 X17.0533 Y22.1489
 X16.8443 Y22.1595
 X16.6447 Y22.1898
 X16.4541 Y22.2387
 X16.2713 Y22.3055
 X16.0973 Y22.3892
 X15.9330 Y22.4888
 X15.7792 Y22.6039
 X15.6366 Y22.7335
 X15.5074 Y22.8757
 X15.3925 Y23.0296
 X15.2926 Y23.1942
 X15.2090 Y23.3683
 X15.1423 Y23.5511
 X15.0933 Y23.7423
 X15.0630 Y23.9416
 X15.0500 Y24.2008
 Y32.1481
 X-1.9502
 Y3.1449
 X74.0553
 Y-1.8476
 X94.0542
 Y3.1449
 X134.0550
 Y-1.8476
 X154.0530
 Y3.1449
 X177.0540
 Y32.1481
 X163.0530
 Y24.2020
 X163.0397 Y23.9414
 X163.0093 Y23.7399
 X162.9612 Y23.5516
 X162.8943 Y23.3691
 X162.8099 Y23.1933
 X162.7114 Y23.0306
 X162.5961 Y22.8768
 X162.4669 Y22.7345
 X162.3238 Y22.6048
 X162.1674 Y22.4879
 X162.0043 Y22.3886
 X161.8315 Y22.3055
 X161.6494 Y22.2389
 X161.4582 Y22.1900
 X161.2570 Y22.1595
 X161.0489 Y22.1490
 X160.8398 Y22.1595
 X160.6400 Y22.1898
 X160.4508 Y22.2385
 X160.2686 Y22.3051
 X160.0967 Y22.3880
 X159.9326 Y22.4879
 X159.7776 Y22.6038
 X159.6367 Y22.7319
 X159.5099 Y22.8721
 X159.3947 Y23.0271
 X159.2965 Y23.1893
 X159.2133 Y23.3648
 X159.1456 Y23.5493
 X159.0975 Y23.7398
 X159.0666 Y23.9414
 X159.0540 Y24.1995
 Y32.1481
 X147.0540
 Y24.2020
 X147.0405 Y23.9389
 X147.0110 Y23.7399
 X146.9631 Y23.5539
 X146.8953 Y23.3691
 X146.8109 Y23.1933
 X146.7114 Y23.0289
 X146.5979 Y22.8768
 X146.4670 Y22.7332
 X146.3240 Y22.6027
 X146.1726 Y22.4895
 X146.0077 Y22.3897
 X145.8325 Y22.3055
 X145.6492 Y22.2385
 X145.4600 Y22.1898
 X145.2602 Y22.1595
 X145.0509 Y22.1489
 X144.8415 Y22.1595
 X144.6437 Y22.1896
 X144.4538 Y22.2385
 X144.2705 Y22.3055
 X144.0977 Y22.3886
 X143.9359 Y22.4871
 X143.7818 Y22.6027
 X143.6382 Y22.7332
 X143.5107 Y22.8737
 X143.3967 Y23.0271
 X143.2973 Y23.1913
 X143.2135 Y23.3670
 X143.1466 Y23.5493
 X143.0985 Y23.7398
 X143.0672 Y23.9438
 X143.0540 Y24.2020
 Y32.1481
 X131.0470
 Y24.2020
 X131.0337 Y23.9414
 X131.0033 Y23.7399
 X130.9547 Y23.5492
 X130.8875 Y23.3648
 X130.8047 Y23.1913
 X130.7053 Y23.0271
 X130.5913 Y22.8737
 X130.4626 Y22.7319
 X130.3198 Y22.6017
 X130.1682 Y22.4879
 X130.0046 Y22.3886
 X129.8314 Y22.3051
 X129.6492 Y22.2385
 X129.4596 Y22.1897
 X129.2608 Y22.1595
 X129.0520 Y22.1489
 X128.8428 Y22.1595
 X128.6424 Y22.1899
 X128.4522 Y22.2387
 X128.2695 Y22.3055
 X128.0955 Y22.3891
 X127.9315 Y22.4887
 X127.7776 Y22.6038
 X127.6338 Y22.7345
 X127.5041 Y22.8768
 X127.3906 Y23.0289
 X127.2899 Y23.1952
 X127.2059 Y23.3692
 X127.1395 Y23.5515
 X127.0904 Y23.7423
 X127.0603 Y23.9414
 X127.0470 Y24.2020
 Y32.1481
 X115.0490
 Y24.1995
 X115.0364 Y23.9414
 X115.0059 Y23.7422
 X114.9561 Y23.5469
 X114.8903 Y23.3648
 X114.8079 Y23.1933
 X114.7073 Y23.0271
 X114.5921 Y22.8721
 X114.4653 Y22.7319
 X114.3232 Y22.6027
 X114.1702 Y22.4879
 X114.0066 Y22.3886
 X113.8334 Y22.3051
 X113.6518 Y22.2387
 X113.4612 Y22.1898
 X113.2618 Y22.1595
 X113.0530 Y22.1489
 X112.8442 Y22.1595
 X112.6448 Y22.1898
 X112.4542 Y22.2387
 X112.2705 Y22.3058
 X112.0968 Y22.3891
 X111.9332 Y22.4887
 X111.7775 Y22.6048
 X111.6362 Y22.7332
 X111.5073 Y22.8752
 X111.3926 Y23.0289
 X111.2919 Y23.1952
 X111.2079 Y23.3692
 X111.1423 Y23.5492
 X111.0931 Y23.7422
 X111.0626 Y23.9414
 X111.0500 Y24.1995
 Y32.1481
 X99.0500
 Y24.2020
 X99.0367 Y23.9414
 X99.0063 Y23.7399
 X98.9577 Y23.5492
 X98.8905 Y23.3648
 X98.8077 Y23.1913
 X98.7083 Y23.0271
 X98.5937 Y22.8729
 X98.4658 Y22.7318
 X98.3237 Y22.6023
 X98.1706 Y22.4875
 X98.0079 Y22.3885
 X97.8345 Y22.3050
 X97.6528 Y22.2385
 X97.4629 Y22.1898
 X97.2638 Y22.1595
 X97.0551 Y22.1489
 X96.8462 Y22.1595
 X96.6466 Y22.1898
 X96.4559 Y22.2387
 X96.2730 Y22.3055
 X96.0987 Y22.3893
 X95.9345 Y22.4889
 X95.7802 Y22.6043
 X95.6375 Y22.7339
 X95.5086 Y22.8758
 X95.3934 Y23.0299
 X95.2936 Y23.1944
 X95.2098 Y23.3687
 X95.1430 Y23.5516
 X95.0941 Y23.7423
 X95.0638 Y23.9416
 X95.0508 Y24.2010
 Y32.1481
 X83.0512
 Y24.2010
 X83.0382 Y23.9419
 X83.0078 Y23.7420
 X82.9589 Y23.5511
 X82.8923 Y23.3687
 X82.8084 Y23.1942
 X82.7084 Y23.0294
 X82.5937 Y22.8757
 X82.4645 Y22.7335
 X82.3220 Y22.6040
 X82.1680 Y22.4888
 X82.0037 Y22.3891
 X81.8298 Y22.3055
 X81.6470 Y22.2387
 X81.4563 Y22.1898
 X81.2567 Y22.1595
 X81.0479 Y22.1489
 X80.8391 Y22.1595
 X80.6401 Y22.1898
 X80.4503 Y22.2385
 X80.2683 Y22.3051
 X80.0952 Y22.3884
 X79.9323 Y22.4875
 X79.7791 Y22.6024
 X79.6373 Y22.7315
 X79.5092 Y22.8730
 X79.3947 Y23.0269
 X79.2951 Y23.1917
 X79.2118 Y23.3657
 X79.1452 Y23.5490
 X79.0963 Y23.7406
 X79.0660 Y23.9404
 X79.0531 Y24.2005
 Y32.1481
 X67.0535
 Y24.2012
 X67.0404 Y23.9421
 X67.0100 Y23.7423
 X66.9611 Y23.5513
 X66.8944 Y23.3687
 X66.8106 Y23.1944
 X66.7108 Y23.0299
 X66.5958 Y22.8760
 X66.4666 Y22.7339
 X66.3239 Y22.6043
 X66.1696 Y22.4889
 X66.0054 Y22.3893
 X65.8311 Y22.3055
 X65.6483 Y22.2387
 X65.4576 Y22.1898
 X65.2580 Y22.1595
 X65.0490 Y22.1489
 X64.8402 Y22.1595
 X64.6411 Y22.1898
 X64.4512 Y22.2385
 X64.2693 Y22.3051
 X64.0961 Y22.3885
 X63.9332 Y22.4875
 X63.7802 Y22.6023
 X63.6383 Y22.7315
 X63.5099 Y22.8733
 X63.3953 Y23.0273
 X63.2959 Y23.1917
 X63.2126 Y23.3657
 X63.1461 Y23.5488
 X63.0971 Y23.7406
 X63.0668 Y23.9406
 X63.0539 Y24.2005
 Y32.1481
 X51.0546
 Y24.2010
 X51.0416 Y23.9416
 X51.0113 Y23.7423
 X50.9623 Y23.5513
 X50.8955 Y23.3683
 X50.8119 Y23.1942
 X50.7121 Y23.0298
 X50.5969 Y22.8755
 X50.4679 Y22.7335
 X50.3254 Y22.6040
 X50.1714 Y22.4888
 X50.0073 Y22.3893
 X49.8330 Y22.3055
 X49.6504 Y22.2387
 X49.4597 Y22.1898
 X49.2602 Y22.1595
 X49.0512 Y22.1489
 X48.8423 Y22.1595
 X48.6427 Y22.1898
 X48.4518 Y22.2388
 X48.2689 Y22.3056
 X48.0947 Y22.3893
 X47.9304 Y22.4890
 X47.7764 Y22.6041
 X47.6336 Y22.7339
 X47.5041 Y22.8763
 X47.3892 Y23.0301
 X47.2893 Y23.1946
 X47.2057 Y23.3685
 X47.1390 Y23.5513
 X47.0900 Y23.7425
 X47.0596 Y23.9421
 X47.0465 Y24.2012
 Y32.1481
 X35.0474
 Y24.2010
 X35.0343 Y23.9411
 X35.0040 Y23.7406
 X34.9550 Y23.5488
 X34.8886 Y23.3661
 X34.8050 Y23.1917
 X34.7054 Y23.0267
 X34.5913 Y22.8734
 X34.4628 Y22.7315
 X34.3211 Y22.6024
 X34.1680 Y22.4876
 X34.0048 Y22.3884
 X33.8318 Y22.3050
 X33.6500 Y22.2385
 X33.4601 Y22.1898
 X33.2608 Y22.1595
 X33.0521 Y22.1489
 X32.8431 Y22.1595
 X32.6435 Y22.1898
 X32.4527 Y22.2388
 X32.2698 Y22.3055
 X32.0956 Y22.3893
 X31.9314 Y22.4889
 X31.7775 Y22.6040
 X31.6346 Y22.7339
 X31.5052 Y22.8761
 X31.3903 Y23.0299
 X31.2905 Y23.1944
 X31.2068 Y23.3685
 X31.1401 Y23.5513
 X31.0911 Y23.7425
 X31.0608 Y23.9416
 X31.0478 Y24.2008
 Y32.1481
 X19.0496
 Y24.2010
 X19.0365 Y23.9409
 X19.0063 Y23.7408
 X18.9574 Y23.5495
 X18.8907 Y23.3663
 X18.8072 Y23.1921
 X18.7077 Y23.0274
 X18.5930 Y22.8735
 X18.4646 Y22.7317
 X18.3230 Y22.6027
 X18.1697 Y22.4879
 X18.0062 Y22.3885
 X17.8331 Y22.3051
 X17.6512 Y22.2386
 X17.4611 Y22.1898
 X17.2620 Y22.1595
 X17.0533 Y22.1489
 X16.8443 Y22.1595
 X16.6447 Y22.1898
 X16.4541 Y22.2387
 X16.2713 Y22.3055
 X16.0973 Y22.3892
 X15.9330 Y22.4888
 X15.7792 Y22.6039
 X15.6366 Y22.7335
 X15.5074 Y22.8757
 X15.3925 Y23.0296
 X15.2926 Y23.1942
 X15.2090 Y23.3683
 X15.1423 Y23.5511
 X15.0933 Y23.7423
 X15.0630 Y23.9416
 X15.0500 Y24.2008
 Y32.1481
 X-1.9502
 Z-3.4000
 Y3.1449
 X74.0553
 Y-1.8476
 X94.0542
 Y3.1449
 X134.0550
 Y-1.8476
 X154.0530
 Y3.1449
 X177.0540
 Y32.1481
 X163.0530
 Y24.2020
 X163.0397 Y23.9414
 X163.0093 Y23.7399
 X162.9612 Y23.5516
 X162.8943 Y23.3691
 X162.8099 Y23.1933
 X162.7114 Y23.0306
 X162.5961 Y22.8768
 X162.4669 Y22.7345
 X162.3238 Y22.6048
 X162.1674 Y22.4879
 X162.0043 Y22.3886
 X161.8315 Y22.3055
 X161.6494 Y22.2389
 X161.4582 Y22.1900
 X161.2570 Y22.1595
 X161.0489 Y22.1490
 X160.8398 Y22.1595
 X160.6400 Y22.1898
 X160.4508 Y22.2385
 X160.2686 Y22.3051
 X160.0967 Y22.3880
 X159.9326 Y22.4879
 X159.7776 Y22.6038
 X159.6367 Y22.7319
 X159.5099 Y22.8721
 X159.3947 Y23.0271
 X159.2965 Y23.1893
 X159.2133 Y23.3648
 X159.1456 Y23.5493
 X159.0975 Y23.7398
 X159.0666 Y23.9414
 X159.0540 Y24.1995
 Y32.1481
 X147.0540
 Y24.2020
 X147.0405 Y23.9389
 X147.0110 Y23.7399
 X146.9631 Y23.5539
 X146.8953 Y23.3691
 X146.8109 Y23.1933
 X146.7114 Y23.0289
 X146.5979 Y22.8768
 X146.4670 Y22.7332
 X146.3240 Y22.6027
 X146.1726 Y22.4895
 X146.0077 Y22.3897
 X145.8325 Y22.3055
 X145.6492 Y22.2385
 X145.4600 Y22.1898
 X145.2602 Y22.1595
 X145.0509 Y22.1489
 X144.8415 Y22.1595
 X144.6437 Y22.1896
 X144.4538 Y22.2385
 X144.2705 Y22.3055
 X144.0977 Y22.3886
 X143.9359 Y22.4871
 X143.7818 Y22.6027
 X143.6382 Y22.7332
 X143.5107 Y22.8737
 X143.3967 Y23.0271
 X143.2973 Y23.1913
 X143.2135 Y23.3670
 X143.1466 Y23.5493
 X143.0985 Y23.7398
 X143.0672 Y23.9438
 X143.0540 Y24.2020
 Y32.1481
 X131.0470
 Y24.2020
 X131.0337 Y23.9414
 X131.0033 Y23.7399
 X130.9547 Y23.5492
 X130.8875 Y23.3648
 X130.8047 Y23.1913
 X130.7053 Y23.0271
 X130.5913 Y22.8737
 X130.4626 Y22.7319
 X130.3198 Y22.6017
 X130.1682 Y22.4879
 X130.0046 Y22.3886
 X129.8314 Y22.3051
 X129.6492 Y22.2385
 X129.4596 Y22.1897
 X129.2608 Y22.1595
 X129.0520 Y22.1489
 X128.8428 Y22.1595
 X128.6424 Y22.1899
 X128.4522 Y22.2387
 X128.2695 Y22.3055
 X128.0955 Y22.3891
 X127.9315 Y22.4887
 X127.7776 Y22.6038
 X127.6338 Y22.7345
 X127.5041 Y22.8768
 X127.3906 Y23.0289
 X127.2899 Y23.1952
 X127.2059 Y23.3692
 X127.1395 Y23.5515
 X127.0904 Y23.7423
 X127.0603 Y23.9414
 X127.0470 Y24.2020
 Y32.1481
 X115.0490
 Y24.1995
 X115.0364 Y23.9414
 X115.0059 Y23.7422
 X114.9561 Y23.5469
 X114.8903 Y23.3648
 X114.8079 Y23.1933
 X114.7073 Y23.0271
 X114.5921 Y22.8721
 X114.4653 Y22.7319
 X114.3232 Y22.6027
 X114.1702 Y22.4879
 X114.0066 Y22.3886
 X113.8334 Y22.3051
 X113.6518 Y22.2387
 X113.4612 Y22.1898
 X113.2618 Y22.1595
 X113.0530 Y22.1489
 X112.8442 Y22.1595
 X112.6448 Y22.1898
 X112.4542 Y22.2387
 X112.2705 Y22.3058
 X112.0968 Y22.3891
 X111.9332 Y22.4887
 X111.7775 Y22.6048
 X111.6362 Y22.7332
 X111.5073 Y22.8752
 X111.3926 Y23.0289
 X111.2919 Y23.1952
 X111.2079 Y23.3692
 X111.1423 Y23.5492
 X111.0931 Y23.7422
 X111.0626 Y23.9414
 X111.0500 Y24.1995
 Y32.1481
 X99.0500
 Y24.2020
 X99.0367 Y23.9414
 X99.0063 Y23.7399
 X98.9577 Y23.5492
 X98.8905 Y23.3648
 X98.8077 Y23.1913
 X98.7083 Y23.0271
 X98.5937 Y22.8729
 X98.4658 Y22.7318
 X98.3237 Y22.6023
 X98.1706 Y22.4875
 X98.0079 Y22.3885
 X97.8345 Y22.3050
 X97.6528 Y22.2385
 X97.4629 Y22.1898
 X97.2638 Y22.1595
 X97.0551 Y22.1489
 X96.8462 Y22.1595
 X96.6466 Y22.1898
 X96.4559 Y22.2387
 X96.2730 Y22.3055
 X96.0987 Y22.3893
 X95.9345 Y22.4889
 X95.7802 Y22.6043
 X95.6375 Y22.7339
 X95.5086 Y22.8758
 X95.3934 Y23.0299
 X95.2936 Y23.1944
 X95.2098 Y23.3687
 X95.1430 Y23.5516
 X95.0941 Y23.7423
 X95.0638 Y23.9416
 X95.0508 Y24.2010
 Y32.1481
 X83.0512
 Y24.2010
 X83.0382 Y23.9419
 X83.0078 Y23.7420
 X82.9589 Y23.5511
 X82.8923 Y23.3687
 X82.8084 Y23.1942
 X82.7084 Y23.0294
 X82.5937 Y22.8757
 X82.4645 Y22.7335
 X82.3220 Y22.6040
 X82.1680 Y22.4888
 X82.0037 Y22.3891
 X81.8298 Y22.3055
 X81.6470 Y22.2387
 X81.4563 Y22.1898
 X81.2567 Y22.1595
 X81.0479 Y22.1489
 X80.8391 Y22.1595
 X80.6401 Y22.1898
 X80.4503 Y22.2385
 X80.2683 Y22.3051
 X80.0952 Y22.3884
 X79.9323 Y22.4875
 X79.7791 Y22.6024
 X79.6373 Y22.7315
 X79.5092 Y22.8730
 X79.3947 Y23.0269
 X79.2951 Y23.1917
 X79.2118 Y23.3657
 X79.1452 Y23.5490
 X79.0963 Y23.7406
 X79.0660 Y23.9404
 X79.0531 Y24.2005
 Y32.1481
 X67.0535
 Y24.2012
 X67.0404 Y23.9421
 X67.0100 Y23.7423
 X66.9611 Y23.5513
 X66.8944 Y23.3687
 X66.8106 Y23.1944
 X66.7108 Y23.0299
 X66.5958 Y22.8760
 X66.4666 Y22.7339
 X66.3239 Y22.6043
 X66.1696 Y22.4889
 X66.0054 Y22.3893
 X65.8311 Y22.3055
 X65.6483 Y22.2387
 X65.4576 Y22.1898
 X65.2580 Y22.1595
 X65.0490 Y22.1489
 X64.8402 Y22.1595
 X64.6411 Y22.1898
 X64.4512 Y22.2385
 X64.2693 Y22.3051
 X64.0961 Y22.3885
 X63.9332 Y22.4875
 X63.7802 Y22.6023
 X63.6383 Y22.7315
 X63.5099 Y22.8733
 X63.3953 Y23.0273
 X63.2959 Y23.1917
 X63.2126 Y23.3657
 X63.1461 Y23.5488
 X63.0971 Y23.7406
 X63.0668 Y23.9406
 X63.0539 Y24.2005
 Y32.1481
 X51.0546
 Y24.2010
 X51.0416 Y23.9416
 X51.0113 Y23.7423
 X50.9623 Y23.5513
 X50.8955 Y23.3683
 X50.8119 Y23.1942
 X50.7121 Y23.0298
 X50.5969 Y22.8755
 X50.4679 Y22.7335
 X50.3254 Y22.6040
 X50.1714 Y22.4888
 X50.0073 Y22.3893
 X49.8330 Y22.3055
 X49.6504 Y22.2387
 X49.4597 Y22.1898
 X49.2602 Y22.1595
 X49.0512 Y22.1489
 X48.8423 Y22.1595
 X48.6427 Y22.1898
 X48.4518 Y22.2388
 X48.2689 Y22.3056
 X48.0947 Y22.3893
 X47.9304 Y22.4890
 X47.7764 Y22.6041
 X47.6336 Y22.7339
 X47.5041 Y22.8763
 X47.3892 Y23.0301
 X47.2893 Y23.1946
 X47.2057 Y23.3685
 X47.1390 Y23.5513
 X47.0900 Y23.7425
 X47.0596 Y23.9421
 X47.0465 Y24.2012
 Y32.1481
 X35.0474
 Y24.2010
 X35.0343 Y23.9411
 X35.0040 Y23.7406
 X34.9550 Y23.5488
 X34.8886 Y23.3661
 X34.8050 Y23.1917
 X34.7054 Y23.0267
 X34.5913 Y22.8734
 X34.4628 Y22.7315
 X34.3211 Y22.6024
 X34.1680 Y22.4876
 X34.0048 Y22.3884
 X33.8318 Y22.3050
 X33.6500 Y22.2385
 X33.4601 Y22.1898
 X33.2608 Y22.1595
 X33.0521 Y22.1489
 X32.8431 Y22.1595
 X32.6435 Y22.1898
 X32.4527 Y22.2388
 X32.2698 Y22.3055
 X32.0956 Y22.3893
 X31.9314 Y22.4889
 X31.7775 Y22.6040
 X31.6346 Y22.7339
 X31.5052 Y22.8761
 X31.3903 Y23.0299
 X31.2905 Y23.1944
 X31.2068 Y23.3685
 X31.1401 Y23.5513
 X31.0911 Y23.7425
 X31.0608 Y23.9416
 X31.0478 Y24.2008
 Y32.1481
 X19.0496
 Y24.2010
 X19.0365 Y23.9409
 X19.0063 Y23.7408
 X18.9574 Y23.5495
 X18.8907 Y23.3663
 X18.8072 Y23.1921
 X18.7077 Y23.0274
 X18.5930 Y22.8735
 X18.4646 Y22.7317
 X18.3230 Y22.6027
 X18.1697 Y22.4879
 X18.0062 Y22.3885
 X17.8331 Y22.3051
 X17.6512 Y22.2386
 X17.4611 Y22.1898
 X17.2620 Y22.1595
 X17.0533 Y22.1489
 X16.8443 Y22.1595
 X16.6447 Y22.1898
 X16.4541 Y22.2387
 X16.2713 Y22.3055
 X16.0973 Y22.3892
 X15.9330 Y22.4888
 X15.7792 Y22.6039
 X15.6366 Y22.7335
 X15.5074 Y22.8757
 X15.3925 Y23.0296
 X15.2926 Y23.1942
 X15.2090 Y23.3683
 X15.1423 Y23.5511
 X15.0933 Y23.7423
 X15.0630 Y23.9416
 X15.0500 Y24.2008
 Y32.1481
 X-1.9502
 Y3.1449
 X74.0553
 Y-1.8476
 X94.0542
 Y3.1449
 X134.0550
 Y-1.8476
 X154.0530
 Y3.1449
 X177.0540
 Y32.1481
 X163.0530
 Y24.2020
 X163.0397 Y23.9414
 X163.0093 Y23.7399
 X162.9612 Y23.5516
 X162.8943 Y23.3691
 X162.8099 Y23.1933
 X162.7114 Y23.0306
 X162.5961 Y22.8768
 X162.4669 Y22.7345
 X162.3238 Y22.6048
 X162.1674 Y22.4879
 X162.0043 Y22.3886
 X161.8315 Y22.3055
 X161.6494 Y22.2389
 X161.4582 Y22.1900
 X161.2570 Y22.1595
 X161.0489 Y22.1490
 X160.8398 Y22.1595
 X160.6400 Y22.1898
 X160.4508 Y22.2385
 X160.2686 Y22.3051
 X160.0967 Y22.3880
 X159.9326 Y22.4879
 X159.7776 Y22.6038
 X159.6367 Y22.7319
 X159.5099 Y22.8721
 X159.3947 Y23.0271
 X159.2965 Y23.1893
 X159.2133 Y23.3648
 X159.1456 Y23.5493
 X159.0975 Y23.7398
 X159.0666 Y23.9414
 X159.0540 Y24.1995
 Y32.1481
 X147.0540
 Y24.2020
 X147.0405 Y23.9389
 X147.0110 Y23.7399
 X146.9631 Y23.5539
 X146.8953 Y23.3691
 X146.8109 Y23.1933
 X146.7114 Y23.0289
 X146.5979 Y22.8768
 X146.4670 Y22.7332
 X146.3240 Y22.6027
 X146.1726 Y22.4895
 X146.0077 Y22.3897
 X145.8325 Y22.3055
 X145.6492 Y22.2385
 X145.4600 Y22.1898
 X145.2602 Y22.1595
 X145.0509 Y22.1489
 X144.8415 Y22.1595
 X144.6437 Y22.1896
 X144.4538 Y22.2385
 X144.2705 Y22.3055
 X144.0977 Y22.3886
 X143.9359 Y22.4871
 X143.7818 Y22.6027
 X143.6382 Y22.7332
 X143.5107 Y22.8737
 X143.3967 Y23.0271
 X143.2973 Y23.1913
 X143.2135 Y23.3670
 X143.1466 Y23.5493
 X143.0985 Y23.7398
 X143.0672 Y23.9438
 X143.0540 Y24.2020
 Y32.1481
 X131.0470
 Y24.2020
 X131.0337 Y23.9414
 X131.0033 Y23.7399
 X130.9547 Y23.5492
 X130.8875 Y23.3648
 X130.8047 Y23.1913
 X130.7053 Y23.0271
 X130.5913 Y22.8737
 X130.4626 Y22.7319
 X130.3198 Y22.6017
 X130.1682 Y22.4879
 X130.0046 Y22.3886
 X129.8314 Y22.3051
 X129.6492 Y22.2385
 X129.4596 Y22.1897
 X129.2608 Y22.1595
 X129.0520 Y22.1489
 X128.8428 Y22.1595
 X128.6424 Y22.1899
 X128.4522 Y22.2387
 X128.2695 Y22.3055
 X128.0955 Y22.3891
 X127.9315 Y22.4887
 X127.7776 Y22.6038
 X127.6338 Y22.7345
 X127.5041 Y22.8768
 X127.3906 Y23.0289
 X127.2899 Y23.1952
 X127.2059 Y23.3692
 X127.1395 Y23.5515
 X127.0904 Y23.7423
 X127.0603 Y23.9414
 X127.0470 Y24.2020
 Y32.1481
 X115.0490
 Y24.1995
 X115.0364 Y23.9414
 X115.0059 Y23.7422
 X114.9561 Y23.5469
 X114.8903 Y23.3648
 X114.8079 Y23.1933
 X114.7073 Y23.0271
 X114.5921 Y22.8721
 X114.4653 Y22.7319
 X114.3232 Y22.6027
 X114.1702 Y22.4879
 X114.0066 Y22.3886
 X113.8334 Y22.3051
 X113.6518 Y22.2387
 X113.4612 Y22.1898
 X113.2618 Y22.1595
 X113.0530 Y22.1489
 X112.8442 Y22.1595
 X112.6448 Y22.1898
 X112.4542 Y22.2387
 X112.2705 Y22.3058
 X112.0968 Y22.3891
 X111.9332 Y22.4887
 X111.7775 Y22.6048
 X111.6362 Y22.7332
 X111.5073 Y22.8752
 X111.3926 Y23.0289
 X111.2919 Y23.1952
 X111.2079 Y23.3692
 X111.1423 Y23.5492
 X111.0931 Y23.7422
 X111.0626 Y23.9414
 X111.0500 Y24.1995
 Y32.1481
 X99.0500
 Y24.2020
 X99.0367 Y23.9414
 X99.0063 Y23.7399
 X98.9577 Y23.5492
 X98.8905 Y23.3648
 X98.8077 Y23.1913
 X98.7083 Y23.0271
 X98.5937 Y22.8729
 X98.4658 Y22.7318
 X98.3237 Y22.6023
 X98.1706 Y22.4875
 X98.0079 Y22.3885
 X97.8345 Y22.3050
 X97.6528 Y22.2385
 X97.4629 Y22.1898
 X97.2638 Y22.1595
 X97.0551 Y22.1489
 X96.8462 Y22.1595
 X96.6466 Y22.1898
 X96.4559 Y22.2387
 X96.2730 Y22.3055
 X96.0987 Y22.3893
 X95.9345 Y22.4889
 X95.7802 Y22.6043
 X95.6375 Y22.7339
 X95.5086 Y22.8758
 X95.3934 Y23.0299
 X95.2936 Y23.1944
 X95.2098 Y23.3687
 X95.1430 Y23.5516
 X95.0941 Y23.7423
 X95.0638 Y23.9416
 X95.0508 Y24.2010
 Y32.1481
 X83.0512
 Y24.2010
 X83.0382 Y23.9419
 X83.0078 Y23.7420
 X82.9589 Y23.5511
 X82.8923 Y23.3687
 X82.8084 Y23.1942
 X82.7084 Y23.0294
 X82.5937 Y22.8757
 X82.4645 Y22.7335
 X82.3220 Y22.6040
 X82.1680 Y22.4888
 X82.0037 Y22.3891
 X81.8298 Y22.3055
 X81.6470 Y22.2387
 X81.4563 Y22.1898
 X81.2567 Y22.1595
 X81.0479 Y22.1489
 X80.8391 Y22.1595
 X80.6401 Y22.1898
 X80.4503 Y22.2385
 X80.2683 Y22.3051
 X80.0952 Y22.3884
 X79.9323 Y22.4875
 X79.7791 Y22.6024
 X79.6373 Y22.7315
 X79.5092 Y22.8730
 X79.3947 Y23.0269
 X79.2951 Y23.1917
 X79.2118 Y23.3657
 X79.1452 Y23.5490
 X79.0963 Y23.7406
 X79.0660 Y23.9404
 X79.0531 Y24.2005
 Y32.1481
 X67.0535
 Y24.2012
 X67.0404 Y23.9421
 X67.0100 Y23.7423
 X66.9611 Y23.5513
 X66.8944 Y23.3687
 X66.8106 Y23.1944
 X66.7108 Y23.0299
 X66.5958 Y22.8760
 X66.4666 Y22.7339
 X66.3239 Y22.6043
 X66.1696 Y22.4889
 X66.0054 Y22.3893
 X65.8311 Y22.3055
 X65.6483 Y22.2387
 X65.4576 Y22.1898
 X65.2580 Y22.1595
 X65.0490 Y22.1489
 X64.8402 Y22.1595
 X64.6411 Y22.1898
 X64.4512 Y22.2385
 X64.2693 Y22.3051
 X64.0961 Y22.3885
 X63.9332 Y22.4875
 X63.7802 Y22.6023
 X63.6383 Y22.7315
 X63.5099 Y22.8733
 X63.3953 Y23.0273
 X63.2959 Y23.1917
 X63.2126 Y23.3657
 X63.1461 Y23.5488
 X63.0971 Y23.7406
 X63.0668 Y23.9406
 X63.0539 Y24.2005
 Y32.1481
 X51.0546
 Y24.2010
 X51.0416 Y23.9416
 X51.0113 Y23.7423
 X50.9623 Y23.5513
 X50.8955 Y23.3683
 X50.8119 Y23.1942
 X50.7121 Y23.0298
 X50.5969 Y22.8755
 X50.4679 Y22.7335
 X50.3254 Y22.6040
 X50.1714 Y22.4888
 X50.0073 Y22.3893
 X49.8330 Y22.3055
 X49.6504 Y22.2387
 X49.4597 Y22.1898
 X49.2602 Y22.1595
 X49.0512 Y22.1489
 X48.8423 Y22.1595
 X48.6427 Y22.1898
 X48.4518 Y22.2388
 X48.2689 Y22.3056
 X48.0947 Y22.3893
 X47.9304 Y22.4890
 X47.7764 Y22.6041
 X47.6336 Y22.7339
 X47.5041 Y22.8763
 X47.3892 Y23.0301
 X47.2893 Y23.1946
 X47.2057 Y23.3685
 X47.1390 Y23.5513
 X47.0900 Y23.7425
 X47.0596 Y23.9421
 X47.0465 Y24.2012
 Y32.1481
 X35.0474
 Y24.2010
 X35.0343 Y23.9411
 X35.0040 Y23.7406
 X34.9550 Y23.5488
 X34.8886 Y23.3661
 X34.8050 Y23.1917
 X34.7054 Y23.0267
 X34.5913 Y22.8734
 X34.4628 Y22.7315
 X34.3211 Y22.6024
 X34.1680 Y22.4876
 X34.0048 Y22.3884
 X33.8318 Y22.3050
 X33.6500 Y22.2385
 X33.4601 Y22.1898
 X33.2608 Y22.1595
 X33.0521 Y22.1489
 X32.8431 Y22.1595
 X32.6435 Y22.1898
 X32.4527 Y22.2388
 X32.2698 Y22.3055
 X32.0956 Y22.3893
 X31.9314 Y22.4889
 X31.7775 Y22.6040
 X31.6346 Y22.7339
 X31.5052 Y22.8761
 X31.3903 Y23.0299
 X31.2905 Y23.1944
 X31.2068 Y23.3685
 X31.1401 Y23.5513
 X31.0911 Y23.7425
 X31.0608 Y23.9416
 X31.0478 Y24.2008
 Y32.1481
 X19.0496
 Y24.2010
 X19.0365 Y23.9409
 X19.0063 Y23.7408
 X18.9574 Y23.5495
 X18.8907 Y23.3663
 X18.8072 Y23.1921
 X18.7077 Y23.0274
 X18.5930 Y22.8735
 X18.4646 Y22.7317
 X18.3230 Y22.6027
 X18.1697 Y22.4879
 X18.0062 Y22.3885
 X17.8331 Y22.3051
 X17.6512 Y22.2386
 X17.4611 Y22.1898
 X17.2620 Y22.1595
 X17.0533 Y22.1489
 X16.8443 Y22.1595
 X16.6447 Y22.1898
 X16.4541 Y22.2387
 X16.2713 Y22.3055
 X16.0973 Y22.3892
 X15.9330 Y22.4888
 X15.7792 Y22.6039
 X15.6366 Y22.7335
 X15.5074 Y22.8757
 X15.3925 Y23.0296
 X15.2926 Y23.1942
 X15.2090 Y23.3683
 X15.1423 Y23.5511
 X15.0933 Y23.7423
 X15.0630 Y23.9416
 X15.0500 Y24.2008
 Y32.1481
 X-1.9502
 Z-5.1000
 Y3.1449
 X74.0553
 Y-1.8476
 X94.0542
 Y3.1449
 X134.0550
 Y-1.8476
 X154.0530
 Y3.1449
 X177.0540
 Y32.1481
 X163.0530
 Y24.2020
 X163.0397 Y23.9414
 X163.0093 Y23.7399
 X162.9612 Y23.5516
 X162.8943 Y23.3691
 X162.8099 Y23.1933
 X162.7114 Y23.0306
 X162.5961 Y22.8768
 X162.4669 Y22.7345
 X162.3238 Y22.6048
 X162.1674 Y22.4879
 X162.0043 Y22.3886
 X161.8315 Y22.3055
 X161.6494 Y22.2389
 X161.4582 Y22.1900
 X161.2570 Y22.1595
 X161.0489 Y22.1490
 X160.8398 Y22.1595
 X160.6400 Y22.1898
 X160.4508 Y22.2385
 X160.2686 Y22.3051
 X160.0967 Y22.3880
 X159.9326 Y22.4879
 X159.7776 Y22.6038
 X159.6367 Y22.7319
 X159.5099 Y22.8721
 X159.3947 Y23.0271
 X159.2965 Y23.1893
 X159.2133 Y23.3648
 X159.1456 Y23.5493
 X159.0975 Y23.7398
 X159.0666 Y23.9414
 X159.0540 Y24.1995
 Y32.1481
 X147.0540
 Y24.2020
 X147.0405 Y23.9389
 X147.0110 Y23.7399
 X146.9631 Y23.5539
 X146.8953 Y23.3691
 X146.8109 Y23.1933
 X146.7114 Y23.0289
 X146.5979 Y22.8768
 X146.4670 Y22.7332
 X146.3240 Y22.6027
 X146.1726 Y22.4895
 X146.0077 Y22.3897
 X145.8325 Y22.3055
 X145.6492 Y22.2385
 X145.4600 Y22.1898
 X145.2602 Y22.1595
 X145.0509 Y22.1489
 X144.8415 Y22.1595
 X144.6437 Y22.1896
 X144.4538 Y22.2385
 X144.2705 Y22.3055
 X144.0977 Y22.3886
 X143.9359 Y22.4871
 X143.7818 Y22.6027
 X143.6382 Y22.7332
 X143.5107 Y22.8737
 X143.3967 Y23.0271
 X143.2973 Y23.1913
 X143.2135 Y23.3670
 X143.1466 Y23.5493
 X143.0985 Y23.7398
 X143.0672 Y23.9438
 X143.0540 Y24.2020
 Y32.1481
 X131.0470
 Y24.2020
 X131.0337 Y23.9414
 X131.0033 Y23.7399
 X130.9547 Y23.5492
 X130.8875 Y23.3648
 X130.8047 Y23.1913
 X130.7053 Y23.0271
 X130.5913 Y22.8737
 X130.4626 Y22.7319
 X130.3198 Y22.6017
 X130.1682 Y22.4879
 X130.0046 Y22.3886
 X129.8314 Y22.3051
 X129.6492 Y22.2385
 X129.4596 Y22.1897
 X129.2608 Y22.1595
 X129.0520 Y22.1489
 X128.8428 Y22.1595
 X128.6424 Y22.1899
 X128.4522 Y22.2387
 X128.2695 Y22.3055
 X128.0955 Y22.3891
 X127.9315 Y22.4887
 X127.7776 Y22.6038
 X127.6338 Y22.7345
 X127.5041 Y22.8768
 X127.3906 Y23.0289
 X127.2899 Y23.1952
 X127.2059 Y23.3692
 X127.1395 Y23.5515
 X127.0904 Y23.7423
 X127.0603 Y23.9414
 X127.0470 Y24.2020
 Y32.1481
 X115.0490
 Y24.1995
 X115.0364 Y23.9414
 X115.0059 Y23.7422
 X114.9561 Y23.5469
 X114.8903 Y23.3648
 X114.8079 Y23.1933
 X114.7073 Y23.0271
 X114.5921 Y22.8721
 X114.4653 Y22.7319
 X114.3232 Y22.6027
 X114.1702 Y22.4879
 X114.0066 Y22.3886
 X113.8334 Y22.3051
 X113.6518 Y22.2387
 X113.4612 Y22.1898
 X113.2618 Y22.1595
 X113.0530 Y22.1489
 X112.8442 Y22.1595
 X112.6448 Y22.1898
 X112.4542 Y22.2387
 X112.2705 Y22.3058
 X112.0968 Y22.3891
 X111.9332 Y22.4887
 X111.7775 Y22.6048
 X111.6362 Y22.7332
 X111.5073 Y22.8752
 X111.3926 Y23.0289
 X111.2919 Y23.1952
 X111.2079 Y23.3692
 X111.1423 Y23.5492
 X111.0931 Y23.7422
 X111.0626 Y23.9414
 X111.0500 Y24.1995
 Y32.1481
 X99.0500
 Y24.2020
 X99.0367 Y23.9414
 X99.0063 Y23.7399
 X98.9577 Y23.5492
 X98.8905 Y23.3648
 X98.8077 Y23.1913
 X98.7083 Y23.0271
 X98.5937 Y22.8729
 X98.4658 Y22.7318
 X98.3237 Y22.6023
 X98.1706 Y22.4875
 X98.0079 Y22.3885
 X97.8345 Y22.3050
 X97.6528 Y22.2385
 X97.4629 Y22.1898
 X97.2638 Y22.1595
 X97.0551 Y22.1489
 X96.8462 Y22.1595
 X96.6466 Y22.1898
 X96.4559 Y22.2387
 X96.2730 Y22.3055
 X96.0987 Y22.3893
 X95.9345 Y22.4889
 X95.7802 Y22.6043
 X95.6375 Y22.7339
 X95.5086 Y22.8758
 X95.3934 Y23.0299
 X95.2936 Y23.1944
 X95.2098 Y23.3687
 X95.1430 Y23.5516
 X95.0941 Y23.7423
 X95.0638 Y23.9416
 X95.0508 Y24.2010
 Y32.1481
 X83.0512
 Y24.2010
 X83.0382 Y23.9419
 X83.0078 Y23.7420
 X82.9589 Y23.5511
 X82.8923 Y23.3687
 X82.8084 Y23.1942
 X82.7084 Y23.0294
 X82.5937 Y22.8757
 X82.4645 Y22.7335
 X82.3220 Y22.6040
 X82.1680 Y22.4888
 X82.0037 Y22.3891
 X81.8298 Y22.3055
 X81.6470 Y22.2387
 X81.4563 Y22.1898
 X81.2567 Y22.1595
 X81.0479 Y22.1489
 X80.8391 Y22.1595
 X80.6401 Y22.1898
 X80.4503 Y22.2385
 X80.2683 Y22.3051
 X80.0952 Y22.3884
 X79.9323 Y22.4875
 X79.7791 Y22.6024
 X79.6373 Y22.7315
 X79.5092 Y22.8730
 X79.3947 Y23.0269
 X79.2951 Y23.1917
 X79.2118 Y23.3657
 X79.1452 Y23.5490
 X79.0963 Y23.7406
 X79.0660 Y23.9404
 X79.0531 Y24.2005
 Y32.1481
 X67.0535
 Y24.2012
 X67.0404 Y23.9421
 X67.0100 Y23.7423
 X66.9611 Y23.5513
 X66.8944 Y23.3687
 X66.8106 Y23.1944
 X66.7108 Y23.0299
 X66.5958 Y22.8760
 X66.4666 Y22.7339
 X66.3239 Y22.6043
 X66.1696 Y22.4889
 X66.0054 Y22.3893
 X65.8311 Y22.3055
 X65.6483 Y22.2387
 X65.4576 Y22.1898
 X65.2580 Y22.1595
 X65.0490 Y22.1489
 X64.8402 Y22.1595
 X64.6411 Y22.1898
 X64.4512 Y22.2385
 X64.2693 Y22.3051
 X64.0961 Y22.3885
 X63.9332 Y22.4875
 X63.7802 Y22.6023
 X63.6383 Y22.7315
 X63.5099 Y22.8733
 X63.3953 Y23.0273
 X63.2959 Y23.1917
 X63.2126 Y23.3657
 X63.1461 Y23.5488
 X63.0971 Y23.7406
 X63.0668 Y23.9406
 X63.0539 Y24.2005
 Y32.1481
 X51.0546
 Y24.2010
 X51.0416 Y23.9416
 X51.0113 Y23.7423
 X50.9623 Y23.5513
 X50.8955 Y23.3683
 X50.8119 Y23.1942
 X50.7121 Y23.0298
 X50.5969 Y22.8755
 X50.4679 Y22.7335
 X50.3254 Y22.6040
 X50.1714 Y22.4888
 X50.0073 Y22.3893
 X49.8330 Y22.3055
 X49.6504 Y22.2387
 X49.4597 Y22.1898
 X49.2602 Y22.1595
 X49.0512 Y22.1489
 X48.8423 Y22.1595
 X48.6427 Y22.1898
 X48.4518 Y22.2388
 X48.2689 Y22.3056
 X48.0947 Y22.3893
 X47.9304 Y22.4890
 X47.7764 Y22.6041
 X47.6336 Y22.7339
 X47.5041 Y22.8763
 X47.3892 Y23.0301
 X47.2893 Y23.1946
 X47.2057 Y23.3685
 X47.1390 Y23.5513
 X47.0900 Y23.7425
 X47.0596 Y23.9421
 X47.0465 Y24.2012
 Y32.1481
 X35.0474
 Y24.2010
 X35.0343 Y23.9411
 X35.0040 Y23.7406
 X34.9550 Y23.5488
 X34.8886 Y23.3661
 X34.8050 Y23.1917
 X34.7054 Y23.0267
 X34.5913 Y22.8734
 X34.4628 Y22.7315
 X34.3211 Y22.6024
 X34.1680 Y22.4876
 X34.0048 Y22.3884
 X33.8318 Y22.3050
 X33.6500 Y22.2385
 X33.4601 Y22.1898
 X33.2608 Y22.1595
 X33.0521 Y22.1489
 X32.8431 Y22.1595
 X32.6435 Y22.1898
 X32.4527 Y22.2388
 X32.2698 Y22.3055
 X32.0956 Y22.3893
 X31.9314 Y22.4889
 X31.7775 Y22.6040
 X31.6346 Y22.7339
 X31.5052 Y22.8761
 X31.3903 Y23.0299
 X31.2905 Y23.1944
 X31.2068 Y23.3685
 X31.1401 Y23.5513
 X31.0911 Y23.7425
 X31.0608 Y23.9416
 X31.0478 Y24.2008
 Y32.1481
 X19.0496
 Y24.2010
 X19.0365 Y23.9409
 X19.0063 Y23.7408
 X18.9574 Y23.5495
 X18.8907 Y23.3663
 X18.8072 Y23.1921
 X18.7077 Y23.0274
 X18.5930 Y22.8735
 X18.4646 Y22.7317
 X18.3230 Y22.6027
 X18.1697 Y22.4879
 X18.0062 Y22.3885
 X17.8331 Y22.3051
 X17.6512 Y22.2386
 X17.4611 Y22.1898
 X17.2620 Y22.1595
 X17.0533 Y22.1489
 X16.8443 Y22.1595
 X16.6447 Y22.1898
 X16.4541 Y22.2387
 X16.2713 Y22.3055
 X16.0973 Y22.3892
 X15.9330 Y22.4888
 X15.7792 Y22.6039
 X15.6366 Y22.7335
 X15.5074 Y22.8757
 X15.3925 Y23.0296
 X15.2926 Y23.1942
 X15.2090 Y23.3683
 X15.1423 Y23.5511
 X15.0933 Y23.7423
 X15.0630 Y23.9416
 X15.0500 Y24.2008
 Y32.1481
 X-1.9502
 Y3.1449
 X74.0553
 Y-1.8476
 X94.0542
 Y3.1449
 X134.0550
 Y-1.8476
 X154.0530
 Y3.1449
 X177.0540
 Y32.1481
 X163.0530
 Y24.2020
 X163.0397 Y23.9414
 X163.0093 Y23.7399
 X162.9612 Y23.5516
 X162.8943 Y23.3691
 X162.8099 Y23.1933
 X162.7114 Y23.0306
 X162.5961 Y22.8768
 X162.4669 Y22.7345
 X162.3238 Y22.6048
 X162.1674 Y22.4879
 X162.0043 Y22.3886
 X161.8315 Y22.3055
 X161.6494 Y22.2389
 X161.4582 Y22.1900
 X161.2570 Y22.1595
 X161.0489 Y22.1490
 X160.8398 Y22.1595
 X160.6400 Y22.1898
 X160.4508 Y22.2385
 X160.2686 Y22.3051
 X160.0967 Y22.3880
 X159.9326 Y22.4879
 X159.7776 Y22.6038
 X159.6367 Y22.7319
 X159.5099 Y22.8721
 X159.3947 Y23.0271
 X159.2965 Y23.1893
 X159.2133 Y23.3648
 X159.1456 Y23.5493
 X159.0975 Y23.7398
 X159.0666 Y23.9414
 X159.0540 Y24.1995
 Y32.1481
 X147.0540
 Y24.2020
 X147.0405 Y23.9389
 X147.0110 Y23.7399
 X146.9631 Y23.5539
 X146.8953 Y23.3691
 X146.8109 Y23.1933
 X146.7114 Y23.0289
 X146.5979 Y22.8768
 X146.4670 Y22.7332
 X146.3240 Y22.6027
 X146.1726 Y22.4895
 X146.0077 Y22.3897
 X145.8325 Y22.3055
 X145.6492 Y22.2385
 X145.4600 Y22.1898
 X145.2602 Y22.1595
 X145.0509 Y22.1489
 X144.8415 Y22.1595
 X144.6437 Y22.1896
 X144.4538 Y22.2385
 X144.2705 Y22.3055
 X144.0977 Y22.3886
 X143.9359 Y22.4871
 X143.7818 Y22.6027
 X143.6382 Y22.7332
 X143.5107 Y22.8737
 X143.3967 Y23.0271
 X143.2973 Y23.1913
 X143.2135 Y23.3670
 X143.1466 Y23.5493
 X143.0985 Y23.7398
 X143.0672 Y23.9438
 X143.0540 Y24.2020
 Y32.1481
 X131.0470
 Y24.2020
 X131.0337 Y23.9414
 X131.0033 Y23.7399
 X130.9547 Y23.5492
 X130.8875 Y23.3648
 X130.8047 Y23.1913
 X130.7053 Y23.0271
 X130.5913 Y22.8737
 X130.4626 Y22.7319
 X130.3198 Y22.6017
 X130.1682 Y22.4879
 X130.0046 Y22.3886
 X129.8314 Y22.3051
 X129.6492 Y22.2385
 X129.4596 Y22.1897
 X129.2608 Y22.1595
 X129.0520 Y22.1489
 X128.8428 Y22.1595
 X128.6424 Y22.1899
 X128.4522 Y22.2387
 X128.2695 Y22.3055
 X128.0955 Y22.3891
 X127.9315 Y22.4887
 X127.7776 Y22.6038
 X127.6338 Y22.7345
 X127.5041 Y22.8768
 X127.3906 Y23.0289
 X127.2899 Y23.1952
 X127.2059 Y23.3692
 X127.1395 Y23.5515
 X127.0904 Y23.7423
 X127.0603 Y23.9414
 X127.0470 Y24.2020
 Y32.1481
 X115.0490
 Y24.1995
 X115.0364 Y23.9414
 X115.0059 Y23.7422
 X114.9561 Y23.5469
 X114.8903 Y23.3648
 X114.8079 Y23.1933
 X114.7073 Y23.0271
 X114.5921 Y22.8721
 X114.4653 Y22.7319
 X114.3232 Y22.6027
 X114.1702 Y22.4879
 X114.0066 Y22.3886
 X113.8334 Y22.3051
 X113.6518 Y22.2387
 X113.4612 Y22.1898
 X113.2618 Y22.1595
 X113.0530 Y22.1489
 X112.8442 Y22.1595
 X112.6448 Y22.1898
 X112.4542 Y22.2387
 X112.2705 Y22.3058
 X112.0968 Y22.3891
 X111.9332 Y22.4887
 X111.7775 Y22.6048
 X111.6362 Y22.7332
 X111.5073 Y22.8752
 X111.3926 Y23.0289
 X111.2919 Y23.1952
 X111.2079 Y23.3692
 X111.1423 Y23.5492
 X111.0931 Y23.7422
 X111.0626 Y23.9414
 X111.0500 Y24.1995
 Y32.1481
 X99.0500
 Y24.2020
 X99.0367 Y23.9414
 X99.0063 Y23.7399
 X98.9577 Y23.5492
 X98.8905 Y23.3648
 X98.8077 Y23.1913
 X98.7083 Y23.0271
 X98.5937 Y22.8729
 X98.4658 Y22.7318
 X98.3237 Y22.6023
 X98.1706 Y22.4875
 X98.0079 Y22.3885
 X97.8345 Y22.3050
 X97.6528 Y22.2385
 X97.4629 Y22.1898
 X97.2638 Y22.1595
 X97.0551 Y22.1489
 X96.8462 Y22.1595
 X96.6466 Y22.1898
 X96.4559 Y22.2387
 X96.2730 Y22.3055
 X96.0987 Y22.3893
 X95.9345 Y22.4889
 X95.7802 Y22.6043
 X95.6375 Y22.7339
 X95.5086 Y22.8758
 X95.3934 Y23.0299
 X95.2936 Y23.1944
 X95.2098 Y23.3687
 X95.1430 Y23.5516
 X95.0941 Y23.7423
 X95.0638 Y23.9416
 X95.0508 Y24.2010
 Y32.1481
 X83.0512
 Y24.2010
 X83.0382 Y23.9419
 X83.0078 Y23.7420
 X82.9589 Y23.5511
 X82.8923 Y23.3687
 X82.8084 Y23.1942
 X82.7084 Y23.0294
 X82.5937 Y22.8757
 X82.4645 Y22.7335
 X82.3220 Y22.6040
 X82.1680 Y22.4888
 X82.0037 Y22.3891
 X81.8298 Y22.3055
 X81.6470 Y22.2387
 X81.4563 Y22.1898
 X81.2567 Y22.1595
 X81.0479 Y22.1489
 X80.8391 Y22.1595
 X80.6401 Y22.1898
 X80.4503 Y22.2385
 X80.2683 Y22.3051
 X80.0952 Y22.3884
 X79.9323 Y22.4875
 X79.7791 Y22.6024
 X79.6373 Y22.7315
 X79.5092 Y22.8730
 X79.3947 Y23.0269
 X79.2951 Y23.1917
 X79.2118 Y23.3657
 X79.1452 Y23.5490
 X79.0963 Y23.7406
 X79.0660 Y23.9404
 X79.0531 Y24.2005
 Y32.1481
 X67.0535
 Y24.2012
 X67.0404 Y23.9421
 X67.0100 Y23.7423
 X66.9611 Y23.5513
 X66.8944 Y23.3687
 X66.8106 Y23.1944
 X66.7108 Y23.0299
 X66.5958 Y22.8760
 X66.4666 Y22.7339
 X66.3239 Y22.6043
 X66.1696 Y22.4889
 X66.0054 Y22.3893
 X65.8311 Y22.3055
 X65.6483 Y22.2387
 X65.4576 Y22.1898
 X65.2580 Y22.1595
 X65.0490 Y22.1489
 X64.8402 Y22.1595
 X64.6411 Y22.1898
 X64.4512 Y22.2385
 X64.2693 Y22.3051
 X64.0961 Y22.3885
 X63.9332 Y22.4875
 X63.7802 Y22.6023
 X63.6383 Y22.7315
 X63.5099 Y22.8733
 X63.3953 Y23.0273
 X63.2959 Y23.1917
 X63.2126 Y23.3657
 X63.1461 Y23.5488
 X63.0971 Y23.7406
 X63.0668 Y23.9406
 X63.0539 Y24.2005
 Y32.1481
 X51.0546
 Y24.2010
 X51.0416 Y23.9416
 X51.0113 Y23.7423
 X50.9623 Y23.5513
 X50.8955 Y23.3683
 X50.8119 Y23.1942
 X50.7121 Y23.0298
 X50.5969 Y22.8755
 X50.4679 Y22.7335
 X50.3254 Y22.6040
 X50.1714 Y22.4888
 X50.0073 Y22.3893
 X49.8330 Y22.3055
 X49.6504 Y22.2387
 X49.4597 Y22.1898
 X49.2602 Y22.1595
 X49.0512 Y22.1489
 X48.8423 Y22.1595
 X48.6427 Y22.1898
 X48.4518 Y22.2388
 X48.2689 Y22.3056
 X48.0947 Y22.3893
 X47.9304 Y22.4890
 X47.7764 Y22.6041
 X47.6336 Y22.7339
 X47.5041 Y22.8763
 X47.3892 Y23.0301
 X47.2893 Y23.1946
 X47.2057 Y23.3685
 X47.1390 Y23.5513
 X47.0900 Y23.7425
 X47.0596 Y23.9421
 X47.0465 Y24.2012
 Y32.1481
 X35.0474
 Y24.2010
 X35.0343 Y23.9411
 X35.0040 Y23.7406
 X34.9550 Y23.5488
 X34.8886 Y23.3661
 X34.8050 Y23.1917
 X34.7054 Y23.0267
 X34.5913 Y22.8734
 X34.4628 Y22.7315
 X34.3211 Y22.6024
 X34.1680 Y22.4876
 X34.0048 Y22.3884
 X33.8318 Y22.3050
 X33.6500 Y22.2385
 X33.4601 Y22.1898
 X33.2608 Y22.1595
 X33.0521 Y22.1489
 X32.8431 Y22.1595
 X32.6435 Y22.1898
 X32.4527 Y22.2388
 X32.2698 Y22.3055
 X32.0956 Y22.3893
 X31.9314 Y22.4889
 X31.7775 Y22.6040
 X31.6346 Y22.7339
 X31.5052 Y22.8761
 X31.3903 Y23.0299
 X31.2905 Y23.1944
 X31.2068 Y23.3685
 X31.1401 Y23.5513
 X31.0911 Y23.7425
 X31.0608 Y23.9416
 X31.0478 Y24.2008
 Y32.1481
 X19.0496
 Y24.2010
 X19.0365 Y23.9409
 X19.0063 Y23.7408
 X18.9574 Y23.5495
 X18.8907 Y23.3663
 X18.8072 Y23.1921
 X18.7077 Y23.0274
 X18.5930 Y22.8735
 X18.4646 Y22.7317
 X18.3230 Y22.6027
 X18.1697 Y22.4879
 X18.0062 Y22.3885
 X17.8331 Y22.3051
 X17.6512 Y22.2386
 X17.4611 Y22.1898
 X17.2620 Y22.1595
 X17.0533 Y22.1489
 X16.8443 Y22.1595
 X16.6447 Y22.1898
 X16.4541 Y22.2387
 X16.2713 Y22.3055
 X16.0973 Y22.3892
 X15.9330 Y22.4888
 X15.7792 Y22.6039
 X15.6366 Y22.7335
 X15.5074 Y22.8757
 X15.3925 Y23.0296
 X15.2926 Y23.1942
 X15.2090 Y23.3683
 X15.1423 Y23.5511
 X15.0933 Y23.7423
 X15.0630 Y23.9416
 X15.0500 Y24.2008
 Y32.1481
 X-1.9502
G0 Z2.0000
M5 (stop spindle)
G04 P3 (wait for 3 seconds)
G0 Z2.0000
M2 (end program)
