;PYCAM-META-DATA: Filename: None
;PYCAM-META-DATA: Timestamp: 2012-04-14 11:52:38.277620
;PYCAM-META-DATA: Version: 0.5.1
;Estimated machine time: 25 minutes
G40 (disable tool radius compensation)
G49 (disable tool length compensation)
G80 (cancel modal motion)
G54 (select coordinate system 1)
G90 (disable incremental moves)
G21 (metric)
G61 (exact path mode)
F400.00000
S1000.00000
;PYCAM_TOOLPATH_SETTINGS: START
;[Bounds]
;maxz = 0.0
;maxx = 273.55002496
;maxy = 273.7821564
;minx = -23.45027456
;miny = -23.2197204
;minz = -5.1
;
;[Tool]
;torus_radius = 0.25
;speed = 1000.0
;shape = CylindricalCutter
;tool_radius = 1.5
;feedrate = 400.0
;
;[Process]
;engrave_offset = 2.0
;step_down = 2.0
;generator = EngraveCutter
;postprocessor = SimpleCutter
;milling_style = conventional
;material_allowance = 0.0
;pocketing_type = none
;path_direction = x
;
;PYCAM_TOOLPATH_SETTINGS: END
T1 M6
G0 Z2.0000
M3 (start spindle)
G04 P3 (wait for 3 seconds)
 X27.1164 Y28.0536
G1 Z-1.7000
 X38.4295 Y39.3679
 X39.1369 Y38.6604
 X27.8227 Y27.3472
 X27.1164 Y28.0536
G0 Z2.0000
 X69.5420 Y70.4804
G1 Z-1.7000
 X80.8564 Y81.7935
 X81.5627 Y81.0873
 X70.2496 Y69.7729
 X69.5420 Y70.4804
G0 Z2.0000
 X222.2780 Y27.3470
G1 Z-1.7000
 X210.9635 Y38.6604
 X211.6710 Y39.3679
 X222.9846 Y28.0537
 X222.2780 Y27.3470
G0 Z2.0000
 X179.8502 Y69.7730
G1 Z-1.7000
 X168.5380 Y81.0875
 X169.2434 Y81.7932
 X180.5575 Y70.4803
 X179.8502 Y69.7730
G0 Z2.0000
 X147.5379 Y125.2810
G1 Z-1.7000
 X147.5314 Y124.6999
 X147.5085 Y124.1233
 X147.4726 Y123.5505
 X147.4211 Y122.9795
 X147.3576 Y122.4141
 X147.2789 Y121.8557
 X147.1872 Y121.3007
 X147.0806 Y120.7485
 X146.9620 Y120.2014
 X146.8304 Y119.6633
 X146.6836 Y119.1239
 X146.5277 Y118.5940
 X146.3575 Y118.0735
 X146.1731 Y117.5524
 X145.9775 Y117.0366
 X145.7713 Y116.5300
 X145.5524 Y116.0299
 X145.3230 Y115.5382
 X145.0786 Y115.0493
 X144.8245 Y114.5668
 X144.5588 Y114.0925
 X144.2824 Y113.6235
 X143.9975 Y113.1660
 X143.7007 Y112.7168
 X143.3885 Y112.2684
 X143.0712 Y111.8306
 X142.7433 Y111.4040
 X142.4029 Y110.9816
 X142.0558 Y110.5704
 X141.6969 Y110.1674
 X141.3289 Y109.7717
 X140.9499 Y109.3844
 X140.5652 Y109.0071
 X140.1713 Y108.6415
 X139.7665 Y108.2827
 X139.3534 Y107.9341
 X138.9320 Y107.5946
 X138.5026 Y107.2653
 X138.0657 Y106.9462
 X137.6223 Y106.6384
 X137.1698 Y106.3410
 X136.7102 Y106.0539
 X136.2432 Y105.7786
 X135.7666 Y105.5122
 X135.2853 Y105.2578
 X134.7995 Y105.0163
 X134.3047 Y104.7859
 X133.8026 Y104.5660
 X133.2960 Y104.3590
 X132.7836 Y104.1647
 X132.2630 Y103.9816
 X131.7375 Y103.8108
 X131.2075 Y103.6531
 X130.6717 Y103.5081
 X130.1309 Y103.3761
 X129.5848 Y103.2577
 X129.0323 Y103.1518
 X128.4765 Y103.0592
 X127.9179 Y102.9813
 X127.3525 Y102.9170
 X126.7816 Y102.8663
 X126.2078 Y102.8296
 X125.6311 Y102.8075
 X125.0500 Y102.8002
 X124.4689 Y102.8075
 X123.8922 Y102.8296
 X123.3184 Y102.8663
 X122.7475 Y102.9170
 X122.1821 Y102.9813
 X121.6235 Y103.0592
 X121.0677 Y103.1518
 X120.5152 Y103.2577
 X119.9691 Y103.3761
 X119.4283 Y103.5081
 X118.8925 Y103.6531
 X118.3625 Y103.8108
 X117.8370 Y103.9816
 X117.3164 Y104.1647
 X116.8040 Y104.3590
 X116.2974 Y104.5660
 X115.7953 Y104.7859
 X115.3005 Y105.0163
 X114.8147 Y105.2578
 X114.3334 Y105.5122
 X113.8568 Y105.7786
 X113.3898 Y106.0539
 X112.9302 Y106.3410
 X112.4777 Y106.6384
 X112.0335 Y106.9468
 X111.5956 Y107.2659
 X111.1670 Y107.5946
 X110.7456 Y107.9341
 X110.3325 Y108.2827
 X109.9286 Y108.6407
 X109.5347 Y109.0071
 X109.1483 Y109.3853
 X108.7701 Y109.7717
 X108.4030 Y110.1664
 X108.0441 Y110.5704
 X107.6953 Y110.9826
 X107.3566 Y111.4030
 X107.0279 Y111.8316
 X106.7088 Y112.2695
 X106.3999 Y112.7144
 X106.1033 Y113.1648
 X105.8168 Y113.6248
 X105.5395 Y114.0938
 X105.2738 Y114.5681
 X105.0201 Y115.0480
 X104.7776 Y115.5368
 X104.5466 Y116.0299
 X104.3286 Y116.5300
 X104.1204 Y117.0395
 X103.9250 Y117.5524
 X103.7425 Y118.0705
 X103.5718 Y118.5955
 X103.4141 Y119.1255
 X103.2690 Y119.6617
 X103.1366 Y120.2030
 X103.0175 Y120.7485
 X102.9121 Y121.2991
 X102.8204 Y121.8541
 X102.7421 Y122.4157
 X102.6768 Y122.9811
 X102.6265 Y123.5489
 X102.5906 Y124.1217
 X102.5685 Y124.6999
 X102.5612 Y125.2810
 X102.5685 Y125.8621
 X102.5906 Y126.4403
 X102.6265 Y127.0131
 X102.6768 Y127.5809
 X102.7421 Y128.1463
 X102.8204 Y128.7079
 X102.9121 Y129.2629
 X103.0175 Y129.8135
 X103.1366 Y130.3590
 X103.2690 Y130.9003
 X103.4141 Y131.4365
 X103.5718 Y131.9665
 X103.7425 Y132.4915
 X103.9250 Y133.0096
 X104.1204 Y133.5225
 X104.3286 Y134.0320
 X104.5466 Y134.5321
 X104.7776 Y135.0252
 X105.0201 Y135.5140
 X105.2738 Y135.9939
 X105.5395 Y136.4682
 X105.8168 Y136.9372
 X106.1033 Y137.3972
 X106.4004 Y137.8484
 X106.7087 Y138.2935
 X107.0267 Y138.7287
 X107.3566 Y139.1581
 X107.6953 Y139.5794
 X108.0449 Y139.9915
 X108.4037 Y140.3973
 X108.7701 Y140.7903
 X109.1474 Y141.1768
 X109.5347 Y141.5539
 X109.9295 Y141.9230
 X110.3325 Y142.2793
 X110.7456 Y142.6289
 X111.1670 Y142.9675
 X111.5967 Y143.2979
 X112.0324 Y143.6154
 X112.4777 Y143.9236
 X112.9302 Y144.2220
 X113.3885 Y144.5074
 X113.8568 Y144.7834
 X114.3321 Y145.0491
 X114.8133 Y145.3025
 X115.3032 Y145.5461
 X115.7953 Y145.7771
 X116.2960 Y145.9944
 X116.8055 Y146.2036
 X117.3164 Y146.3973
 X117.8370 Y146.5804
 X118.3625 Y146.7512
 X118.8940 Y146.9094
 X119.4283 Y147.0549
 X119.9691 Y147.1859
 X120.5152 Y147.3053
 X121.0677 Y147.4102
 X121.6235 Y147.5038
 X122.1821 Y147.5807
 X122.7475 Y147.6460
 X123.3183 Y147.6957
 X123.8922 Y147.7334
 X124.4688 Y147.7545
 X125.0500 Y147.7628
 X125.6312 Y147.7545
 X126.2078 Y147.7334
 X126.7817 Y147.6957
 X127.3525 Y147.6460
 X127.9179 Y147.5807
 X128.4765 Y147.5038
 X129.0323 Y147.4102
 X129.5848 Y147.3053
 X130.1309 Y147.1859
 X130.6717 Y147.0549
 X131.2060 Y146.9094
 X131.7375 Y146.7512
 X132.2630 Y146.5804
 X132.7836 Y146.3973
 X133.2945 Y146.2036
 X133.8040 Y145.9944
 X134.3047 Y145.7771
 X134.7968 Y145.5461
 X135.2867 Y145.3025
 X135.7679 Y145.0491
 X136.2432 Y144.7834
 X136.7115 Y144.5074
 X137.1698 Y144.2220
 X137.6223 Y143.9236
 X138.0668 Y143.6160
 X138.5015 Y143.2985
 X138.9320 Y142.9675
 X139.3534 Y142.6289
 X139.7665 Y142.2793
 X140.1703 Y141.9223
 X140.5652 Y141.5539
 X140.9507 Y141.1776
 X141.3289 Y140.7903
 X141.6961 Y140.3964
 X142.0551 Y139.9915
 X142.4029 Y139.5804
 X142.7433 Y139.1570
 X143.0724 Y138.7298
 X143.3885 Y138.2946
 X143.7002 Y137.8461
 X143.9975 Y137.3960
 X144.2824 Y136.9385
 X144.5588 Y136.4695
 X144.8245 Y135.9952
 X145.0786 Y135.5127
 X145.3230 Y135.0238
 X145.5524 Y134.5321
 X145.7713 Y134.0320
 X145.9775 Y133.5254
 X146.1731 Y133.0096
 X146.3575 Y132.4885
 X146.5277 Y131.9680
 X146.6836 Y131.4381
 X146.8304 Y130.8987
 X146.9620 Y130.3606
 X147.0806 Y129.8135
 X147.1872 Y129.2613
 X147.2789 Y128.7063
 X147.3576 Y128.1479
 X147.4211 Y127.5825
 X147.4726 Y127.0115
 X147.5085 Y126.4387
 X147.5314 Y125.8621
 X147.5379 Y125.2810
G0 Z2.0000
 X70.2496 Y180.7895
G1 Z-1.7000
 X81.5628 Y169.4750
 X80.8563 Y168.7684
 X69.5420 Y180.0820
 X70.2496 Y180.7895
G0 Z2.0000
 X27.8227 Y223.2145
G1 Z-1.7000
 X39.1369 Y211.9010
 X38.4295 Y211.1935
 X27.1163 Y222.5080
 X27.8227 Y223.2145
G0 Z2.0000
 X180.5575 Y180.0820
G1 Z-1.7000
 X169.2435 Y168.7688
 X168.5379 Y169.4747
 X179.8502 Y180.7894
 X180.5575 Y180.0820
G0 Z2.0000
 X222.9846 Y222.5080
G1 Z-1.7000
 X211.6710 Y211.1935
 X210.9635 Y211.9010
 X222.2780 Y223.2146
 X222.9846 Y222.5080
G0 Z2.0000
 X252.0500 Y174.7810
G1 Z-1.7000
 X247.0500
 Y187.2810
 X225.5500
 Y185.0310
 X222.5500
 Y187.2810
 X210.0490
 Y188.2820
 X222.5500
 Y190.5310
 X225.5500
 Y188.2820
 X247.0500
 Y200.7810
 X252.0500
 Y219.7810
 X247.0500
 Y247.2810
 X219.5500
 Y252.2820
 X200.5500
 Y247.2810
 X188.0500
 Y225.7810
 X190.3000
 Y222.7810
 X188.0500
 Y210.2820
 X187.0500
 Y222.7810
 X184.8000
 Y225.7810
 X187.0500
 Y247.2810
 X174.5500
 Y252.2820
 X155.5500
 Y247.2810
 X94.5506
 Y252.2820
 X75.5504
 Y247.2810
 X63.0504
 Y225.7810
 X65.3004
 Y222.7810
 X63.0504
 Y210.2820
 X62.0494
 Y222.7810
 X59.8006
 Y225.7810
 X62.0494
 Y247.2810
 X49.5506
 Y252.2820
 X30.5508
 Y247.2810
 X3.0503
 Y219.7810
 X-1.9502
 Y200.7810
 X3.0503
 Y188.2820
 X24.5503
 Y190.5310
 X27.5508
 Y188.2820
 X40.0493
 Y187.2810
 X27.5508
 Y185.0310
 X24.5503
 Y187.2810
 X3.0503
 Y174.7810
 X-1.9502
 Y155.7810
 X3.0503
 Y94.7813
 X-1.9502
 Y75.7815
 X3.0503
 Y63.2811
 X24.5503
 Y65.5315
 X27.5508
 Y63.2811
 X40.0493
 Y62.2815
 X27.5508
 Y60.0313
 X24.5503
 Y62.2815
 X3.0503
 Y49.7817
 X-1.9502
 Y30.7815
 X3.0503
 Y3.2814
 X30.5508
 Y-1.7196
 X49.5506
 Y3.2814
 X62.0494
 Y24.7813
 X59.8006
 Y27.7815
 X62.0494
 Y40.2818
 X63.0504
 Y27.7815
 X65.3004
 Y24.7813
 X63.0504
 Y3.2814
 X75.5504
 Y-1.7196
 X94.5506
 Y3.2814
 X155.5500
 Y-1.7196
 X174.5500
 Y3.2814
 X187.0500
 Y24.7813
 X184.8000
 Y27.7815
 X187.0500
 Y40.2818
 X188.0500
 Y27.7815
 X190.3000
 Y24.7813
 X188.0500
 Y3.2814
 X200.5500
 Y-1.7196
 X219.5500
 Y3.2814
 X247.0500
 Y30.7815
 X252.0500
 Y49.7817
 X247.0500
 Y62.2815
 X225.5500
 Y60.0313
 X222.5500
 Y62.2815
 X210.0490
 Y63.2811
 X222.5500
 Y65.5315
 X225.5500
 Y63.2811
 X247.0500
 Y75.7815
 X252.0500
 Y94.7813
 X247.0500
 Y155.7810
 X252.0500
 Y174.7810
G0 Z2.0000
 X27.1164 Y28.0536
G1 Z-3.4000
 X38.4295 Y39.3679
 X39.1369 Y38.6604
 X27.8227 Y27.3472
 X27.1164 Y28.0536
G0 Z2.0000
 X69.5420 Y70.4804
G1 Z-3.4000
 X80.8564 Y81.7935
 X81.5627 Y81.0873
 X70.2496 Y69.7729
 X69.5420 Y70.4804
G0 Z2.0000
 X222.2780 Y27.3470
G1 Z-3.4000
 X210.9635 Y38.6604
 X211.6710 Y39.3679
 X222.9846 Y28.0537
 X222.2780 Y27.3470
G0 Z2.0000
 X179.8502 Y69.7730
G1 Z-3.4000
 X168.5380 Y81.0875
 X169.2434 Y81.7932
 X180.5575 Y70.4803
 X179.8502 Y69.7730
G0 Z2.0000
 X147.5379 Y125.2810
G1 Z-3.4000
 X147.5314 Y124.6999
 X147.5085 Y124.1233
 X147.4726 Y123.5505
 X147.4211 Y122.9795
 X147.3576 Y122.4141
 X147.2789 Y121.8557
 X147.1872 Y121.3007
 X147.0806 Y120.7485
 X146.9620 Y120.2014
 X146.8304 Y119.6633
 X146.6836 Y119.1239
 X146.5277 Y118.5940
 X146.3575 Y118.0735
 X146.1731 Y117.5524
 X145.9775 Y117.0366
 X145.7713 Y116.5300
 X145.5524 Y116.0299
 X145.3230 Y115.5382
 X145.0786 Y115.0493
 X144.8245 Y114.5668
 X144.5588 Y114.0925
 X144.2824 Y113.6235
 X143.9975 Y113.1660
 X143.7007 Y112.7168
 X143.3885 Y112.2684
 X143.0712 Y111.8306
 X142.7433 Y111.4040
 X142.4029 Y110.9816
 X142.0558 Y110.5704
 X141.6969 Y110.1674
 X141.3289 Y109.7717
 X140.9499 Y109.3844
 X140.5652 Y109.0071
 X140.1713 Y108.6415
 X139.7665 Y108.2827
 X139.3534 Y107.9341
 X138.9320 Y107.5946
 X138.5026 Y107.2653
 X138.0657 Y106.9462
 X137.6223 Y106.6384
 X137.1698 Y106.3410
 X136.7102 Y106.0539
 X136.2432 Y105.7786
 X135.7666 Y105.5122
 X135.2853 Y105.2578
 X134.7995 Y105.0163
 X134.3047 Y104.7859
 X133.8026 Y104.5660
 X133.2960 Y104.3590
 X132.7836 Y104.1647
 X132.2630 Y103.9816
 X131.7375 Y103.8108
 X131.2075 Y103.6531
 X130.6717 Y103.5081
 X130.1309 Y103.3761
 X129.5848 Y103.2577
 X129.0323 Y103.1518
 X128.4765 Y103.0592
 X127.9179 Y102.9813
 X127.3525 Y102.9170
 X126.7816 Y102.8663
 X126.2078 Y102.8296
 X125.6311 Y102.8075
 X125.0500 Y102.8002
 X124.4689 Y102.8075
 X123.8922 Y102.8296
 X123.3184 Y102.8663
 X122.7475 Y102.9170
 X122.1821 Y102.9813
 X121.6235 Y103.0592
 X121.0677 Y103.1518
 X120.5152 Y103.2577
 X119.9691 Y103.3761
 X119.4283 Y103.5081
 X118.8925 Y103.6531
 X118.3625 Y103.8108
 X117.8370 Y103.9816
 X117.3164 Y104.1647
 X116.8040 Y104.3590
 X116.2974 Y104.5660
 X115.7953 Y104.7859
 X115.3005 Y105.0163
 X114.8147 Y105.2578
 X114.3334 Y105.5122
 X113.8568 Y105.7786
 X113.3898 Y106.0539
 X112.9302 Y106.3410
 X112.4777 Y106.6384
 X112.0335 Y106.9468
 X111.5956 Y107.2659
 X111.1670 Y107.5946
 X110.7456 Y107.9341
 X110.3325 Y108.2827
 X109.9286 Y108.6407
 X109.5347 Y109.0071
 X109.1483 Y109.3853
 X108.7701 Y109.7717
 X108.4030 Y110.1664
 X108.0441 Y110.5704
 X107.6953 Y110.9826
 X107.3566 Y111.4030
 X107.0279 Y111.8316
 X106.7088 Y112.2695
 X106.3999 Y112.7144
 X106.1033 Y113.1648
 X105.8168 Y113.6248
 X105.5395 Y114.0938
 X105.2738 Y114.5681
 X105.0201 Y115.0480
 X104.7776 Y115.5368
 X104.5466 Y116.0299
 X104.3286 Y116.5300
 X104.1204 Y117.0395
 X103.9250 Y117.5524
 X103.7425 Y118.0705
 X103.5718 Y118.5955
 X103.4141 Y119.1255
 X103.2690 Y119.6617
 X103.1366 Y120.2030
 X103.0175 Y120.7485
 X102.9121 Y121.2991
 X102.8204 Y121.8541
 X102.7421 Y122.4157
 X102.6768 Y122.9811
 X102.6265 Y123.5489
 X102.5906 Y124.1217
 X102.5685 Y124.6999
 X102.5612 Y125.2810
 X102.5685 Y125.8621
 X102.5906 Y126.4403
 X102.6265 Y127.0131
 X102.6768 Y127.5809
 X102.7421 Y128.1463
 X102.8204 Y128.7079
 X102.9121 Y129.2629
 X103.0175 Y129.8135
 X103.1366 Y130.3590
 X103.2690 Y130.9003
 X103.4141 Y131.4365
 X103.5718 Y131.9665
 X103.7425 Y132.4915
 X103.9250 Y133.0096
 X104.1204 Y133.5225
 X104.3286 Y134.0320
 X104.5466 Y134.5321
 X104.7776 Y135.0252
 X105.0201 Y135.5140
 X105.2738 Y135.9939
 X105.5395 Y136.4682
 X105.8168 Y136.9372
 X106.1033 Y137.3972
 X106.4004 Y137.8484
 X106.7087 Y138.2935
 X107.0267 Y138.7287
 X107.3566 Y139.1581
 X107.6953 Y139.5794
 X108.0449 Y139.9915
 X108.4037 Y140.3973
 X108.7701 Y140.7903
 X109.1474 Y141.1768
 X109.5347 Y141.5539
 X109.9295 Y141.9230
 X110.3325 Y142.2793
 X110.7456 Y142.6289
 X111.1670 Y142.9675
 X111.5967 Y143.2979
 X112.0324 Y143.6154
 X112.4777 Y143.9236
 X112.9302 Y144.2220
 X113.3885 Y144.5074
 X113.8568 Y144.7834
 X114.3321 Y145.0491
 X114.8133 Y145.3025
 X115.3032 Y145.5461
 X115.7953 Y145.7771
 X116.2960 Y145.9944
 X116.8055 Y146.2036
 X117.3164 Y146.3973
 X117.8370 Y146.5804
 X118.3625 Y146.7512
 X118.8940 Y146.9094
 X119.4283 Y147.0549
 X119.9691 Y147.1859
 X120.5152 Y147.3053
 X121.0677 Y147.4102
 X121.6235 Y147.5038
 X122.1821 Y147.5807
 X122.7475 Y147.6460
 X123.3183 Y147.6957
 X123.8922 Y147.7334
 X124.4688 Y147.7545
 X125.0500 Y147.7628
 X125.6312 Y147.7545
 X126.2078 Y147.7334
 X126.7817 Y147.6957
 X127.3525 Y147.6460
 X127.9179 Y147.5807
 X128.4765 Y147.5038
 X129.0323 Y147.4102
 X129.5848 Y147.3053
 X130.1309 Y147.1859
 X130.6717 Y147.0549
 X131.2060 Y146.9094
 X131.7375 Y146.7512
 X132.2630 Y146.5804
 X132.7836 Y146.3973
 X133.2945 Y146.2036
 X133.8040 Y145.9944
 X134.3047 Y145.7771
 X134.7968 Y145.5461
 X135.2867 Y145.3025
 X135.7679 Y145.0491
 X136.2432 Y144.7834
 X136.7115 Y144.5074
 X137.1698 Y144.2220
 X137.6223 Y143.9236
 X138.0668 Y143.6160
 X138.5015 Y143.2985
 X138.9320 Y142.9675
 X139.3534 Y142.6289
 X139.7665 Y142.2793
 X140.1703 Y141.9223
 X140.5652 Y141.5539
 X140.9507 Y141.1776
 X141.3289 Y140.7903
 X141.6961 Y140.3964
 X142.0551 Y139.9915
 X142.4029 Y139.5804
 X142.7433 Y139.1570
 X143.0724 Y138.7298
 X143.3885 Y138.2946
 X143.7002 Y137.8461
 X143.9975 Y137.3960
 X144.2824 Y136.9385
 X144.5588 Y136.4695
 X144.8245 Y135.9952
 X145.0786 Y135.5127
 X145.3230 Y135.0238
 X145.5524 Y134.5321
 X145.7713 Y134.0320
 X145.9775 Y133.5254
 X146.1731 Y133.0096
 X146.3575 Y132.4885
 X146.5277 Y131.9680
 X146.6836 Y131.4381
 X146.8304 Y130.8987
 X146.9620 Y130.3606
 X147.0806 Y129.8135
 X147.1872 Y129.2613
 X147.2789 Y128.7063
 X147.3576 Y128.1479
 X147.4211 Y127.5825
 X147.4726 Y127.0115
 X147.5085 Y126.4387
 X147.5314 Y125.8621
 X147.5379 Y125.2810
G0 Z2.0000
 X70.2496 Y180.7895
G1 Z-3.4000
 X81.5628 Y169.4750
 X80.8563 Y168.7684
 X69.5420 Y180.0820
 X70.2496 Y180.7895
G0 Z2.0000
 X27.8227 Y223.2145
G1 Z-3.4000
 X39.1369 Y211.9010
 X38.4295 Y211.1935
 X27.1163 Y222.5080
 X27.8227 Y223.2145
G0 Z2.0000
 X180.5575 Y180.0820
G1 Z-3.4000
 X169.2435 Y168.7688
 X168.5379 Y169.4747
 X179.8502 Y180.7894
 X180.5575 Y180.0820
G0 Z2.0000
 X222.9846 Y222.5080
G1 Z-3.4000
 X211.6710 Y211.1935
 X210.9635 Y211.9010
 X222.2780 Y223.2146
 X222.9846 Y222.5080
G0 Z2.0000
 X252.0500 Y174.7810
G1 Z-3.4000
 X247.0500
 Y187.2810
 X225.5500
 Y185.0310
 X222.5500
 Y187.2810
 X210.0490
 Y188.2820
 X222.5500
 Y190.5310
 X225.5500
 Y188.2820
 X247.0500
 Y200.7810
 X252.0500
 Y219.7810
 X247.0500
 Y247.2810
 X219.5500
 Y252.2820
 X200.5500
 Y247.2810
 X188.0500
 Y225.7810
 X190.3000
 Y222.7810
 X188.0500
 Y210.2820
 X187.0500
 Y222.7810
 X184.8000
 Y225.7810
 X187.0500
 Y247.2810
 X174.5500
 Y252.2820
 X155.5500
 Y247.2810
 X94.5506
 Y252.2820
 X75.5504
 Y247.2810
 X63.0504
 Y225.7810
 X65.3004
 Y222.7810
 X63.0504
 Y210.2820
 X62.0494
 Y222.7810
 X59.8006
 Y225.7810
 X62.0494
 Y247.2810
 X49.5506
 Y252.2820
 X30.5508
 Y247.2810
 X3.0503
 Y219.7810
 X-1.9502
 Y200.7810
 X3.0503
 Y188.2820
 X24.5503
 Y190.5310
 X27.5508
 Y188.2820
 X40.0493
 Y187.2810
 X27.5508
 Y185.0310
 X24.5503
 Y187.2810
 X3.0503
 Y174.7810
 X-1.9502
 Y155.7810
 X3.0503
 Y94.7813
 X-1.9502
 Y75.7815
 X3.0503
 Y63.2811
 X24.5503
 Y65.5315
 X27.5508
 Y63.2811
 X40.0493
 Y62.2815
 X27.5508
 Y60.0313
 X24.5503
 Y62.2815
 X3.0503
 Y49.7817
 X-1.9502
 Y30.7815
 X3.0503
 Y3.2814
 X30.5508
 Y-1.7196
 X49.5506
 Y3.2814
 X62.0494
 Y24.7813
 X59.8006
 Y27.7815
 X62.0494
 Y40.2818
 X63.0504
 Y27.7815
 X65.3004
 Y24.7813
 X63.0504
 Y3.2814
 X75.5504
 Y-1.7196
 X94.5506
 Y3.2814
 X155.5500
 Y-1.7196
 X174.5500
 Y3.2814
 X187.0500
 Y24.7813
 X184.8000
 Y27.7815
 X187.0500
 Y40.2818
 X188.0500
 Y27.7815
 X190.3000
 Y24.7813
 X188.0500
 Y3.2814
 X200.5500
 Y-1.7196
 X219.5500
 Y3.2814
 X247.0500
 Y30.7815
 X252.0500
 Y49.7817
 X247.0500
 Y62.2815
 X225.5500
 Y60.0313
 X222.5500
 Y62.2815
 X210.0490
 Y63.2811
 X222.5500
 Y65.5315
 X225.5500
 Y63.2811
 X247.0500
 Y75.7815
 X252.0500
 Y94.7813
 X247.0500
 Y155.7810
 X252.0500
 Y174.7810
G0 Z2.0000
 X27.1164 Y28.0536
G1 Z-5.1000
 X38.4295 Y39.3679
 X39.1369 Y38.6604
 X27.8227 Y27.3472
 X27.1164 Y28.0536
G0 Z2.0000
 X69.5420 Y70.4804
G1 Z-5.1000
 X80.8564 Y81.7935
 X81.5627 Y81.0873
 X70.2496 Y69.7729
 X69.5420 Y70.4804
G0 Z2.0000
 X222.2780 Y27.3470
G1 Z-5.1000
 X210.9635 Y38.6604
 X211.6710 Y39.3679
 X222.9846 Y28.0537
 X222.2780 Y27.3470
G0 Z2.0000
 X179.8502 Y69.7730
G1 Z-5.1000
 X168.5380 Y81.0875
 X169.2434 Y81.7932
 X180.5575 Y70.4803
 X179.8502 Y69.7730
G0 Z2.0000
 X147.5379 Y125.2810
G1 Z-5.1000
 X147.5314 Y124.6999
 X147.5085 Y124.1233
 X147.4726 Y123.5505
 X147.4211 Y122.9795
 X147.3576 Y122.4141
 X147.2789 Y121.8557
 X147.1872 Y121.3007
 X147.0806 Y120.7485
 X146.9620 Y120.2014
 X146.8304 Y119.6633
 X146.6836 Y119.1239
 X146.5277 Y118.5940
 X146.3575 Y118.0735
 X146.1731 Y117.5524
 X145.9775 Y117.0366
 X145.7713 Y116.5300
 X145.5524 Y116.0299
 X145.3230 Y115.5382
 X145.0786 Y115.0493
 X144.8245 Y114.5668
 X144.5588 Y114.0925
 X144.2824 Y113.6235
 X143.9975 Y113.1660
 X143.7007 Y112.7168
 X143.3885 Y112.2684
 X143.0712 Y111.8306
 X142.7433 Y111.4040
 X142.4029 Y110.9816
 X142.0558 Y110.5704
 X141.6969 Y110.1674
 X141.3289 Y109.7717
 X140.9499 Y109.3844
 X140.5652 Y109.0071
 X140.1713 Y108.6415
 X139.7665 Y108.2827
 X139.3534 Y107.9341
 X138.9320 Y107.5946
 X138.5026 Y107.2653
 X138.0657 Y106.9462
 X137.6223 Y106.6384
 X137.1698 Y106.3410
 X136.7102 Y106.0539
 X136.2432 Y105.7786
 X135.7666 Y105.5122
 X135.2853 Y105.2578
 X134.7995 Y105.0163
 X134.3047 Y104.7859
 X133.8026 Y104.5660
 X133.2960 Y104.3590
 X132.7836 Y104.1647
 X132.2630 Y103.9816
 X131.7375 Y103.8108
 X131.2075 Y103.6531
 X130.6717 Y103.5081
 X130.1309 Y103.3761
 X129.5848 Y103.2577
 X129.0323 Y103.1518
 X128.4765 Y103.0592
 X127.9179 Y102.9813
 X127.3525 Y102.9170
 X126.7816 Y102.8663
 X126.2078 Y102.8296
 X125.6311 Y102.8075
 X125.0500 Y102.8002
 X124.4689 Y102.8075
 X123.8922 Y102.8296
 X123.3184 Y102.8663
 X122.7475 Y102.9170
 X122.1821 Y102.9813
 X121.6235 Y103.0592
 X121.0677 Y103.1518
 X120.5152 Y103.2577
 X119.9691 Y103.3761
 X119.4283 Y103.5081
 X118.8925 Y103.6531
 X118.3625 Y103.8108
 X117.8370 Y103.9816
 X117.3164 Y104.1647
 X116.8040 Y104.3590
 X116.2974 Y104.5660
 X115.7953 Y104.7859
 X115.3005 Y105.0163
 X114.8147 Y105.2578
 X114.3334 Y105.5122
 X113.8568 Y105.7786
 X113.3898 Y106.0539
 X112.9302 Y106.3410
 X112.4777 Y106.6384
 X112.0335 Y106.9468
 X111.5956 Y107.2659
 X111.1670 Y107.5946
 X110.7456 Y107.9341
 X110.3325 Y108.2827
 X109.9286 Y108.6407
 X109.5347 Y109.0071
 X109.1483 Y109.3853
 X108.7701 Y109.7717
 X108.4030 Y110.1664
 X108.0441 Y110.5704
 X107.6953 Y110.9826
 X107.3566 Y111.4030
 X107.0279 Y111.8316
 X106.7088 Y112.2695
 X106.3999 Y112.7144
 X106.1033 Y113.1648
 X105.8168 Y113.6248
 X105.5395 Y114.0938
 X105.2738 Y114.5681
 X105.0201 Y115.0480
 X104.7776 Y115.5368
 X104.5466 Y116.0299
 X104.3286 Y116.5300
 X104.1204 Y117.0395
 X103.9250 Y117.5524
 X103.7425 Y118.0705
 X103.5718 Y118.5955
 X103.4141 Y119.1255
 X103.2690 Y119.6617
 X103.1366 Y120.2030
 X103.0175 Y120.7485
 X102.9121 Y121.2991
 X102.8204 Y121.8541
 X102.7421 Y122.4157
 X102.6768 Y122.9811
 X102.6265 Y123.5489
 X102.5906 Y124.1217
 X102.5685 Y124.6999
 X102.5612 Y125.2810
 X102.5685 Y125.8621
 X102.5906 Y126.4403
 X102.6265 Y127.0131
 X102.6768 Y127.5809
 X102.7421 Y128.1463
 X102.8204 Y128.7079
 X102.9121 Y129.2629
 X103.0175 Y129.8135
 X103.1366 Y130.3590
 X103.2690 Y130.9003
 X103.4141 Y131.4365
 X103.5718 Y131.9665
 X103.7425 Y132.4915
 X103.9250 Y133.0096
 X104.1204 Y133.5225
 X104.3286 Y134.0320
 X104.5466 Y134.5321
 X104.7776 Y135.0252
 X105.0201 Y135.5140
 X105.2738 Y135.9939
 X105.5395 Y136.4682
 X105.8168 Y136.9372
 X106.1033 Y137.3972
 X106.4004 Y137.8484
 X106.7087 Y138.2935
 X107.0267 Y138.7287
 X107.3566 Y139.1581
 X107.6953 Y139.5794
 X108.0449 Y139.9915
 X108.4037 Y140.3973
 X108.7701 Y140.7903
 X109.1474 Y141.1768
 X109.5347 Y141.5539
 X109.9295 Y141.9230
 X110.3325 Y142.2793
 X110.7456 Y142.6289
 X111.1670 Y142.9675
 X111.5967 Y143.2979
 X112.0324 Y143.6154
 X112.4777 Y143.9236
 X112.9302 Y144.2220
 X113.3885 Y144.5074
 X113.8568 Y144.7834
 X114.3321 Y145.0491
 X114.8133 Y145.3025
 X115.3032 Y145.5461
 X115.7953 Y145.7771
 X116.2960 Y145.9944
 X116.8055 Y146.2036
 X117.3164 Y146.3973
 X117.8370 Y146.5804
 X118.3625 Y146.7512
 X118.8940 Y146.9094
 X119.4283 Y147.0549
 X119.9691 Y147.1859
 X120.5152 Y147.3053
 X121.0677 Y147.4102
 X121.6235 Y147.5038
 X122.1821 Y147.5807
 X122.7475 Y147.6460
 X123.3183 Y147.6957
 X123.8922 Y147.7334
 X124.4688 Y147.7545
 X125.0500 Y147.7628
 X125.6312 Y147.7545
 X126.2078 Y147.7334
 X126.7817 Y147.6957
 X127.3525 Y147.6460
 X127.9179 Y147.5807
 X128.4765 Y147.5038
 X129.0323 Y147.4102
 X129.5848 Y147.3053
 X130.1309 Y147.1859
 X130.6717 Y147.0549
 X131.2060 Y146.9094
 X131.7375 Y146.7512
 X132.2630 Y146.5804
 X132.7836 Y146.3973
 X133.2945 Y146.2036
 X133.8040 Y145.9944
 X134.3047 Y145.7771
 X134.7968 Y145.5461
 X135.2867 Y145.3025
 X135.7679 Y145.0491
 X136.2432 Y144.7834
 X136.7115 Y144.5074
 X137.1698 Y144.2220
 X137.6223 Y143.9236
 X138.0668 Y143.6160
 X138.5015 Y143.2985
 X138.9320 Y142.9675
 X139.3534 Y142.6289
 X139.7665 Y142.2793
 X140.1703 Y141.9223
 X140.5652 Y141.5539
 X140.9507 Y141.1776
 X141.3289 Y140.7903
 X141.6961 Y140.3964
 X142.0551 Y139.9915
 X142.4029 Y139.5804
 X142.7433 Y139.1570
 X143.0724 Y138.7298
 X143.3885 Y138.2946
 X143.7002 Y137.8461
 X143.9975 Y137.3960
 X144.2824 Y136.9385
 X144.5588 Y136.4695
 X144.8245 Y135.9952
 X145.0786 Y135.5127
 X145.3230 Y135.0238
 X145.5524 Y134.5321
 X145.7713 Y134.0320
 X145.9775 Y133.5254
 X146.1731 Y133.0096
 X146.3575 Y132.4885
 X146.5277 Y131.9680
 X146.6836 Y131.4381
 X146.8304 Y130.8987
 X146.9620 Y130.3606
 X147.0806 Y129.8135
 X147.1872 Y129.2613
 X147.2789 Y128.7063
 X147.3576 Y128.1479
 X147.4211 Y127.5825
 X147.4726 Y127.0115
 X147.5085 Y126.4387
 X147.5314 Y125.8621
 X147.5379 Y125.2810
G0 Z2.0000
 X70.2496 Y180.7895
G1 Z-5.1000
 X81.5628 Y169.4750
 X80.8563 Y168.7684
 X69.5420 Y180.0820
 X70.2496 Y180.7895
G0 Z2.0000
 X27.8227 Y223.2145
G1 Z-5.1000
 X39.1369 Y211.9010
 X38.4295 Y211.1935
 X27.1163 Y222.5080
 X27.8227 Y223.2145
G0 Z2.0000
 X180.5575 Y180.0820
G1 Z-5.1000
 X169.2435 Y168.7688
 X168.5379 Y169.4747
 X179.8502 Y180.7894
 X180.5575 Y180.0820
G0 Z2.0000
 X222.9846 Y222.5080
G1 Z-5.1000
 X211.6710 Y211.1935
 X210.9635 Y211.9010
 X222.2780 Y223.2146
 X222.9846 Y222.5080
G0 Z2.0000
 X252.0500 Y174.7810
G1 Z-5.1000
 X247.0500
 Y187.2810
 X225.5500
 Y185.0310
 X222.5500
 Y187.2810
 X210.0490
 Y188.2820
 X222.5500
 Y190.5310
 X225.5500
 Y188.2820
 X247.0500
 Y200.7810
 X252.0500
 Y219.7810
 X247.0500
 Y247.2810
 X219.5500
 Y252.2820
 X200.5500
 Y247.2810
 X188.0500
 Y225.7810
 X190.3000
 Y222.7810
 X188.0500
 Y210.2820
 X187.0500
 Y222.7810
 X184.8000
 Y225.7810
 X187.0500
 Y247.2810
 X174.5500
 Y252.2820
 X155.5500
 Y247.2810
 X94.5506
 Y252.2820
 X75.5504
 Y247.2810
 X63.0504
 Y225.7810
 X65.3004
 Y222.7810
 X63.0504
 Y210.2820
 X62.0494
 Y222.7810
 X59.8006
 Y225.7810
 X62.0494
 Y247.2810
 X49.5506
 Y252.2820
 X30.5508
 Y247.2810
 X3.0503
 Y219.7810
 X-1.9502
 Y200.7810
 X3.0503
 Y188.2820
 X24.5503
 Y190.5310
 X27.5508
 Y188.2820
 X40.0493
 Y187.2810
 X27.5508
 Y185.0310
 X24.5503
 Y187.2810
 X3.0503
 Y174.7810
 X-1.9502
 Y155.7810
 X3.0503
 Y94.7813
 X-1.9502
 Y75.7815
 X3.0503
 Y63.2811
 X24.5503
 Y65.5315
 X27.5508
 Y63.2811
 X40.0493
 Y62.2815
 X27.5508
 Y60.0313
 X24.5503
 Y62.2815
 X3.0503
 Y49.7817
 X-1.9502
 Y30.7815
 X3.0503
 Y3.2814
 X30.5508
 Y-1.7196
 X49.5506
 Y3.2814
 X62.0494
 Y24.7813
 X59.8006
 Y27.7815
 X62.0494
 Y40.2818
 X63.0504
 Y27.7815
 X65.3004
 Y24.7813
 X63.0504
 Y3.2814
 X75.5504
 Y-1.7196
 X94.5506
 Y3.2814
 X155.5500
 Y-1.7196
 X174.5500
 Y3.2814
 X187.0500
 Y24.7813
 X184.8000
 Y27.7815
 X187.0500
 Y40.2818
 X188.0500
 Y27.7815
 X190.3000
 Y24.7813
 X188.0500
 Y3.2814
 X200.5500
 Y-1.7196
 X219.5500
 Y3.2814
 X247.0500
 Y30.7815
 X252.0500
 Y49.7817
 X247.0500
 Y62.2815
 X225.5500
 Y60.0313
 X222.5500
 Y62.2815
 X210.0490
 Y63.2811
 X222.5500
 Y65.5315
 X225.5500
 Y63.2811
 X247.0500
 Y75.7815
 X252.0500
 Y94.7813
 X247.0500
 Y155.7810
 X252.0500
 Y174.7810
G0 Z2.0000
M5 (stop spindle)
G04 P3 (wait for 3 seconds)
G0 Z2.0000
M2 (end program)
