;PYCAM-META-DATA: Filename: None
;PYCAM-META-DATA: Timestamp: 2012-02-02 16:12:57.878909
;PYCAM-META-DATA: Version: 0.5.1
;Estimated machine time: 11 minutes
G40 (disable tool radius compensation)
G49 (disable tool length compensation)
G80 (cancel modal motion)
G54 (select coordinate system 1)
G90 (disable incremental moves)
G21 (metric)
G61 (exact path mode)
F350.00000
S1000.00000
;PYCAM_TOOLPATH_SETTINGS: START
;[Bounds]
;maxz = 0.0
;maxx = 231.9568
;maxy = 22.71593428
;minx = -36.9928
;miny = -2.08020568
;minz = -2.2
;
;[Tool]
;torus_radius = 0.25
;speed = 1000.0
;shape = CylindricalCutter
;tool_radius = 2.0
;feedrate = 350.0
;
;[Process]
;engrave_offset = 1.0
;step_down = 0.3
;generator = EngraveCutter
;postprocessor = SimpleCutter
;milling_style = conventional
;material_allowance = 0.0
;pocketing_type = none
;path_direction = x
;
;PYCAM_TOOLPATH_SETTINGS: END
T1 M6
G0 Z10.0000
M3 (start spindle)
G04 P3 (wait for 3 seconds)
 X193.9627 Y15.5974
G1 Z-0.2750
 X193.9419 Y15.1885
 X193.8802 Y14.7905
 X193.7824 Y14.4069
 X193.6489 Y14.0417
 X193.4802 Y13.6924
 X193.2802 Y13.3626
 X193.0500 Y13.0549
 X192.7912 Y12.7704
 X192.5064 Y12.5115
 X192.1995 Y12.2815
 X191.8695 Y12.0814
 X191.5200 Y11.9129
 X191.1539 Y11.7789
 X190.7706 Y11.6804
 X190.3740 Y11.6198
 X189.9640 Y11.5991
 X189.5539 Y11.6198
 X189.1563 Y11.6804
 X188.7734 Y11.7788
 X188.4083 Y11.9128
 X188.0585 Y12.0814
 X187.7280 Y12.2818
 X187.4207 Y12.5115
 X187.1373 Y12.7699
 X186.8780 Y13.0549
 X186.6478 Y13.3626
 X186.4478 Y13.6924
 X186.2791 Y14.0417
 X186.1456 Y14.4069
 X186.0478 Y14.7905
 X185.9861 Y15.1885
 X185.9653 Y15.5974
 X185.9861 Y16.0063
 X186.0479 Y16.4047
 X186.1456 Y16.7885
 X186.2791 Y17.1537
 X186.4478 Y17.5031
 X186.6479 Y17.8332
 X186.8780 Y18.1407
 X187.1373 Y18.4258
 X187.4208 Y18.6844
 X187.7280 Y18.9140
 X188.0585 Y19.1144
 X188.4084 Y19.2831
 X188.7734 Y19.4171
 X189.1562 Y19.5154
 X189.5538 Y19.5760
 X189.9640 Y19.5966
 X190.3741 Y19.5760
 X190.7707 Y19.5154
 X191.1539 Y19.4170
 X191.5200 Y19.2829
 X191.8695 Y19.1144
 X192.1995 Y18.9143
 X192.5063 Y18.6844
 X192.7912 Y18.4252
 X193.0500 Y18.1407
 X193.2801 Y17.8332
 X193.4802 Y17.5031
 X193.6489 Y17.1537
 X193.7824 Y16.7885
 X193.8801 Y16.4047
 X193.9419 Y16.0063
 X193.9627 Y15.5974
G0 Z10.0000
 X153.4986 Y13.5978
G1 Z-0.2750
 X153.4960 Y13.5471
 X153.4878 Y13.4939
 X153.4762 Y13.4478
 X153.4605 Y13.4052
 X153.4388 Y13.3601
 X153.4136 Y13.3187
 X153.3856 Y13.2810
 X153.3544 Y13.2468
 X153.3173 Y13.2133
 X153.2787 Y13.1843
 X153.2392 Y13.1604
 X153.1936 Y13.1386
 X153.1493 Y13.1223
 X153.1014 Y13.1101
 X153.0515 Y13.1024
 X152.9998 Y13.0998
 X152.9469 Y13.1025
 X152.8977 Y13.1100
 X152.8500 Y13.1223
 X152.8051 Y13.1386
 X152.7634 Y13.1588
 X152.7213 Y13.1843
 X152.6827 Y13.2133
 X152.6475 Y13.2451
 X152.6151 Y13.2810
 X152.5849 Y13.3211
 X152.5612 Y13.3601
 X152.5409 Y13.4023
 X152.5244 Y13.4478
 X152.5117 Y13.4971
 X152.5040 Y13.5471
 X152.5014 Y13.5978
 X152.5040 Y13.6485
 X152.5117 Y13.6986
 X152.5244 Y13.7479
 X152.5410 Y13.7936
 X152.5614 Y13.8360
 X152.5849 Y13.8748
 X152.6154 Y13.9153
 X152.6480 Y13.9515
 X152.6833 Y13.9834
 X152.7217 Y14.0123
 X152.7636 Y14.0377
 X152.8057 Y14.0581
 X152.8513 Y14.0747
 X152.8987 Y14.0870
 X152.9465 Y14.0943
 X152.9998 Y14.0970
 X153.0518 Y14.0944
 X153.1005 Y14.0869
 X153.1480 Y14.0747
 X153.1930 Y14.0581
 X153.2389 Y14.0361
 X153.2783 Y14.0123
 X153.3167 Y13.9834
 X153.3539 Y13.9497
 X153.3853 Y13.9152
 X153.4136 Y13.8772
 X153.4386 Y13.8360
 X153.4604 Y13.7907
 X153.4762 Y13.7478
 X153.4878 Y13.7018
 X153.4960 Y13.6485
 X153.4986 Y13.5978
G0 Z10.0000
 X57.4991
G1 Z-0.2750
 X57.4964 Y13.5455
 X57.4889 Y13.4961
 X57.4769 Y13.4494
 X57.4604 Y13.4043
 X57.4396 Y13.3612
 X57.4147 Y13.3203
 X57.3857 Y13.2816
 X57.3533 Y13.2459
 X57.3174 Y13.2134
 X57.2789 Y13.1846
 X57.2376 Y13.1596
 X57.1939 Y13.1386
 X57.1491 Y13.1222
 X57.1017 Y13.1100
 X57.0520 Y13.1025
 X56.9997 Y13.0998
 X56.9474 Y13.1025
 X56.8978 Y13.1100
 X56.8508 Y13.1221
 X56.8061 Y13.1385
 X56.7627 Y13.1594
 X56.7216 Y13.1843
 X56.6832 Y13.2130
 X56.6473 Y13.2456
 X56.6150 Y13.2812
 X56.5862 Y13.3196
 X56.5612 Y13.3609
 X56.5404 Y13.4041
 X56.5239 Y13.4490
 X56.5119 Y13.4958
 X56.5044 Y13.5452
 X56.5017 Y13.5978
 X56.5044 Y13.6504
 X56.5119 Y13.6999
 X56.5239 Y13.7466
 X56.5405 Y13.7919
 X56.5613 Y13.8352
 X56.5862 Y13.8762
 X56.6153 Y13.9150
 X56.6479 Y13.9509
 X56.6839 Y13.9837
 X56.7220 Y14.0123
 X56.7629 Y14.0371
 X56.8066 Y14.0582
 X56.8521 Y14.0749
 X56.8988 Y14.0870
 X56.9471 Y14.0944
 X56.9997 Y14.0970
 X57.0524 Y14.0944
 X57.1008 Y14.0869
 X57.1478 Y14.0748
 X57.1933 Y14.0581
 X57.2373 Y14.0369
 X57.2784 Y14.0120
 X57.3168 Y13.9833
 X57.3528 Y13.9506
 X57.3854 Y13.9146
 X57.4147 Y13.8755
 X57.4394 Y13.8349
 X57.4603 Y13.7916
 X57.4769 Y13.7463
 X57.4889 Y13.6995
 X57.4964 Y13.6501
 X57.4991 Y13.5978
G0 Z10.0000
 X23.0772 Y15.6026
G1 Z-0.2750
 X23.0564 Y15.1924
 X22.9958 Y14.7955
 X22.8975 Y14.4128
 X22.7632 Y14.0460
 X22.5950 Y13.6968
 X22.3947 Y13.3672
 X22.1642 Y13.0590
 X21.9056 Y12.7745
 X21.6213 Y12.5160
 X21.3131 Y12.2855
 X20.9833 Y12.0851
 X20.6342 Y11.9169
 X20.2673 Y11.7827
 X19.8847 Y11.6843
 X19.4879 Y11.6237
 X19.0775 Y11.6030
 X18.6672 Y11.6237
 X18.2705 Y11.6843
 X17.8878 Y11.7827
 X17.5210 Y11.9169
 X17.1721 Y12.0851
 X16.8424 Y12.2854
 X16.5345 Y12.5158
 X16.2503 Y12.7744
 X15.9917 Y13.0588
 X15.7615 Y13.3669
 X15.5612 Y13.6968
 X15.3929 Y14.0460
 X15.2588 Y14.4127
 X15.1604 Y14.7954
 X15.0999 Y15.1922
 X15.0792 Y15.6026
 X15.0999 Y16.0131
 X15.1604 Y16.4100
 X15.2587 Y16.7925
 X15.3929 Y17.1591
 X15.5611 Y17.5083
 X15.7614 Y17.8380
 X15.9916 Y18.1459
 X16.2500 Y18.4301
 X16.5343 Y18.6885
 X16.8422 Y18.9188
 X17.1719 Y19.1190
 X17.5209 Y19.2872
 X17.8877 Y19.4213
 X18.2703 Y19.5197
 X18.6671 Y19.5802
 X19.0775 Y19.6009
 X19.4880 Y19.5802
 X19.8849 Y19.5197
 X20.2674 Y19.4213
 X20.6343 Y19.2871
 X20.9836 Y19.1189
 X21.3133 Y18.9187
 X21.6215 Y18.6884
 X21.9058 Y18.4300
 X22.1643 Y18.1458
 X22.3948 Y17.8377
 X22.5951 Y17.5082
 X22.7632 Y17.1591
 X22.8975 Y16.7924
 X22.9958 Y16.4099
 X23.0564 Y16.0129
 X23.0772 Y15.6026
G0 Z10.0000
 X193.9627 Y15.5974
G1 Z-0.5500
 X193.9419 Y15.1885
 X193.8802 Y14.7905
 X193.7824 Y14.4069
 X193.6489 Y14.0417
 X193.4802 Y13.6924
 X193.2802 Y13.3626
 X193.0500 Y13.0549
 X192.7912 Y12.7704
 X192.5064 Y12.5115
 X192.1995 Y12.2815
 X191.8695 Y12.0814
 X191.5200 Y11.9129
 X191.1539 Y11.7789
 X190.7706 Y11.6804
 X190.3740 Y11.6198
 X189.9640 Y11.5991
 X189.5539 Y11.6198
 X189.1563 Y11.6804
 X188.7734 Y11.7788
 X188.4083 Y11.9128
 X188.0585 Y12.0814
 X187.7280 Y12.2818
 X187.4207 Y12.5115
 X187.1373 Y12.7699
 X186.8780 Y13.0549
 X186.6478 Y13.3626
 X186.4478 Y13.6924
 X186.2791 Y14.0417
 X186.1456 Y14.4069
 X186.0478 Y14.7905
 X185.9861 Y15.1885
 X185.9653 Y15.5974
 X185.9861 Y16.0063
 X186.0479 Y16.4047
 X186.1456 Y16.7885
 X186.2791 Y17.1537
 X186.4478 Y17.5031
 X186.6479 Y17.8332
 X186.8780 Y18.1407
 X187.1373 Y18.4258
 X187.4208 Y18.6844
 X187.7280 Y18.9140
 X188.0585 Y19.1144
 X188.4084 Y19.2831
 X188.7734 Y19.4171
 X189.1562 Y19.5154
 X189.5538 Y19.5760
 X189.9640 Y19.5966
 X190.3741 Y19.5760
 X190.7707 Y19.5154
 X191.1539 Y19.4170
 X191.5200 Y19.2829
 X191.8695 Y19.1144
 X192.1995 Y18.9143
 X192.5063 Y18.6844
 X192.7912 Y18.4252
 X193.0500 Y18.1407
 X193.2801 Y17.8332
 X193.4802 Y17.5031
 X193.6489 Y17.1537
 X193.7824 Y16.7885
 X193.8801 Y16.4047
 X193.9419 Y16.0063
 X193.9627 Y15.5974
G0 Z10.0000
 X153.4986 Y13.5978
G1 Z-0.5500
 X153.4960 Y13.5471
 X153.4878 Y13.4939
 X153.4762 Y13.4478
 X153.4605 Y13.4052
 X153.4388 Y13.3601
 X153.4136 Y13.3187
 X153.3856 Y13.2810
 X153.3544 Y13.2468
 X153.3173 Y13.2133
 X153.2787 Y13.1843
 X153.2392 Y13.1604
 X153.1936 Y13.1386
 X153.1493 Y13.1223
 X153.1014 Y13.1101
 X153.0515 Y13.1024
 X152.9998 Y13.0998
 X152.9469 Y13.1025
 X152.8977 Y13.1100
 X152.8500 Y13.1223
 X152.8051 Y13.1386
 X152.7634 Y13.1588
 X152.7213 Y13.1843
 X152.6827 Y13.2133
 X152.6475 Y13.2451
 X152.6151 Y13.2810
 X152.5849 Y13.3211
 X152.5612 Y13.3601
 X152.5409 Y13.4023
 X152.5244 Y13.4478
 X152.5117 Y13.4971
 X152.5040 Y13.5471
 X152.5014 Y13.5978
 X152.5040 Y13.6485
 X152.5117 Y13.6986
 X152.5244 Y13.7479
 X152.5410 Y13.7936
 X152.5614 Y13.8360
 X152.5849 Y13.8748
 X152.6154 Y13.9153
 X152.6480 Y13.9515
 X152.6833 Y13.9834
 X152.7217 Y14.0123
 X152.7636 Y14.0377
 X152.8057 Y14.0581
 X152.8513 Y14.0747
 X152.8987 Y14.0870
 X152.9465 Y14.0943
 X152.9998 Y14.0970
 X153.0518 Y14.0944
 X153.1005 Y14.0869
 X153.1480 Y14.0747
 X153.1930 Y14.0581
 X153.2389 Y14.0361
 X153.2783 Y14.0123
 X153.3167 Y13.9834
 X153.3539 Y13.9497
 X153.3853 Y13.9152
 X153.4136 Y13.8772
 X153.4386 Y13.8360
 X153.4604 Y13.7907
 X153.4762 Y13.7478
 X153.4878 Y13.7018
 X153.4960 Y13.6485
 X153.4986 Y13.5978
G0 Z10.0000
 X57.4991
G1 Z-0.5500
 X57.4964 Y13.5455
 X57.4889 Y13.4961
 X57.4769 Y13.4494
 X57.4604 Y13.4043
 X57.4396 Y13.3612
 X57.4147 Y13.3203
 X57.3857 Y13.2816
 X57.3533 Y13.2459
 X57.3174 Y13.2134
 X57.2789 Y13.1846
 X57.2376 Y13.1596
 X57.1939 Y13.1386
 X57.1491 Y13.1222
 X57.1017 Y13.1100
 X57.0520 Y13.1025
 X56.9997 Y13.0998
 X56.9474 Y13.1025
 X56.8978 Y13.1100
 X56.8508 Y13.1221
 X56.8061 Y13.1385
 X56.7627 Y13.1594
 X56.7216 Y13.1843
 X56.6832 Y13.2130
 X56.6473 Y13.2456
 X56.6150 Y13.2812
 X56.5862 Y13.3196
 X56.5612 Y13.3609
 X56.5404 Y13.4041
 X56.5239 Y13.4490
 X56.5119 Y13.4958
 X56.5044 Y13.5452
 X56.5017 Y13.5978
 X56.5044 Y13.6504
 X56.5119 Y13.6999
 X56.5239 Y13.7466
 X56.5405 Y13.7919
 X56.5613 Y13.8352
 X56.5862 Y13.8762
 X56.6153 Y13.9150
 X56.6479 Y13.9509
 X56.6839 Y13.9837
 X56.7220 Y14.0123
 X56.7629 Y14.0371
 X56.8066 Y14.0582
 X56.8521 Y14.0749
 X56.8988 Y14.0870
 X56.9471 Y14.0944
 X56.9997 Y14.0970
 X57.0524 Y14.0944
 X57.1008 Y14.0869
 X57.1478 Y14.0748
 X57.1933 Y14.0581
 X57.2373 Y14.0369
 X57.2784 Y14.0120
 X57.3168 Y13.9833
 X57.3528 Y13.9506
 X57.3854 Y13.9146
 X57.4147 Y13.8755
 X57.4394 Y13.8349
 X57.4603 Y13.7916
 X57.4769 Y13.7463
 X57.4889 Y13.6995
 X57.4964 Y13.6501
 X57.4991 Y13.5978
G0 Z10.0000
 X23.0772 Y15.6026
G1 Z-0.5500
 X23.0564 Y15.1924
 X22.9958 Y14.7955
 X22.8975 Y14.4128
 X22.7632 Y14.0460
 X22.5950 Y13.6968
 X22.3947 Y13.3672
 X22.1642 Y13.0590
 X21.9056 Y12.7745
 X21.6213 Y12.5160
 X21.3131 Y12.2855
 X20.9833 Y12.0851
 X20.6342 Y11.9169
 X20.2673 Y11.7827
 X19.8847 Y11.6843
 X19.4879 Y11.6237
 X19.0775 Y11.6030
 X18.6672 Y11.6237
 X18.2705 Y11.6843
 X17.8878 Y11.7827
 X17.5210 Y11.9169
 X17.1721 Y12.0851
 X16.8424 Y12.2854
 X16.5345 Y12.5158
 X16.2503 Y12.7744
 X15.9917 Y13.0588
 X15.7615 Y13.3669
 X15.5612 Y13.6968
 X15.3929 Y14.0460
 X15.2588 Y14.4127
 X15.1604 Y14.7954
 X15.0999 Y15.1922
 X15.0792 Y15.6026
 X15.0999 Y16.0131
 X15.1604 Y16.4100
 X15.2587 Y16.7925
 X15.3929 Y17.1591
 X15.5611 Y17.5083
 X15.7614 Y17.8380
 X15.9916 Y18.1459
 X16.2500 Y18.4301
 X16.5343 Y18.6885
 X16.8422 Y18.9188
 X17.1719 Y19.1190
 X17.5209 Y19.2872
 X17.8877 Y19.4213
 X18.2703 Y19.5197
 X18.6671 Y19.5802
 X19.0775 Y19.6009
 X19.4880 Y19.5802
 X19.8849 Y19.5197
 X20.2674 Y19.4213
 X20.6343 Y19.2871
 X20.9836 Y19.1189
 X21.3133 Y18.9187
 X21.6215 Y18.6884
 X21.9058 Y18.4300
 X22.1643 Y18.1458
 X22.3948 Y17.8377
 X22.5951 Y17.5082
 X22.7632 Y17.1591
 X22.8975 Y16.7924
 X22.9958 Y16.4099
 X23.0564 Y16.0129
 X23.0772 Y15.6026
G0 Z10.0000
 X193.9627 Y15.5974
G1 Z-0.8250
 X193.9419 Y15.1885
 X193.8802 Y14.7905
 X193.7824 Y14.4069
 X193.6489 Y14.0417
 X193.4802 Y13.6924
 X193.2802 Y13.3626
 X193.0500 Y13.0549
 X192.7912 Y12.7704
 X192.5064 Y12.5115
 X192.1995 Y12.2815
 X191.8695 Y12.0814
 X191.5200 Y11.9129
 X191.1539 Y11.7789
 X190.7706 Y11.6804
 X190.3740 Y11.6198
 X189.9640 Y11.5991
 X189.5539 Y11.6198
 X189.1563 Y11.6804
 X188.7734 Y11.7788
 X188.4083 Y11.9128
 X188.0585 Y12.0814
 X187.7280 Y12.2818
 X187.4207 Y12.5115
 X187.1373 Y12.7699
 X186.8780 Y13.0549
 X186.6478 Y13.3626
 X186.4478 Y13.6924
 X186.2791 Y14.0417
 X186.1456 Y14.4069
 X186.0478 Y14.7905
 X185.9861 Y15.1885
 X185.9653 Y15.5974
 X185.9861 Y16.0063
 X186.0479 Y16.4047
 X186.1456 Y16.7885
 X186.2791 Y17.1537
 X186.4478 Y17.5031
 X186.6479 Y17.8332
 X186.8780 Y18.1407
 X187.1373 Y18.4258
 X187.4208 Y18.6844
 X187.7280 Y18.9140
 X188.0585 Y19.1144
 X188.4084 Y19.2831
 X188.7734 Y19.4171
 X189.1562 Y19.5154
 X189.5538 Y19.5760
 X189.9640 Y19.5966
 X190.3741 Y19.5760
 X190.7707 Y19.5154
 X191.1539 Y19.4170
 X191.5200 Y19.2829
 X191.8695 Y19.1144
 X192.1995 Y18.9143
 X192.5063 Y18.6844
 X192.7912 Y18.4252
 X193.0500 Y18.1407
 X193.2801 Y17.8332
 X193.4802 Y17.5031
 X193.6489 Y17.1537
 X193.7824 Y16.7885
 X193.8801 Y16.4047
 X193.9419 Y16.0063
 X193.9627 Y15.5974
G0 Z10.0000
 X153.4986 Y13.5978
G1 Z-0.8250
 X153.4960 Y13.5471
 X153.4878 Y13.4939
 X153.4762 Y13.4478
 X153.4605 Y13.4052
 X153.4388 Y13.3601
 X153.4136 Y13.3187
 X153.3856 Y13.2810
 X153.3544 Y13.2468
 X153.3173 Y13.2133
 X153.2787 Y13.1843
 X153.2392 Y13.1604
 X153.1936 Y13.1386
 X153.1493 Y13.1223
 X153.1014 Y13.1101
 X153.0515 Y13.1024
 X152.9998 Y13.0998
 X152.9469 Y13.1025
 X152.8977 Y13.1100
 X152.8500 Y13.1223
 X152.8051 Y13.1386
 X152.7634 Y13.1588
 X152.7213 Y13.1843
 X152.6827 Y13.2133
 X152.6475 Y13.2451
 X152.6151 Y13.2810
 X152.5849 Y13.3211
 X152.5612 Y13.3601
 X152.5409 Y13.4023
 X152.5244 Y13.4478
 X152.5117 Y13.4971
 X152.5040 Y13.5471
 X152.5014 Y13.5978
 X152.5040 Y13.6485
 X152.5117 Y13.6986
 X152.5244 Y13.7479
 X152.5410 Y13.7936
 X152.5614 Y13.8360
 X152.5849 Y13.8748
 X152.6154 Y13.9153
 X152.6480 Y13.9515
 X152.6833 Y13.9834
 X152.7217 Y14.0123
 X152.7636 Y14.0377
 X152.8057 Y14.0581
 X152.8513 Y14.0747
 X152.8987 Y14.0870
 X152.9465 Y14.0943
 X152.9998 Y14.0970
 X153.0518 Y14.0944
 X153.1005 Y14.0869
 X153.1480 Y14.0747
 X153.1930 Y14.0581
 X153.2389 Y14.0361
 X153.2783 Y14.0123
 X153.3167 Y13.9834
 X153.3539 Y13.9497
 X153.3853 Y13.9152
 X153.4136 Y13.8772
 X153.4386 Y13.8360
 X153.4604 Y13.7907
 X153.4762 Y13.7478
 X153.4878 Y13.7018
 X153.4960 Y13.6485
 X153.4986 Y13.5978
G0 Z10.0000
 X57.4991
G1 Z-0.8250
 X57.4964 Y13.5455
 X57.4889 Y13.4961
 X57.4769 Y13.4494
 X57.4604 Y13.4043
 X57.4396 Y13.3612
 X57.4147 Y13.3203
 X57.3857 Y13.2816
 X57.3533 Y13.2459
 X57.3174 Y13.2134
 X57.2789 Y13.1846
 X57.2376 Y13.1596
 X57.1939 Y13.1386
 X57.1491 Y13.1222
 X57.1017 Y13.1100
 X57.0520 Y13.1025
 X56.9997 Y13.0998
 X56.9474 Y13.1025
 X56.8978 Y13.1100
 X56.8508 Y13.1221
 X56.8061 Y13.1385
 X56.7627 Y13.1594
 X56.7216 Y13.1843
 X56.6832 Y13.2130
 X56.6473 Y13.2456
 X56.6150 Y13.2812
 X56.5862 Y13.3196
 X56.5612 Y13.3609
 X56.5404 Y13.4041
 X56.5239 Y13.4490
 X56.5119 Y13.4958
 X56.5044 Y13.5452
 X56.5017 Y13.5978
 X56.5044 Y13.6504
 X56.5119 Y13.6999
 X56.5239 Y13.7466
 X56.5405 Y13.7919
 X56.5613 Y13.8352
 X56.5862 Y13.8762
 X56.6153 Y13.9150
 X56.6479 Y13.9509
 X56.6839 Y13.9837
 X56.7220 Y14.0123
 X56.7629 Y14.0371
 X56.8066 Y14.0582
 X56.8521 Y14.0749
 X56.8988 Y14.0870
 X56.9471 Y14.0944
 X56.9997 Y14.0970
 X57.0524 Y14.0944
 X57.1008 Y14.0869
 X57.1478 Y14.0748
 X57.1933 Y14.0581
 X57.2373 Y14.0369
 X57.2784 Y14.0120
 X57.3168 Y13.9833
 X57.3528 Y13.9506
 X57.3854 Y13.9146
 X57.4147 Y13.8755
 X57.4394 Y13.8349
 X57.4603 Y13.7916
 X57.4769 Y13.7463
 X57.4889 Y13.6995
 X57.4964 Y13.6501
 X57.4991 Y13.5978
G0 Z10.0000
 X23.0772 Y15.6026
G1 Z-0.8250
 X23.0564 Y15.1924
 X22.9958 Y14.7955
 X22.8975 Y14.4128
 X22.7632 Y14.0460
 X22.5950 Y13.6968
 X22.3947 Y13.3672
 X22.1642 Y13.0590
 X21.9056 Y12.7745
 X21.6213 Y12.5160
 X21.3131 Y12.2855
 X20.9833 Y12.0851
 X20.6342 Y11.9169
 X20.2673 Y11.7827
 X19.8847 Y11.6843
 X19.4879 Y11.6237
 X19.0775 Y11.6030
 X18.6672 Y11.6237
 X18.2705 Y11.6843
 X17.8878 Y11.7827
 X17.5210 Y11.9169
 X17.1721 Y12.0851
 X16.8424 Y12.2854
 X16.5345 Y12.5158
 X16.2503 Y12.7744
 X15.9917 Y13.0588
 X15.7615 Y13.3669
 X15.5612 Y13.6968
 X15.3929 Y14.0460
 X15.2588 Y14.4127
 X15.1604 Y14.7954
 X15.0999 Y15.1922
 X15.0792 Y15.6026
 X15.0999 Y16.0131
 X15.1604 Y16.4100
 X15.2587 Y16.7925
 X15.3929 Y17.1591
 X15.5611 Y17.5083
 X15.7614 Y17.8380
 X15.9916 Y18.1459
 X16.2500 Y18.4301
 X16.5343 Y18.6885
 X16.8422 Y18.9188
 X17.1719 Y19.1190
 X17.5209 Y19.2872
 X17.8877 Y19.4213
 X18.2703 Y19.5197
 X18.6671 Y19.5802
 X19.0775 Y19.6009
 X19.4880 Y19.5802
 X19.8849 Y19.5197
 X20.2674 Y19.4213
 X20.6343 Y19.2871
 X20.9836 Y19.1189
 X21.3133 Y18.9187
 X21.6215 Y18.6884
 X21.9058 Y18.4300
 X22.1643 Y18.1458
 X22.3948 Y17.8377
 X22.5951 Y17.5082
 X22.7632 Y17.1591
 X22.8975 Y16.7924
 X22.9958 Y16.4099
 X23.0564 Y16.0129
 X23.0772 Y15.6026
G0 Z10.0000
 X193.9627 Y15.5974
G1 Z-1.1000
 X193.9419 Y15.1885
 X193.8802 Y14.7905
 X193.7824 Y14.4069
 X193.6489 Y14.0417
 X193.4802 Y13.6924
 X193.2802 Y13.3626
 X193.0500 Y13.0549
 X192.7912 Y12.7704
 X192.5064 Y12.5115
 X192.1995 Y12.2815
 X191.8695 Y12.0814
 X191.5200 Y11.9129
 X191.1539 Y11.7789
 X190.7706 Y11.6804
 X190.3740 Y11.6198
 X189.9640 Y11.5991
 X189.5539 Y11.6198
 X189.1563 Y11.6804
 X188.7734 Y11.7788
 X188.4083 Y11.9128
 X188.0585 Y12.0814
 X187.7280 Y12.2818
 X187.4207 Y12.5115
 X187.1373 Y12.7699
 X186.8780 Y13.0549
 X186.6478 Y13.3626
 X186.4478 Y13.6924
 X186.2791 Y14.0417
 X186.1456 Y14.4069
 X186.0478 Y14.7905
 X185.9861 Y15.1885
 X185.9653 Y15.5974
 X185.9861 Y16.0063
 X186.0479 Y16.4047
 X186.1456 Y16.7885
 X186.2791 Y17.1537
 X186.4478 Y17.5031
 X186.6479 Y17.8332
 X186.8780 Y18.1407
 X187.1373 Y18.4258
 X187.4208 Y18.6844
 X187.7280 Y18.9140
 X188.0585 Y19.1144
 X188.4084 Y19.2831
 X188.7734 Y19.4171
 X189.1562 Y19.5154
 X189.5538 Y19.5760
 X189.9640 Y19.5966
 X190.3741 Y19.5760
 X190.7707 Y19.5154
 X191.1539 Y19.4170
 X191.5200 Y19.2829
 X191.8695 Y19.1144
 X192.1995 Y18.9143
 X192.5063 Y18.6844
 X192.7912 Y18.4252
 X193.0500 Y18.1407
 X193.2801 Y17.8332
 X193.4802 Y17.5031
 X193.6489 Y17.1537
 X193.7824 Y16.7885
 X193.8801 Y16.4047
 X193.9419 Y16.0063
 X193.9627 Y15.5974
G0 Z10.0000
 X153.4986 Y13.5978
G1 Z-1.1000
 X153.4960 Y13.5471
 X153.4878 Y13.4939
 X153.4762 Y13.4478
 X153.4605 Y13.4052
 X153.4388 Y13.3601
 X153.4136 Y13.3187
 X153.3856 Y13.2810
 X153.3544 Y13.2468
 X153.3173 Y13.2133
 X153.2787 Y13.1843
 X153.2392 Y13.1604
 X153.1936 Y13.1386
 X153.1493 Y13.1223
 X153.1014 Y13.1101
 X153.0515 Y13.1024
 X152.9998 Y13.0998
 X152.9469 Y13.1025
 X152.8977 Y13.1100
 X152.8500 Y13.1223
 X152.8051 Y13.1386
 X152.7634 Y13.1588
 X152.7213 Y13.1843
 X152.6827 Y13.2133
 X152.6475 Y13.2451
 X152.6151 Y13.2810
 X152.5849 Y13.3211
 X152.5612 Y13.3601
 X152.5409 Y13.4023
 X152.5244 Y13.4478
 X152.5117 Y13.4971
 X152.5040 Y13.5471
 X152.5014 Y13.5978
 X152.5040 Y13.6485
 X152.5117 Y13.6986
 X152.5244 Y13.7479
 X152.5410 Y13.7936
 X152.5614 Y13.8360
 X152.5849 Y13.8748
 X152.6154 Y13.9153
 X152.6480 Y13.9515
 X152.6833 Y13.9834
 X152.7217 Y14.0123
 X152.7636 Y14.0377
 X152.8057 Y14.0581
 X152.8513 Y14.0747
 X152.8987 Y14.0870
 X152.9465 Y14.0943
 X152.9998 Y14.0970
 X153.0518 Y14.0944
 X153.1005 Y14.0869
 X153.1480 Y14.0747
 X153.1930 Y14.0581
 X153.2389 Y14.0361
 X153.2783 Y14.0123
 X153.3167 Y13.9834
 X153.3539 Y13.9497
 X153.3853 Y13.9152
 X153.4136 Y13.8772
 X153.4386 Y13.8360
 X153.4604 Y13.7907
 X153.4762 Y13.7478
 X153.4878 Y13.7018
 X153.4960 Y13.6485
 X153.4986 Y13.5978
G0 Z10.0000
 X57.4991
G1 Z-1.1000
 X57.4964 Y13.5455
 X57.4889 Y13.4961
 X57.4769 Y13.4494
 X57.4604 Y13.4043
 X57.4396 Y13.3612
 X57.4147 Y13.3203
 X57.3857 Y13.2816
 X57.3533 Y13.2459
 X57.3174 Y13.2134
 X57.2789 Y13.1846
 X57.2376 Y13.1596
 X57.1939 Y13.1386
 X57.1491 Y13.1222
 X57.1017 Y13.1100
 X57.0520 Y13.1025
 X56.9997 Y13.0998
 X56.9474 Y13.1025
 X56.8978 Y13.1100
 X56.8508 Y13.1221
 X56.8061 Y13.1385
 X56.7627 Y13.1594
 X56.7216 Y13.1843
 X56.6832 Y13.2130
 X56.6473 Y13.2456
 X56.6150 Y13.2812
 X56.5862 Y13.3196
 X56.5612 Y13.3609
 X56.5404 Y13.4041
 X56.5239 Y13.4490
 X56.5119 Y13.4958
 X56.5044 Y13.5452
 X56.5017 Y13.5978
 X56.5044 Y13.6504
 X56.5119 Y13.6999
 X56.5239 Y13.7466
 X56.5405 Y13.7919
 X56.5613 Y13.8352
 X56.5862 Y13.8762
 X56.6153 Y13.9150
 X56.6479 Y13.9509
 X56.6839 Y13.9837
 X56.7220 Y14.0123
 X56.7629 Y14.0371
 X56.8066 Y14.0582
 X56.8521 Y14.0749
 X56.8988 Y14.0870
 X56.9471 Y14.0944
 X56.9997 Y14.0970
 X57.0524 Y14.0944
 X57.1008 Y14.0869
 X57.1478 Y14.0748
 X57.1933 Y14.0581
 X57.2373 Y14.0369
 X57.2784 Y14.0120
 X57.3168 Y13.9833
 X57.3528 Y13.9506
 X57.3854 Y13.9146
 X57.4147 Y13.8755
 X57.4394 Y13.8349
 X57.4603 Y13.7916
 X57.4769 Y13.7463
 X57.4889 Y13.6995
 X57.4964 Y13.6501
 X57.4991 Y13.5978
G0 Z10.0000
 X23.0772 Y15.6026
G1 Z-1.1000
 X23.0564 Y15.1924
 X22.9958 Y14.7955
 X22.8975 Y14.4128
 X22.7632 Y14.0460
 X22.5950 Y13.6968
 X22.3947 Y13.3672
 X22.1642 Y13.0590
 X21.9056 Y12.7745
 X21.6213 Y12.5160
 X21.3131 Y12.2855
 X20.9833 Y12.0851
 X20.6342 Y11.9169
 X20.2673 Y11.7827
 X19.8847 Y11.6843
 X19.4879 Y11.6237
 X19.0775 Y11.6030
 X18.6672 Y11.6237
 X18.2705 Y11.6843
 X17.8878 Y11.7827
 X17.5210 Y11.9169
 X17.1721 Y12.0851
 X16.8424 Y12.2854
 X16.5345 Y12.5158
 X16.2503 Y12.7744
 X15.9917 Y13.0588
 X15.7615 Y13.3669
 X15.5612 Y13.6968
 X15.3929 Y14.0460
 X15.2588 Y14.4127
 X15.1604 Y14.7954
 X15.0999 Y15.1922
 X15.0792 Y15.6026
 X15.0999 Y16.0131
 X15.1604 Y16.4100
 X15.2587 Y16.7925
 X15.3929 Y17.1591
 X15.5611 Y17.5083
 X15.7614 Y17.8380
 X15.9916 Y18.1459
 X16.2500 Y18.4301
 X16.5343 Y18.6885
 X16.8422 Y18.9188
 X17.1719 Y19.1190
 X17.5209 Y19.2872
 X17.8877 Y19.4213
 X18.2703 Y19.5197
 X18.6671 Y19.5802
 X19.0775 Y19.6009
 X19.4880 Y19.5802
 X19.8849 Y19.5197
 X20.2674 Y19.4213
 X20.6343 Y19.2871
 X20.9836 Y19.1189
 X21.3133 Y18.9187
 X21.6215 Y18.6884
 X21.9058 Y18.4300
 X22.1643 Y18.1458
 X22.3948 Y17.8377
 X22.5951 Y17.5082
 X22.7632 Y17.1591
 X22.8975 Y16.7924
 X22.9958 Y16.4099
 X23.0564 Y16.0129
 X23.0772 Y15.6026
G0 Z10.0000
 X193.9627 Y15.5974
G1 Z-1.3750
 X193.9419 Y15.1885
 X193.8802 Y14.7905
 X193.7824 Y14.4069
 X193.6489 Y14.0417
 X193.4802 Y13.6924
 X193.2802 Y13.3626
 X193.0500 Y13.0549
 X192.7912 Y12.7704
 X192.5064 Y12.5115
 X192.1995 Y12.2815
 X191.8695 Y12.0814
 X191.5200 Y11.9129
 X191.1539 Y11.7789
 X190.7706 Y11.6804
 X190.3740 Y11.6198
 X189.9640 Y11.5991
 X189.5539 Y11.6198
 X189.1563 Y11.6804
 X188.7734 Y11.7788
 X188.4083 Y11.9128
 X188.0585 Y12.0814
 X187.7280 Y12.2818
 X187.4207 Y12.5115
 X187.1373 Y12.7699
 X186.8780 Y13.0549
 X186.6478 Y13.3626
 X186.4478 Y13.6924
 X186.2791 Y14.0417
 X186.1456 Y14.4069
 X186.0478 Y14.7905
 X185.9861 Y15.1885
 X185.9653 Y15.5974
 X185.9861 Y16.0063
 X186.0479 Y16.4047
 X186.1456 Y16.7885
 X186.2791 Y17.1537
 X186.4478 Y17.5031
 X186.6479 Y17.8332
 X186.8780 Y18.1407
 X187.1373 Y18.4258
 X187.4208 Y18.6844
 X187.7280 Y18.9140
 X188.0585 Y19.1144
 X188.4084 Y19.2831
 X188.7734 Y19.4171
 X189.1562 Y19.5154
 X189.5538 Y19.5760
 X189.9640 Y19.5966
 X190.3741 Y19.5760
 X190.7707 Y19.5154
 X191.1539 Y19.4170
 X191.5200 Y19.2829
 X191.8695 Y19.1144
 X192.1995 Y18.9143
 X192.5063 Y18.6844
 X192.7912 Y18.4252
 X193.0500 Y18.1407
 X193.2801 Y17.8332
 X193.4802 Y17.5031
 X193.6489 Y17.1537
 X193.7824 Y16.7885
 X193.8801 Y16.4047
 X193.9419 Y16.0063
 X193.9627 Y15.5974
G0 Z10.0000
 X153.4986 Y13.5978
G1 Z-1.3750
 X153.4960 Y13.5471
 X153.4878 Y13.4939
 X153.4762 Y13.4478
 X153.4605 Y13.4052
 X153.4388 Y13.3601
 X153.4136 Y13.3187
 X153.3856 Y13.2810
 X153.3544 Y13.2468
 X153.3173 Y13.2133
 X153.2787 Y13.1843
 X153.2392 Y13.1604
 X153.1936 Y13.1386
 X153.1493 Y13.1223
 X153.1014 Y13.1101
 X153.0515 Y13.1024
 X152.9998 Y13.0998
 X152.9469 Y13.1025
 X152.8977 Y13.1100
 X152.8500 Y13.1223
 X152.8051 Y13.1386
 X152.7634 Y13.1588
 X152.7213 Y13.1843
 X152.6827 Y13.2133
 X152.6475 Y13.2451
 X152.6151 Y13.2810
 X152.5849 Y13.3211
 X152.5612 Y13.3601
 X152.5409 Y13.4023
 X152.5244 Y13.4478
 X152.5117 Y13.4971
 X152.5040 Y13.5471
 X152.5014 Y13.5978
 X152.5040 Y13.6485
 X152.5117 Y13.6986
 X152.5244 Y13.7479
 X152.5410 Y13.7936
 X152.5614 Y13.8360
 X152.5849 Y13.8748
 X152.6154 Y13.9153
 X152.6480 Y13.9515
 X152.6833 Y13.9834
 X152.7217 Y14.0123
 X152.7636 Y14.0377
 X152.8057 Y14.0581
 X152.8513 Y14.0747
 X152.8987 Y14.0870
 X152.9465 Y14.0943
 X152.9998 Y14.0970
 X153.0518 Y14.0944
 X153.1005 Y14.0869
 X153.1480 Y14.0747
 X153.1930 Y14.0581
 X153.2389 Y14.0361
 X153.2783 Y14.0123
 X153.3167 Y13.9834
 X153.3539 Y13.9497
 X153.3853 Y13.9152
 X153.4136 Y13.8772
 X153.4386 Y13.8360
 X153.4604 Y13.7907
 X153.4762 Y13.7478
 X153.4878 Y13.7018
 X153.4960 Y13.6485
 X153.4986 Y13.5978
G0 Z10.0000
 X57.4991
G1 Z-1.3750
 X57.4964 Y13.5455
 X57.4889 Y13.4961
 X57.4769 Y13.4494
 X57.4604 Y13.4043
 X57.4396 Y13.3612
 X57.4147 Y13.3203
 X57.3857 Y13.2816
 X57.3533 Y13.2459
 X57.3174 Y13.2134
 X57.2789 Y13.1846
 X57.2376 Y13.1596
 X57.1939 Y13.1386
 X57.1491 Y13.1222
 X57.1017 Y13.1100
 X57.0520 Y13.1025
 X56.9997 Y13.0998
 X56.9474 Y13.1025
 X56.8978 Y13.1100
 X56.8508 Y13.1221
 X56.8061 Y13.1385
 X56.7627 Y13.1594
 X56.7216 Y13.1843
 X56.6832 Y13.2130
 X56.6473 Y13.2456
 X56.6150 Y13.2812
 X56.5862 Y13.3196
 X56.5612 Y13.3609
 X56.5404 Y13.4041
 X56.5239 Y13.4490
 X56.5119 Y13.4958
 X56.5044 Y13.5452
 X56.5017 Y13.5978
 X56.5044 Y13.6504
 X56.5119 Y13.6999
 X56.5239 Y13.7466
 X56.5405 Y13.7919
 X56.5613 Y13.8352
 X56.5862 Y13.8762
 X56.6153 Y13.9150
 X56.6479 Y13.9509
 X56.6839 Y13.9837
 X56.7220 Y14.0123
 X56.7629 Y14.0371
 X56.8066 Y14.0582
 X56.8521 Y14.0749
 X56.8988 Y14.0870
 X56.9471 Y14.0944
 X56.9997 Y14.0970
 X57.0524 Y14.0944
 X57.1008 Y14.0869
 X57.1478 Y14.0748
 X57.1933 Y14.0581
 X57.2373 Y14.0369
 X57.2784 Y14.0120
 X57.3168 Y13.9833
 X57.3528 Y13.9506
 X57.3854 Y13.9146
 X57.4147 Y13.8755
 X57.4394 Y13.8349
 X57.4603 Y13.7916
 X57.4769 Y13.7463
 X57.4889 Y13.6995
 X57.4964 Y13.6501
 X57.4991 Y13.5978
G0 Z10.0000
 X23.0772 Y15.6026
G1 Z-1.3750
 X23.0564 Y15.1924
 X22.9958 Y14.7955
 X22.8975 Y14.4128
 X22.7632 Y14.0460
 X22.5950 Y13.6968
 X22.3947 Y13.3672
 X22.1642 Y13.0590
 X21.9056 Y12.7745
 X21.6213 Y12.5160
 X21.3131 Y12.2855
 X20.9833 Y12.0851
 X20.6342 Y11.9169
 X20.2673 Y11.7827
 X19.8847 Y11.6843
 X19.4879 Y11.6237
 X19.0775 Y11.6030
 X18.6672 Y11.6237
 X18.2705 Y11.6843
 X17.8878 Y11.7827
 X17.5210 Y11.9169
 X17.1721 Y12.0851
 X16.8424 Y12.2854
 X16.5345 Y12.5158
 X16.2503 Y12.7744
 X15.9917 Y13.0588
 X15.7615 Y13.3669
 X15.5612 Y13.6968
 X15.3929 Y14.0460
 X15.2588 Y14.4127
 X15.1604 Y14.7954
 X15.0999 Y15.1922
 X15.0792 Y15.6026
 X15.0999 Y16.0131
 X15.1604 Y16.4100
 X15.2587 Y16.7925
 X15.3929 Y17.1591
 X15.5611 Y17.5083
 X15.7614 Y17.8380
 X15.9916 Y18.1459
 X16.2500 Y18.4301
 X16.5343 Y18.6885
 X16.8422 Y18.9188
 X17.1719 Y19.1190
 X17.5209 Y19.2872
 X17.8877 Y19.4213
 X18.2703 Y19.5197
 X18.6671 Y19.5802
 X19.0775 Y19.6009
 X19.4880 Y19.5802
 X19.8849 Y19.5197
 X20.2674 Y19.4213
 X20.6343 Y19.2871
 X20.9836 Y19.1189
 X21.3133 Y18.9187
 X21.6215 Y18.6884
 X21.9058 Y18.4300
 X22.1643 Y18.1458
 X22.3948 Y17.8377
 X22.5951 Y17.5082
 X22.7632 Y17.1591
 X22.8975 Y16.7924
 X22.9958 Y16.4099
 X23.0564 Y16.0129
 X23.0772 Y15.6026
G0 Z10.0000
 X193.9627 Y15.5974
G1 Z-1.6500
 X193.9419 Y15.1885
 X193.8802 Y14.7905
 X193.7824 Y14.4069
 X193.6489 Y14.0417
 X193.4802 Y13.6924
 X193.2802 Y13.3626
 X193.0500 Y13.0549
 X192.7912 Y12.7704
 X192.5064 Y12.5115
 X192.1995 Y12.2815
 X191.8695 Y12.0814
 X191.5200 Y11.9129
 X191.1539 Y11.7789
 X190.7706 Y11.6804
 X190.3740 Y11.6198
 X189.9640 Y11.5991
 X189.5539 Y11.6198
 X189.1563 Y11.6804
 X188.7734 Y11.7788
 X188.4083 Y11.9128
 X188.0585 Y12.0814
 X187.7280 Y12.2818
 X187.4207 Y12.5115
 X187.1373 Y12.7699
 X186.8780 Y13.0549
 X186.6478 Y13.3626
 X186.4478 Y13.6924
 X186.2791 Y14.0417
 X186.1456 Y14.4069
 X186.0478 Y14.7905
 X185.9861 Y15.1885
 X185.9653 Y15.5974
 X185.9861 Y16.0063
 X186.0479 Y16.4047
 X186.1456 Y16.7885
 X186.2791 Y17.1537
 X186.4478 Y17.5031
 X186.6479 Y17.8332
 X186.8780 Y18.1407
 X187.1373 Y18.4258
 X187.4208 Y18.6844
 X187.7280 Y18.9140
 X188.0585 Y19.1144
 X188.4084 Y19.2831
 X188.7734 Y19.4171
 X189.1562 Y19.5154
 X189.5538 Y19.5760
 X189.9640 Y19.5966
 X190.3741 Y19.5760
 X190.7707 Y19.5154
 X191.1539 Y19.4170
 X191.5200 Y19.2829
 X191.8695 Y19.1144
 X192.1995 Y18.9143
 X192.5063 Y18.6844
 X192.7912 Y18.4252
 X193.0500 Y18.1407
 X193.2801 Y17.8332
 X193.4802 Y17.5031
 X193.6489 Y17.1537
 X193.7824 Y16.7885
 X193.8801 Y16.4047
 X193.9419 Y16.0063
 X193.9627 Y15.5974
G0 Z10.0000
 X153.4986 Y13.5978
G1 Z-1.6500
 X153.4960 Y13.5471
 X153.4878 Y13.4939
 X153.4762 Y13.4478
 X153.4605 Y13.4052
 X153.4388 Y13.3601
 X153.4136 Y13.3187
 X153.3856 Y13.2810
 X153.3544 Y13.2468
 X153.3173 Y13.2133
 X153.2787 Y13.1843
 X153.2392 Y13.1604
 X153.1936 Y13.1386
 X153.1493 Y13.1223
 X153.1014 Y13.1101
 X153.0515 Y13.1024
 X152.9998 Y13.0998
 X152.9469 Y13.1025
 X152.8977 Y13.1100
 X152.8500 Y13.1223
 X152.8051 Y13.1386
 X152.7634 Y13.1588
 X152.7213 Y13.1843
 X152.6827 Y13.2133
 X152.6475 Y13.2451
 X152.6151 Y13.2810
 X152.5849 Y13.3211
 X152.5612 Y13.3601
 X152.5409 Y13.4023
 X152.5244 Y13.4478
 X152.5117 Y13.4971
 X152.5040 Y13.5471
 X152.5014 Y13.5978
 X152.5040 Y13.6485
 X152.5117 Y13.6986
 X152.5244 Y13.7479
 X152.5410 Y13.7936
 X152.5614 Y13.8360
 X152.5849 Y13.8748
 X152.6154 Y13.9153
 X152.6480 Y13.9515
 X152.6833 Y13.9834
 X152.7217 Y14.0123
 X152.7636 Y14.0377
 X152.8057 Y14.0581
 X152.8513 Y14.0747
 X152.8987 Y14.0870
 X152.9465 Y14.0943
 X152.9998 Y14.0970
 X153.0518 Y14.0944
 X153.1005 Y14.0869
 X153.1480 Y14.0747
 X153.1930 Y14.0581
 X153.2389 Y14.0361
 X153.2783 Y14.0123
 X153.3167 Y13.9834
 X153.3539 Y13.9497
 X153.3853 Y13.9152
 X153.4136 Y13.8772
 X153.4386 Y13.8360
 X153.4604 Y13.7907
 X153.4762 Y13.7478
 X153.4878 Y13.7018
 X153.4960 Y13.6485
 X153.4986 Y13.5978
G0 Z10.0000
 X57.4991
G1 Z-1.6500
 X57.4964 Y13.5455
 X57.4889 Y13.4961
 X57.4769 Y13.4494
 X57.4604 Y13.4043
 X57.4396 Y13.3612
 X57.4147 Y13.3203
 X57.3857 Y13.2816
 X57.3533 Y13.2459
 X57.3174 Y13.2134
 X57.2789 Y13.1846
 X57.2376 Y13.1596
 X57.1939 Y13.1386
 X57.1491 Y13.1222
 X57.1017 Y13.1100
 X57.0520 Y13.1025
 X56.9997 Y13.0998
 X56.9474 Y13.1025
 X56.8978 Y13.1100
 X56.8508 Y13.1221
 X56.8061 Y13.1385
 X56.7627 Y13.1594
 X56.7216 Y13.1843
 X56.6832 Y13.2130
 X56.6473 Y13.2456
 X56.6150 Y13.2812
 X56.5862 Y13.3196
 X56.5612 Y13.3609
 X56.5404 Y13.4041
 X56.5239 Y13.4490
 X56.5119 Y13.4958
 X56.5044 Y13.5452
 X56.5017 Y13.5978
 X56.5044 Y13.6504
 X56.5119 Y13.6999
 X56.5239 Y13.7466
 X56.5405 Y13.7919
 X56.5613 Y13.8352
 X56.5862 Y13.8762
 X56.6153 Y13.9150
 X56.6479 Y13.9509
 X56.6839 Y13.9837
 X56.7220 Y14.0123
 X56.7629 Y14.0371
 X56.8066 Y14.0582
 X56.8521 Y14.0749
 X56.8988 Y14.0870
 X56.9471 Y14.0944
 X56.9997 Y14.0970
 X57.0524 Y14.0944
 X57.1008 Y14.0869
 X57.1478 Y14.0748
 X57.1933 Y14.0581
 X57.2373 Y14.0369
 X57.2784 Y14.0120
 X57.3168 Y13.9833
 X57.3528 Y13.9506
 X57.3854 Y13.9146
 X57.4147 Y13.8755
 X57.4394 Y13.8349
 X57.4603 Y13.7916
 X57.4769 Y13.7463
 X57.4889 Y13.6995
 X57.4964 Y13.6501
 X57.4991 Y13.5978
G0 Z10.0000
 X23.0772 Y15.6026
G1 Z-1.6500
 X23.0564 Y15.1924
 X22.9958 Y14.7955
 X22.8975 Y14.4128
 X22.7632 Y14.0460
 X22.5950 Y13.6968
 X22.3947 Y13.3672
 X22.1642 Y13.0590
 X21.9056 Y12.7745
 X21.6213 Y12.5160
 X21.3131 Y12.2855
 X20.9833 Y12.0851
 X20.6342 Y11.9169
 X20.2673 Y11.7827
 X19.8847 Y11.6843
 X19.4879 Y11.6237
 X19.0775 Y11.6030
 X18.6672 Y11.6237
 X18.2705 Y11.6843
 X17.8878 Y11.7827
 X17.5210 Y11.9169
 X17.1721 Y12.0851
 X16.8424 Y12.2854
 X16.5345 Y12.5158
 X16.2503 Y12.7744
 X15.9917 Y13.0588
 X15.7615 Y13.3669
 X15.5612 Y13.6968
 X15.3929 Y14.0460
 X15.2588 Y14.4127
 X15.1604 Y14.7954
 X15.0999 Y15.1922
 X15.0792 Y15.6026
 X15.0999 Y16.0131
 X15.1604 Y16.4100
 X15.2587 Y16.7925
 X15.3929 Y17.1591
 X15.5611 Y17.5083
 X15.7614 Y17.8380
 X15.9916 Y18.1459
 X16.2500 Y18.4301
 X16.5343 Y18.6885
 X16.8422 Y18.9188
 X17.1719 Y19.1190
 X17.5209 Y19.2872
 X17.8877 Y19.4213
 X18.2703 Y19.5197
 X18.6671 Y19.5802
 X19.0775 Y19.6009
 X19.4880 Y19.5802
 X19.8849 Y19.5197
 X20.2674 Y19.4213
 X20.6343 Y19.2871
 X20.9836 Y19.1189
 X21.3133 Y18.9187
 X21.6215 Y18.6884
 X21.9058 Y18.4300
 X22.1643 Y18.1458
 X22.3948 Y17.8377
 X22.5951 Y17.5082
 X22.7632 Y17.1591
 X22.8975 Y16.7924
 X22.9958 Y16.4099
 X23.0564 Y16.0129
 X23.0772 Y15.6026
G0 Z10.0000
 X193.9627 Y15.5974
G1 Z-1.9250
 X193.9419 Y15.1885
 X193.8802 Y14.7905
 X193.7824 Y14.4069
 X193.6489 Y14.0417
 X193.4802 Y13.6924
 X193.2802 Y13.3626
 X193.0500 Y13.0549
 X192.7912 Y12.7704
 X192.5064 Y12.5115
 X192.1995 Y12.2815
 X191.8695 Y12.0814
 X191.5200 Y11.9129
 X191.1539 Y11.7789
 X190.7706 Y11.6804
 X190.3740 Y11.6198
 X189.9640 Y11.5991
 X189.5539 Y11.6198
 X189.1563 Y11.6804
 X188.7734 Y11.7788
 X188.4083 Y11.9128
 X188.0585 Y12.0814
 X187.7280 Y12.2818
 X187.4207 Y12.5115
 X187.1373 Y12.7699
 X186.8780 Y13.0549
 X186.6478 Y13.3626
 X186.4478 Y13.6924
 X186.2791 Y14.0417
 X186.1456 Y14.4069
 X186.0478 Y14.7905
 X185.9861 Y15.1885
 X185.9653 Y15.5974
 X185.9861 Y16.0063
 X186.0479 Y16.4047
 X186.1456 Y16.7885
 X186.2791 Y17.1537
 X186.4478 Y17.5031
 X186.6479 Y17.8332
 X186.8780 Y18.1407
 X187.1373 Y18.4258
 X187.4208 Y18.6844
 X187.7280 Y18.9140
 X188.0585 Y19.1144
 X188.4084 Y19.2831
 X188.7734 Y19.4171
 X189.1562 Y19.5154
 X189.5538 Y19.5760
 X189.9640 Y19.5966
 X190.3741 Y19.5760
 X190.7707 Y19.5154
 X191.1539 Y19.4170
 X191.5200 Y19.2829
 X191.8695 Y19.1144
 X192.1995 Y18.9143
 X192.5063 Y18.6844
 X192.7912 Y18.4252
 X193.0500 Y18.1407
 X193.2801 Y17.8332
 X193.4802 Y17.5031
 X193.6489 Y17.1537
 X193.7824 Y16.7885
 X193.8801 Y16.4047
 X193.9419 Y16.0063
 X193.9627 Y15.5974
G0 Z10.0000
 X153.4986 Y13.5978
G1 Z-1.9250
 X153.4960 Y13.5471
 X153.4878 Y13.4939
 X153.4762 Y13.4478
 X153.4605 Y13.4052
 X153.4388 Y13.3601
 X153.4136 Y13.3187
 X153.3856 Y13.2810
 X153.3544 Y13.2468
 X153.3173 Y13.2133
 X153.2787 Y13.1843
 X153.2392 Y13.1604
 X153.1936 Y13.1386
 X153.1493 Y13.1223
 X153.1014 Y13.1101
 X153.0515 Y13.1024
 X152.9998 Y13.0998
 X152.9469 Y13.1025
 X152.8977 Y13.1100
 X152.8500 Y13.1223
 X152.8051 Y13.1386
 X152.7634 Y13.1588
 X152.7213 Y13.1843
 X152.6827 Y13.2133
 X152.6475 Y13.2451
 X152.6151 Y13.2810
 X152.5849 Y13.3211
 X152.5612 Y13.3601
 X152.5409 Y13.4023
 X152.5244 Y13.4478
 X152.5117 Y13.4971
 X152.5040 Y13.5471
 X152.5014 Y13.5978
 X152.5040 Y13.6485
 X152.5117 Y13.6986
 X152.5244 Y13.7479
 X152.5410 Y13.7936
 X152.5614 Y13.8360
 X152.5849 Y13.8748
 X152.6154 Y13.9153
 X152.6480 Y13.9515
 X152.6833 Y13.9834
 X152.7217 Y14.0123
 X152.7636 Y14.0377
 X152.8057 Y14.0581
 X152.8513 Y14.0747
 X152.8987 Y14.0870
 X152.9465 Y14.0943
 X152.9998 Y14.0970
 X153.0518 Y14.0944
 X153.1005 Y14.0869
 X153.1480 Y14.0747
 X153.1930 Y14.0581
 X153.2389 Y14.0361
 X153.2783 Y14.0123
 X153.3167 Y13.9834
 X153.3539 Y13.9497
 X153.3853 Y13.9152
 X153.4136 Y13.8772
 X153.4386 Y13.8360
 X153.4604 Y13.7907
 X153.4762 Y13.7478
 X153.4878 Y13.7018
 X153.4960 Y13.6485
 X153.4986 Y13.5978
G0 Z10.0000
 X57.4991
G1 Z-1.9250
 X57.4964 Y13.5455
 X57.4889 Y13.4961
 X57.4769 Y13.4494
 X57.4604 Y13.4043
 X57.4396 Y13.3612
 X57.4147 Y13.3203
 X57.3857 Y13.2816
 X57.3533 Y13.2459
 X57.3174 Y13.2134
 X57.2789 Y13.1846
 X57.2376 Y13.1596
 X57.1939 Y13.1386
 X57.1491 Y13.1222
 X57.1017 Y13.1100
 X57.0520 Y13.1025
 X56.9997 Y13.0998
 X56.9474 Y13.1025
 X56.8978 Y13.1100
 X56.8508 Y13.1221
 X56.8061 Y13.1385
 X56.7627 Y13.1594
 X56.7216 Y13.1843
 X56.6832 Y13.2130
 X56.6473 Y13.2456
 X56.6150 Y13.2812
 X56.5862 Y13.3196
 X56.5612 Y13.3609
 X56.5404 Y13.4041
 X56.5239 Y13.4490
 X56.5119 Y13.4958
 X56.5044 Y13.5452
 X56.5017 Y13.5978
 X56.5044 Y13.6504
 X56.5119 Y13.6999
 X56.5239 Y13.7466
 X56.5405 Y13.7919
 X56.5613 Y13.8352
 X56.5862 Y13.8762
 X56.6153 Y13.9150
 X56.6479 Y13.9509
 X56.6839 Y13.9837
 X56.7220 Y14.0123
 X56.7629 Y14.0371
 X56.8066 Y14.0582
 X56.8521 Y14.0749
 X56.8988 Y14.0870
 X56.9471 Y14.0944
 X56.9997 Y14.0970
 X57.0524 Y14.0944
 X57.1008 Y14.0869
 X57.1478 Y14.0748
 X57.1933 Y14.0581
 X57.2373 Y14.0369
 X57.2784 Y14.0120
 X57.3168 Y13.9833
 X57.3528 Y13.9506
 X57.3854 Y13.9146
 X57.4147 Y13.8755
 X57.4394 Y13.8349
 X57.4603 Y13.7916
 X57.4769 Y13.7463
 X57.4889 Y13.6995
 X57.4964 Y13.6501
 X57.4991 Y13.5978
G0 Z10.0000
 X23.0772 Y15.6026
G1 Z-1.9250
 X23.0564 Y15.1924
 X22.9958 Y14.7955
 X22.8975 Y14.4128
 X22.7632 Y14.0460
 X22.5950 Y13.6968
 X22.3947 Y13.3672
 X22.1642 Y13.0590
 X21.9056 Y12.7745
 X21.6213 Y12.5160
 X21.3131 Y12.2855
 X20.9833 Y12.0851
 X20.6342 Y11.9169
 X20.2673 Y11.7827
 X19.8847 Y11.6843
 X19.4879 Y11.6237
 X19.0775 Y11.6030
 X18.6672 Y11.6237
 X18.2705 Y11.6843
 X17.8878 Y11.7827
 X17.5210 Y11.9169
 X17.1721 Y12.0851
 X16.8424 Y12.2854
 X16.5345 Y12.5158
 X16.2503 Y12.7744
 X15.9917 Y13.0588
 X15.7615 Y13.3669
 X15.5612 Y13.6968
 X15.3929 Y14.0460
 X15.2588 Y14.4127
 X15.1604 Y14.7954
 X15.0999 Y15.1922
 X15.0792 Y15.6026
 X15.0999 Y16.0131
 X15.1604 Y16.4100
 X15.2587 Y16.7925
 X15.3929 Y17.1591
 X15.5611 Y17.5083
 X15.7614 Y17.8380
 X15.9916 Y18.1459
 X16.2500 Y18.4301
 X16.5343 Y18.6885
 X16.8422 Y18.9188
 X17.1719 Y19.1190
 X17.5209 Y19.2872
 X17.8877 Y19.4213
 X18.2703 Y19.5197
 X18.6671 Y19.5802
 X19.0775 Y19.6009
 X19.4880 Y19.5802
 X19.8849 Y19.5197
 X20.2674 Y19.4213
 X20.6343 Y19.2871
 X20.9836 Y19.1189
 X21.3133 Y18.9187
 X21.6215 Y18.6884
 X21.9058 Y18.4300
 X22.1643 Y18.1458
 X22.3948 Y17.8377
 X22.5951 Y17.5082
 X22.7632 Y17.1591
 X22.8975 Y16.7924
 X22.9958 Y16.4099
 X23.0564 Y16.0129
 X23.0772 Y15.6026
G0 Z10.0000
 X193.9627 Y15.5974
G1 Z-2.2000
 X193.9419 Y15.1885
 X193.8802 Y14.7905
 X193.7824 Y14.4069
 X193.6489 Y14.0417
 X193.4802 Y13.6924
 X193.2802 Y13.3626
 X193.0500 Y13.0549
 X192.7912 Y12.7704
 X192.5064 Y12.5115
 X192.1995 Y12.2815
 X191.8695 Y12.0814
 X191.5200 Y11.9129
 X191.1539 Y11.7789
 X190.7706 Y11.6804
 X190.3740 Y11.6198
 X189.9640 Y11.5991
 X189.5539 Y11.6198
 X189.1563 Y11.6804
 X188.7734 Y11.7788
 X188.4083 Y11.9128
 X188.0585 Y12.0814
 X187.7280 Y12.2818
 X187.4207 Y12.5115
 X187.1373 Y12.7699
 X186.8780 Y13.0549
 X186.6478 Y13.3626
 X186.4478 Y13.6924
 X186.2791 Y14.0417
 X186.1456 Y14.4069
 X186.0478 Y14.7905
 X185.9861 Y15.1885
 X185.9653 Y15.5974
 X185.9861 Y16.0063
 X186.0479 Y16.4047
 X186.1456 Y16.7885
 X186.2791 Y17.1537
 X186.4478 Y17.5031
 X186.6479 Y17.8332
 X186.8780 Y18.1407
 X187.1373 Y18.4258
 X187.4208 Y18.6844
 X187.7280 Y18.9140
 X188.0585 Y19.1144
 X188.4084 Y19.2831
 X188.7734 Y19.4171
 X189.1562 Y19.5154
 X189.5538 Y19.5760
 X189.9640 Y19.5966
 X190.3741 Y19.5760
 X190.7707 Y19.5154
 X191.1539 Y19.4170
 X191.5200 Y19.2829
 X191.8695 Y19.1144
 X192.1995 Y18.9143
 X192.5063 Y18.6844
 X192.7912 Y18.4252
 X193.0500 Y18.1407
 X193.2801 Y17.8332
 X193.4802 Y17.5031
 X193.6489 Y17.1537
 X193.7824 Y16.7885
 X193.8801 Y16.4047
 X193.9419 Y16.0063
 X193.9627 Y15.5974
G0 Z10.0000
 X153.4986 Y13.5978
G1 Z-2.2000
 X153.4960 Y13.5471
 X153.4878 Y13.4939
 X153.4762 Y13.4478
 X153.4605 Y13.4052
 X153.4388 Y13.3601
 X153.4136 Y13.3187
 X153.3856 Y13.2810
 X153.3544 Y13.2468
 X153.3173 Y13.2133
 X153.2787 Y13.1843
 X153.2392 Y13.1604
 X153.1936 Y13.1386
 X153.1493 Y13.1223
 X153.1014 Y13.1101
 X153.0515 Y13.1024
 X152.9998 Y13.0998
 X152.9469 Y13.1025
 X152.8977 Y13.1100
 X152.8500 Y13.1223
 X152.8051 Y13.1386
 X152.7634 Y13.1588
 X152.7213 Y13.1843
 X152.6827 Y13.2133
 X152.6475 Y13.2451
 X152.6151 Y13.2810
 X152.5849 Y13.3211
 X152.5612 Y13.3601
 X152.5409 Y13.4023
 X152.5244 Y13.4478
 X152.5117 Y13.4971
 X152.5040 Y13.5471
 X152.5014 Y13.5978
 X152.5040 Y13.6485
 X152.5117 Y13.6986
 X152.5244 Y13.7479
 X152.5410 Y13.7936
 X152.5614 Y13.8360
 X152.5849 Y13.8748
 X152.6154 Y13.9153
 X152.6480 Y13.9515
 X152.6833 Y13.9834
 X152.7217 Y14.0123
 X152.7636 Y14.0377
 X152.8057 Y14.0581
 X152.8513 Y14.0747
 X152.8987 Y14.0870
 X152.9465 Y14.0943
 X152.9998 Y14.0970
 X153.0518 Y14.0944
 X153.1005 Y14.0869
 X153.1480 Y14.0747
 X153.1930 Y14.0581
 X153.2389 Y14.0361
 X153.2783 Y14.0123
 X153.3167 Y13.9834
 X153.3539 Y13.9497
 X153.3853 Y13.9152
 X153.4136 Y13.8772
 X153.4386 Y13.8360
 X153.4604 Y13.7907
 X153.4762 Y13.7478
 X153.4878 Y13.7018
 X153.4960 Y13.6485
 X153.4986 Y13.5978
G0 Z10.0000
 X57.4991
G1 Z-2.2000
 X57.4964 Y13.5455
 X57.4889 Y13.4961
 X57.4769 Y13.4494
 X57.4604 Y13.4043
 X57.4396 Y13.3612
 X57.4147 Y13.3203
 X57.3857 Y13.2816
 X57.3533 Y13.2459
 X57.3174 Y13.2134
 X57.2789 Y13.1846
 X57.2376 Y13.1596
 X57.1939 Y13.1386
 X57.1491 Y13.1222
 X57.1017 Y13.1100
 X57.0520 Y13.1025
 X56.9997 Y13.0998
 X56.9474 Y13.1025
 X56.8978 Y13.1100
 X56.8508 Y13.1221
 X56.8061 Y13.1385
 X56.7627 Y13.1594
 X56.7216 Y13.1843
 X56.6832 Y13.2130
 X56.6473 Y13.2456
 X56.6150 Y13.2812
 X56.5862 Y13.3196
 X56.5612 Y13.3609
 X56.5404 Y13.4041
 X56.5239 Y13.4490
 X56.5119 Y13.4958
 X56.5044 Y13.5452
 X56.5017 Y13.5978
 X56.5044 Y13.6504
 X56.5119 Y13.6999
 X56.5239 Y13.7466
 X56.5405 Y13.7919
 X56.5613 Y13.8352
 X56.5862 Y13.8762
 X56.6153 Y13.9150
 X56.6479 Y13.9509
 X56.6839 Y13.9837
 X56.7220 Y14.0123
 X56.7629 Y14.0371
 X56.8066 Y14.0582
 X56.8521 Y14.0749
 X56.8988 Y14.0870
 X56.9471 Y14.0944
 X56.9997 Y14.0970
 X57.0524 Y14.0944
 X57.1008 Y14.0869
 X57.1478 Y14.0748
 X57.1933 Y14.0581
 X57.2373 Y14.0369
 X57.2784 Y14.0120
 X57.3168 Y13.9833
 X57.3528 Y13.9506
 X57.3854 Y13.9146
 X57.4147 Y13.8755
 X57.4394 Y13.8349
 X57.4603 Y13.7916
 X57.4769 Y13.7463
 X57.4889 Y13.6995
 X57.4964 Y13.6501
 X57.4991 Y13.5978
G0 Z10.0000
 X23.0772 Y15.6026
G1 Z-2.2000
 X23.0564 Y15.1924
 X22.9958 Y14.7955
 X22.8975 Y14.4128
 X22.7632 Y14.0460
 X22.5950 Y13.6968
 X22.3947 Y13.3672
 X22.1642 Y13.0590
 X21.9056 Y12.7745
 X21.6213 Y12.5160
 X21.3131 Y12.2855
 X20.9833 Y12.0851
 X20.6342 Y11.9169
 X20.2673 Y11.7827
 X19.8847 Y11.6843
 X19.4879 Y11.6237
 X19.0775 Y11.6030
 X18.6672 Y11.6237
 X18.2705 Y11.6843
 X17.8878 Y11.7827
 X17.5210 Y11.9169
 X17.1721 Y12.0851
 X16.8424 Y12.2854
 X16.5345 Y12.5158
 X16.2503 Y12.7744
 X15.9917 Y13.0588
 X15.7615 Y13.3669
 X15.5612 Y13.6968
 X15.3929 Y14.0460
 X15.2588 Y14.4127
 X15.1604 Y14.7954
 X15.0999 Y15.1922
 X15.0792 Y15.6026
 X15.0999 Y16.0131
 X15.1604 Y16.4100
 X15.2587 Y16.7925
 X15.3929 Y17.1591
 X15.5611 Y17.5083
 X15.7614 Y17.8380
 X15.9916 Y18.1459
 X16.2500 Y18.4301
 X16.5343 Y18.6885
 X16.8422 Y18.9188
 X17.1719 Y19.1190
 X17.5209 Y19.2872
 X17.8877 Y19.4213
 X18.2703 Y19.5197
 X18.6671 Y19.5802
 X19.0775 Y19.6009
 X19.4880 Y19.5802
 X19.8849 Y19.5197
 X20.2674 Y19.4213
 X20.6343 Y19.2871
 X20.9836 Y19.1189
 X21.3133 Y18.9187
 X21.6215 Y18.6884
 X21.9058 Y18.4300
 X22.1643 Y18.1458
 X22.3948 Y17.8377
 X22.5951 Y17.5082
 X22.7632 Y17.1591
 X22.8975 Y16.7924
 X22.9958 Y16.4099
 X23.0564 Y16.0129
 X23.0772 Y15.6026
G0 Z10.0000
M5 (stop spindle)
G04 P3 (wait for 3 seconds)
G0 Z10.0000
M2 (end program)
