;PYCAM-META-DATA: Filename: None
;PYCAM-META-DATA: Timestamp: 2012-02-14 11:41:33.067996
;PYCAM-META-DATA: Version: 0.5.1
;Estimated machine time: 11 minutes
G40 (disable tool radius compensation)
G49 (disable tool length compensation)
G80 (cancel modal motion)
G54 (select coordinate system 1)
G90 (disable incremental moves)
G21 (metric)
G61 (exact path mode)
F200.00000
S1000.00000
;PYCAM_TOOLPATH_SETTINGS: START
;[Bounds]
;maxz = 0.0
;maxx = 266.6264
;maxy = 31.16393414
;minx = -43.6044
;miny = -4.31
;minz = -2.1
;
;[Tool]
;torus_radius = 0.25
;speed = 1000.0
;shape = CylindricalCutter
;tool_radius = 1.0
;feedrate = 200.0
;
;[Process]
;engrave_offset = 1.0
;step_down = 0.5
;generator = EngraveCutter
;postprocessor = SimpleCutter
;milling_style = conventional
;material_allowance = 0.0
;pocketing_type = none
;path_direction = x
;
;PYCAM_TOOLPATH_SETTINGS: END
T1 M6
G0 Z2.0000
M3 (start spindle)
G04 P3 (wait for 3 seconds)
 X222.0206 Y13.5703
G1 Z-0.4200
 X222.0178 Y13.5164
 X222.0109 Y13.4698
 X221.9987 Y13.4236
 X221.9821 Y13.3779
 X221.9614 Y13.3354
 X221.9348 Y13.2915
 X221.9050 Y13.2516
 X221.8743 Y13.2176
 X221.8391 Y13.1857
 X221.8005 Y13.1567
 X221.7599 Y13.1322
 X221.7165 Y13.1113
 X221.6705 Y13.0945
 X221.6239 Y13.0824
 X221.5751 Y13.0750
 X221.5222 Y13.0723
 X221.4705 Y13.0749
 X221.4209 Y13.0825
 X221.3730 Y13.0947
 X221.3281 Y13.1113
 X221.2828 Y13.1329
 X221.2435 Y13.1567
 X221.2049 Y13.1857
 X221.1697 Y13.2176
 X221.1371 Y13.2537
 X221.1068 Y13.2939
 X221.0832 Y13.3328
 X221.0615 Y13.3779
 X221.0457 Y13.4205
 X221.0334 Y13.4697
 X221.0253 Y13.5198
 X221.0230 Y13.5703
 X221.0254 Y13.6210
 X221.0335 Y13.6712
 X221.0458 Y13.7207
 X221.0616 Y13.7634
 X221.0834 Y13.8086
 X221.1071 Y13.8479
 X221.1373 Y13.8879
 X221.1700 Y13.9242
 X221.2055 Y13.9564
 X221.2442 Y13.9855
 X221.2836 Y14.0094
 X221.3284 Y14.0308
 X221.3733 Y14.0474
 X221.4212 Y14.0596
 X221.4702 Y14.0671
 X221.5222 Y14.0697
 X221.5755 Y14.0671
 X221.6236 Y14.0597
 X221.6702 Y14.0476
 X221.7163 Y14.0308
 X221.7591 Y14.0102
 X221.7998 Y13.9855
 X221.8385 Y13.9564
 X221.8740 Y13.9242
 X221.9049 Y13.8899
 X221.9344 Y13.8502
 X221.9612 Y13.8060
 X221.9820 Y13.7634
 X221.9986 Y13.7176
 X222.0109 Y13.6711
 X222.0178 Y13.6244
 X222.0206 Y13.5703
G0 Z2.0000
 X157.5280 Y12.7642
G1 Z-0.4200
 X157.5255 Y12.7103
 X157.5183 Y12.6635
 X157.5064 Y12.6173
 X157.4884 Y12.5687
 X157.4672 Y12.5239
 X157.4465 Y12.4898
 X157.4157 Y12.4494
 X157.3815 Y12.4115
 X157.3463 Y12.3797
 X157.3077 Y12.3507
 X157.2682 Y12.3268
 X157.2226 Y12.3050
 X157.1775 Y12.2884
 X157.1311 Y12.2765
 X157.0810 Y12.2688
 X157.0288 Y12.2662
 X156.9759 Y12.2689
 X156.9267 Y12.2764
 X156.8790 Y12.2887
 X156.8341 Y12.3050
 X156.7924 Y12.3252
 X156.7503 Y12.3507
 X156.7117 Y12.3797
 X156.6765 Y12.4115
 X156.6460 Y12.4453
 X156.6146 Y12.4874
 X156.5889 Y12.5292
 X156.5699 Y12.5687
 X156.5534 Y12.6142
 X156.5416 Y12.6603
 X156.5337 Y12.7135
 X156.5307 Y12.7642
 X156.5337 Y12.8150
 X156.5416 Y12.8683
 X156.5535 Y12.9145
 X156.5700 Y12.9602
 X156.5892 Y13.0000
 X156.6148 Y13.0418
 X156.6463 Y13.0840
 X156.6770 Y13.1182
 X156.7123 Y13.1501
 X156.7512 Y13.1794
 X156.7929 Y13.2047
 X156.8341 Y13.2247
 X156.8797 Y13.2412
 X156.9274 Y13.2536
 X156.9759 Y13.2610
 X157.0288 Y13.2636
 X157.0810 Y13.2610
 X157.1304 Y13.2534
 X157.1769 Y13.2415
 X157.2226 Y13.2247
 X157.2676 Y13.2031
 X157.3068 Y13.1794
 X157.3457 Y13.1501
 X157.3810 Y13.1182
 X157.4154 Y13.0799
 X157.4463 Y13.0394
 X157.4669 Y13.0053
 X157.4883 Y12.9602
 X157.5063 Y12.9114
 X157.5183 Y12.8651
 X157.5255 Y12.8182
 X157.5280 Y12.7642
G0 Z2.0000
 X139.5280 Y24.4638
G1 Z-0.4200
 X139.5255 Y24.4098
 X139.5183 Y24.3630
 X139.5064 Y24.3168
 X139.4884 Y24.2682
 X139.4672 Y24.2234
 X139.4465 Y24.1893
 X139.4159 Y24.1491
 X139.3817 Y24.1112
 X139.3461 Y24.0791
 X139.3073 Y24.0499
 X139.2682 Y24.0262
 X139.2229 Y24.0046
 X139.1775 Y23.9879
 X139.1311 Y23.9760
 X139.0810 Y23.9683
 X139.0290 Y23.9657
 X138.9770 Y23.9683
 X138.9269 Y23.9760
 X138.8794 Y23.9882
 X138.8345 Y24.0046
 X138.7927 Y24.0247
 X138.7514 Y24.0499
 X138.7122 Y24.0791
 X138.6770 Y24.1112
 X138.6443 Y24.1471
 X138.6164 Y24.1846
 X138.5912 Y24.2260
 X138.5695 Y24.2711
 X138.5526 Y24.3168
 X138.5416 Y24.3598
 X138.5342 Y24.4097
 X138.5314 Y24.4638
 X138.5342 Y24.5181
 X138.5416 Y24.5684
 X138.5527 Y24.6117
 X138.5696 Y24.6574
 X138.5914 Y24.7026
 X138.6167 Y24.7444
 X138.6447 Y24.7821
 X138.6773 Y24.8179
 X138.7124 Y24.8500
 X138.7512 Y24.8788
 X138.7927 Y24.9042
 X138.8347 Y24.9244
 X138.8794 Y24.9407
 X138.9272 Y24.9530
 X138.9767 Y24.9606
 X139.0290 Y24.9632
 X139.0813 Y24.9606
 X139.1308 Y24.9530
 X139.1775 Y24.9410
 X139.2226 Y24.9244
 X139.2682 Y24.9026
 X139.3075 Y24.8788
 X139.3459 Y24.8500
 X139.3813 Y24.8179
 X139.4154 Y24.7801
 X139.4462 Y24.7397
 X139.4670 Y24.7053
 X139.4883 Y24.6604
 X139.5063 Y24.6117
 X139.5182 Y24.5652
 X139.5255 Y24.5181
 X139.5280 Y24.4638
G0 Z2.0000
 X70.5272 Y12.7642
G1 Z-0.4200
 X70.5246 Y12.7116
 X70.5171 Y12.6625
 X70.5050 Y12.6154
 X70.4885 Y12.5705
 X70.4677 Y12.5273
 X70.4427 Y12.4860
 X70.4139 Y12.4476
 X70.3814 Y12.4118
 X70.3457 Y12.3794
 X70.3077 Y12.3509
 X70.2662 Y12.3258
 X70.2227 Y12.3048
 X70.1781 Y12.2885
 X70.1311 Y12.2764
 X70.0815 Y12.2689
 X70.0292 Y12.2662
 X69.9768 Y12.2689
 X69.9270 Y12.2764
 X69.8799 Y12.2885
 X69.8348 Y12.3050
 X69.7912 Y12.3260
 X69.7503 Y12.3508
 X69.7115 Y12.3798
 X69.6754 Y12.4125
 X69.6431 Y12.4480
 X69.6143 Y12.4865
 X69.5893 Y12.5276
 X69.5685 Y12.5707
 X69.5520 Y12.6158
 X69.5399 Y12.6629
 X69.5324 Y12.7119
 X69.5298 Y12.7642
 X69.5324 Y12.8166
 X69.5399 Y12.8657
 X69.5521 Y12.9129
 X69.5686 Y12.9581
 X69.5896 Y13.0016
 X69.6145 Y13.0427
 X69.6434 Y13.0813
 X69.6760 Y13.1171
 X69.7121 Y13.1500
 X69.7512 Y13.1793
 X69.7917 Y13.2039
 X69.8348 Y13.2246
 X69.8805 Y13.2413
 X69.9277 Y13.2535
 X69.9768 Y13.2610
 X70.0292 Y13.2636
 X70.0815 Y13.2610
 X70.1305 Y13.2535
 X70.1775 Y13.2414
 X70.2227 Y13.2248
 X70.2656 Y13.2041
 X70.3067 Y13.1791
 X70.3451 Y13.1504
 X70.3809 Y13.1178
 X70.4136 Y13.0817
 X70.4424 Y13.0432
 X70.4675 Y13.0019
 X70.4884 Y12.9584
 X70.5050 Y12.9132
 X70.5171 Y12.8660
 X70.5246 Y12.8169
 X70.5272 Y12.7642
G0 Z2.0000
 X14.9990 Y13.5703
G1 Z-0.4200
 X14.9964 Y13.5184
 X14.9889 Y13.4694
 X14.9766 Y13.4221
 X14.9601 Y13.3770
 X14.9393 Y13.3338
 X14.9143 Y13.2927
 X14.8854 Y13.2541
 X14.8530 Y13.2185
 X14.8171 Y13.1859
 X14.7784 Y13.1570
 X14.7374 Y13.1321
 X14.6941 Y13.1112
 X14.6487 Y13.0946
 X14.6016 Y13.0825
 X14.5522 Y13.0750
 X14.4999 Y13.0723
 X14.4475 Y13.0750
 X14.3981 Y13.0825
 X14.3510 Y13.0946
 X14.3056 Y13.1112
 X14.2628 Y13.1318
 X14.2218 Y13.1567
 X14.1832 Y13.1856
 X14.1477 Y13.2179
 X14.1150 Y13.2539
 X14.0861 Y13.2925
 X14.0613 Y13.3333
 X14.0406 Y13.3764
 X14.0241 Y13.4214
 X14.0120 Y13.4685
 X14.0045 Y13.5181
 X14.0018 Y13.5703
 X14.0045 Y13.6227
 X14.0120 Y13.6725
 X14.0242 Y13.7198
 X14.0407 Y13.7649
 X14.0615 Y13.8081
 X14.0865 Y13.8493
 X14.1151 Y13.8877
 X14.1480 Y13.9238
 X14.1839 Y13.9565
 X14.2225 Y13.9855
 X14.2636 Y14.0105
 X14.3059 Y14.0309
 X14.3513 Y14.0475
 X14.3985 Y14.0597
 X14.4472 Y14.0671
 X14.4999 Y14.0697
 X14.5525 Y14.0671
 X14.6012 Y14.0597
 X14.6484 Y14.0475
 X14.6938 Y14.0309
 X14.7366 Y14.0102
 X14.7777 Y13.9852
 X14.8165 Y13.9562
 X14.8527 Y13.9233
 X14.8853 Y13.8874
 X14.9140 Y13.8491
 X14.9391 Y13.8076
 X14.9600 Y13.7643
 X14.9765 Y13.7191
 X14.9888 Y13.6715
 X14.9964 Y13.6224
 X14.9990 Y13.5703
G0 Z2.0000
 X222.0206
G1 Z-0.8400
 X222.0178 Y13.5164
 X222.0109 Y13.4698
 X221.9987 Y13.4236
 X221.9821 Y13.3779
 X221.9614 Y13.3354
 X221.9348 Y13.2915
 X221.9050 Y13.2516
 X221.8743 Y13.2176
 X221.8391 Y13.1857
 X221.8005 Y13.1567
 X221.7599 Y13.1322
 X221.7165 Y13.1113
 X221.6705 Y13.0945
 X221.6239 Y13.0824
 X221.5751 Y13.0750
 X221.5222 Y13.0723
 X221.4705 Y13.0749
 X221.4209 Y13.0825
 X221.3730 Y13.0947
 X221.3281 Y13.1113
 X221.2828 Y13.1329
 X221.2435 Y13.1567
 X221.2049 Y13.1857
 X221.1697 Y13.2176
 X221.1371 Y13.2537
 X221.1068 Y13.2939
 X221.0832 Y13.3328
 X221.0615 Y13.3779
 X221.0457 Y13.4205
 X221.0334 Y13.4697
 X221.0253 Y13.5198
 X221.0230 Y13.5703
 X221.0254 Y13.6210
 X221.0335 Y13.6712
 X221.0458 Y13.7207
 X221.0616 Y13.7634
 X221.0834 Y13.8086
 X221.1071 Y13.8479
 X221.1373 Y13.8879
 X221.1700 Y13.9242
 X221.2055 Y13.9564
 X221.2442 Y13.9855
 X221.2836 Y14.0094
 X221.3284 Y14.0308
 X221.3733 Y14.0474
 X221.4212 Y14.0596
 X221.4702 Y14.0671
 X221.5222 Y14.0697
 X221.5755 Y14.0671
 X221.6236 Y14.0597
 X221.6702 Y14.0476
 X221.7163 Y14.0308
 X221.7591 Y14.0102
 X221.7998 Y13.9855
 X221.8385 Y13.9564
 X221.8740 Y13.9242
 X221.9049 Y13.8899
 X221.9344 Y13.8502
 X221.9612 Y13.8060
 X221.9820 Y13.7634
 X221.9986 Y13.7176
 X222.0109 Y13.6711
 X222.0178 Y13.6244
 X222.0206 Y13.5703
G0 Z2.0000
 X157.5280 Y12.7642
G1 Z-0.8400
 X157.5255 Y12.7103
 X157.5183 Y12.6635
 X157.5064 Y12.6173
 X157.4884 Y12.5687
 X157.4672 Y12.5239
 X157.4465 Y12.4898
 X157.4157 Y12.4494
 X157.3815 Y12.4115
 X157.3463 Y12.3797
 X157.3077 Y12.3507
 X157.2682 Y12.3268
 X157.2226 Y12.3050
 X157.1775 Y12.2884
 X157.1311 Y12.2765
 X157.0810 Y12.2688
 X157.0288 Y12.2662
 X156.9759 Y12.2689
 X156.9267 Y12.2764
 X156.8790 Y12.2887
 X156.8341 Y12.3050
 X156.7924 Y12.3252
 X156.7503 Y12.3507
 X156.7117 Y12.3797
 X156.6765 Y12.4115
 X156.6460 Y12.4453
 X156.6146 Y12.4874
 X156.5889 Y12.5292
 X156.5699 Y12.5687
 X156.5534 Y12.6142
 X156.5416 Y12.6603
 X156.5337 Y12.7135
 X156.5307 Y12.7642
 X156.5337 Y12.8150
 X156.5416 Y12.8683
 X156.5535 Y12.9145
 X156.5700 Y12.9602
 X156.5892 Y13.0000
 X156.6148 Y13.0418
 X156.6463 Y13.0840
 X156.6770 Y13.1182
 X156.7123 Y13.1501
 X156.7512 Y13.1794
 X156.7929 Y13.2047
 X156.8341 Y13.2247
 X156.8797 Y13.2412
 X156.9274 Y13.2536
 X156.9759 Y13.2610
 X157.0288 Y13.2636
 X157.0810 Y13.2610
 X157.1304 Y13.2534
 X157.1769 Y13.2415
 X157.2226 Y13.2247
 X157.2676 Y13.2031
 X157.3068 Y13.1794
 X157.3457 Y13.1501
 X157.3810 Y13.1182
 X157.4154 Y13.0799
 X157.4463 Y13.0394
 X157.4669 Y13.0053
 X157.4883 Y12.9602
 X157.5063 Y12.9114
 X157.5183 Y12.8651
 X157.5255 Y12.8182
 X157.5280 Y12.7642
G0 Z2.0000
 X139.5280 Y24.4638
G1 Z-0.8400
 X139.5255 Y24.4098
 X139.5183 Y24.3630
 X139.5064 Y24.3168
 X139.4884 Y24.2682
 X139.4672 Y24.2234
 X139.4465 Y24.1893
 X139.4159 Y24.1491
 X139.3817 Y24.1112
 X139.3461 Y24.0791
 X139.3073 Y24.0499
 X139.2682 Y24.0262
 X139.2229 Y24.0046
 X139.1775 Y23.9879
 X139.1311 Y23.9760
 X139.0810 Y23.9683
 X139.0290 Y23.9657
 X138.9770 Y23.9683
 X138.9269 Y23.9760
 X138.8794 Y23.9882
 X138.8345 Y24.0046
 X138.7927 Y24.0247
 X138.7514 Y24.0499
 X138.7122 Y24.0791
 X138.6770 Y24.1112
 X138.6443 Y24.1471
 X138.6164 Y24.1846
 X138.5912 Y24.2260
 X138.5695 Y24.2711
 X138.5526 Y24.3168
 X138.5416 Y24.3598
 X138.5342 Y24.4097
 X138.5314 Y24.4638
 X138.5342 Y24.5181
 X138.5416 Y24.5684
 X138.5527 Y24.6117
 X138.5696 Y24.6574
 X138.5914 Y24.7026
 X138.6167 Y24.7444
 X138.6447 Y24.7821
 X138.6773 Y24.8179
 X138.7124 Y24.8500
 X138.7512 Y24.8788
 X138.7927 Y24.9042
 X138.8347 Y24.9244
 X138.8794 Y24.9407
 X138.9272 Y24.9530
 X138.9767 Y24.9606
 X139.0290 Y24.9632
 X139.0813 Y24.9606
 X139.1308 Y24.9530
 X139.1775 Y24.9410
 X139.2226 Y24.9244
 X139.2682 Y24.9026
 X139.3075 Y24.8788
 X139.3459 Y24.8500
 X139.3813 Y24.8179
 X139.4154 Y24.7801
 X139.4462 Y24.7397
 X139.4670 Y24.7053
 X139.4883 Y24.6604
 X139.5063 Y24.6117
 X139.5182 Y24.5652
 X139.5255 Y24.5181
 X139.5280 Y24.4638
G0 Z2.0000
 X70.5272 Y12.7642
G1 Z-0.8400
 X70.5246 Y12.7116
 X70.5171 Y12.6625
 X70.5050 Y12.6154
 X70.4885 Y12.5705
 X70.4677 Y12.5273
 X70.4427 Y12.4860
 X70.4139 Y12.4476
 X70.3814 Y12.4118
 X70.3457 Y12.3794
 X70.3077 Y12.3509
 X70.2662 Y12.3258
 X70.2227 Y12.3048
 X70.1781 Y12.2885
 X70.1311 Y12.2764
 X70.0815 Y12.2689
 X70.0292 Y12.2662
 X69.9768 Y12.2689
 X69.9270 Y12.2764
 X69.8799 Y12.2885
 X69.8348 Y12.3050
 X69.7912 Y12.3260
 X69.7503 Y12.3508
 X69.7115 Y12.3798
 X69.6754 Y12.4125
 X69.6431 Y12.4480
 X69.6143 Y12.4865
 X69.5893 Y12.5276
 X69.5685 Y12.5707
 X69.5520 Y12.6158
 X69.5399 Y12.6629
 X69.5324 Y12.7119
 X69.5298 Y12.7642
 X69.5324 Y12.8166
 X69.5399 Y12.8657
 X69.5521 Y12.9129
 X69.5686 Y12.9581
 X69.5896 Y13.0016
 X69.6145 Y13.0427
 X69.6434 Y13.0813
 X69.6760 Y13.1171
 X69.7121 Y13.1500
 X69.7512 Y13.1793
 X69.7917 Y13.2039
 X69.8348 Y13.2246
 X69.8805 Y13.2413
 X69.9277 Y13.2535
 X69.9768 Y13.2610
 X70.0292 Y13.2636
 X70.0815 Y13.2610
 X70.1305 Y13.2535
 X70.1775 Y13.2414
 X70.2227 Y13.2248
 X70.2656 Y13.2041
 X70.3067 Y13.1791
 X70.3451 Y13.1504
 X70.3809 Y13.1178
 X70.4136 Y13.0817
 X70.4424 Y13.0432
 X70.4675 Y13.0019
 X70.4884 Y12.9584
 X70.5050 Y12.9132
 X70.5171 Y12.8660
 X70.5246 Y12.8169
 X70.5272 Y12.7642
G0 Z2.0000
 X14.9990 Y13.5703
G1 Z-0.8400
 X14.9964 Y13.5184
 X14.9889 Y13.4694
 X14.9766 Y13.4221
 X14.9601 Y13.3770
 X14.9393 Y13.3338
 X14.9143 Y13.2927
 X14.8854 Y13.2541
 X14.8530 Y13.2185
 X14.8171 Y13.1859
 X14.7784 Y13.1570
 X14.7374 Y13.1321
 X14.6941 Y13.1112
 X14.6487 Y13.0946
 X14.6016 Y13.0825
 X14.5522 Y13.0750
 X14.4999 Y13.0723
 X14.4475 Y13.0750
 X14.3981 Y13.0825
 X14.3510 Y13.0946
 X14.3056 Y13.1112
 X14.2628 Y13.1318
 X14.2218 Y13.1567
 X14.1832 Y13.1856
 X14.1477 Y13.2179
 X14.1150 Y13.2539
 X14.0861 Y13.2925
 X14.0613 Y13.3333
 X14.0406 Y13.3764
 X14.0241 Y13.4214
 X14.0120 Y13.4685
 X14.0045 Y13.5181
 X14.0018 Y13.5703
 X14.0045 Y13.6227
 X14.0120 Y13.6725
 X14.0242 Y13.7198
 X14.0407 Y13.7649
 X14.0615 Y13.8081
 X14.0865 Y13.8493
 X14.1151 Y13.8877
 X14.1480 Y13.9238
 X14.1839 Y13.9565
 X14.2225 Y13.9855
 X14.2636 Y14.0105
 X14.3059 Y14.0309
 X14.3513 Y14.0475
 X14.3985 Y14.0597
 X14.4472 Y14.0671
 X14.4999 Y14.0697
 X14.5525 Y14.0671
 X14.6012 Y14.0597
 X14.6484 Y14.0475
 X14.6938 Y14.0309
 X14.7366 Y14.0102
 X14.7777 Y13.9852
 X14.8165 Y13.9562
 X14.8527 Y13.9233
 X14.8853 Y13.8874
 X14.9140 Y13.8491
 X14.9391 Y13.8076
 X14.9600 Y13.7643
 X14.9765 Y13.7191
 X14.9888 Y13.6715
 X14.9964 Y13.6224
 X14.9990 Y13.5703
G0 Z2.0000
 X222.0206
G1 Z-1.2600
 X222.0178 Y13.5164
 X222.0109 Y13.4698
 X221.9987 Y13.4236
 X221.9821 Y13.3779
 X221.9614 Y13.3354
 X221.9348 Y13.2915
 X221.9050 Y13.2516
 X221.8743 Y13.2176
 X221.8391 Y13.1857
 X221.8005 Y13.1567
 X221.7599 Y13.1322
 X221.7165 Y13.1113
 X221.6705 Y13.0945
 X221.6239 Y13.0824
 X221.5751 Y13.0750
 X221.5222 Y13.0723
 X221.4705 Y13.0749
 X221.4209 Y13.0825
 X221.3730 Y13.0947
 X221.3281 Y13.1113
 X221.2828 Y13.1329
 X221.2435 Y13.1567
 X221.2049 Y13.1857
 X221.1697 Y13.2176
 X221.1371 Y13.2537
 X221.1068 Y13.2939
 X221.0832 Y13.3328
 X221.0615 Y13.3779
 X221.0457 Y13.4205
 X221.0334 Y13.4697
 X221.0253 Y13.5198
 X221.0230 Y13.5703
 X221.0254 Y13.6210
 X221.0335 Y13.6712
 X221.0458 Y13.7207
 X221.0616 Y13.7634
 X221.0834 Y13.8086
 X221.1071 Y13.8479
 X221.1373 Y13.8879
 X221.1700 Y13.9242
 X221.2055 Y13.9564
 X221.2442 Y13.9855
 X221.2836 Y14.0094
 X221.3284 Y14.0308
 X221.3733 Y14.0474
 X221.4212 Y14.0596
 X221.4702 Y14.0671
 X221.5222 Y14.0697
 X221.5755 Y14.0671
 X221.6236 Y14.0597
 X221.6702 Y14.0476
 X221.7163 Y14.0308
 X221.7591 Y14.0102
 X221.7998 Y13.9855
 X221.8385 Y13.9564
 X221.8740 Y13.9242
 X221.9049 Y13.8899
 X221.9344 Y13.8502
 X221.9612 Y13.8060
 X221.9820 Y13.7634
 X221.9986 Y13.7176
 X222.0109 Y13.6711
 X222.0178 Y13.6244
 X222.0206 Y13.5703
G0 Z2.0000
 X157.5280 Y12.7642
G1 Z-1.2600
 X157.5255 Y12.7103
 X157.5183 Y12.6635
 X157.5064 Y12.6173
 X157.4884 Y12.5687
 X157.4672 Y12.5239
 X157.4465 Y12.4898
 X157.4157 Y12.4494
 X157.3815 Y12.4115
 X157.3463 Y12.3797
 X157.3077 Y12.3507
 X157.2682 Y12.3268
 X157.2226 Y12.3050
 X157.1775 Y12.2884
 X157.1311 Y12.2765
 X157.0810 Y12.2688
 X157.0288 Y12.2662
 X156.9759 Y12.2689
 X156.9267 Y12.2764
 X156.8790 Y12.2887
 X156.8341 Y12.3050
 X156.7924 Y12.3252
 X156.7503 Y12.3507
 X156.7117 Y12.3797
 X156.6765 Y12.4115
 X156.6460 Y12.4453
 X156.6146 Y12.4874
 X156.5889 Y12.5292
 X156.5699 Y12.5687
 X156.5534 Y12.6142
 X156.5416 Y12.6603
 X156.5337 Y12.7135
 X156.5307 Y12.7642
 X156.5337 Y12.8150
 X156.5416 Y12.8683
 X156.5535 Y12.9145
 X156.5700 Y12.9602
 X156.5892 Y13.0000
 X156.6148 Y13.0418
 X156.6463 Y13.0840
 X156.6770 Y13.1182
 X156.7123 Y13.1501
 X156.7512 Y13.1794
 X156.7929 Y13.2047
 X156.8341 Y13.2247
 X156.8797 Y13.2412
 X156.9274 Y13.2536
 X156.9759 Y13.2610
 X157.0288 Y13.2636
 X157.0810 Y13.2610
 X157.1304 Y13.2534
 X157.1769 Y13.2415
 X157.2226 Y13.2247
 X157.2676 Y13.2031
 X157.3068 Y13.1794
 X157.3457 Y13.1501
 X157.3810 Y13.1182
 X157.4154 Y13.0799
 X157.4463 Y13.0394
 X157.4669 Y13.0053
 X157.4883 Y12.9602
 X157.5063 Y12.9114
 X157.5183 Y12.8651
 X157.5255 Y12.8182
 X157.5280 Y12.7642
G0 Z2.0000
 X139.5280 Y24.4638
G1 Z-1.2600
 X139.5255 Y24.4098
 X139.5183 Y24.3630
 X139.5064 Y24.3168
 X139.4884 Y24.2682
 X139.4672 Y24.2234
 X139.4465 Y24.1893
 X139.4159 Y24.1491
 X139.3817 Y24.1112
 X139.3461 Y24.0791
 X139.3073 Y24.0499
 X139.2682 Y24.0262
 X139.2229 Y24.0046
 X139.1775 Y23.9879
 X139.1311 Y23.9760
 X139.0810 Y23.9683
 X139.0290 Y23.9657
 X138.9770 Y23.9683
 X138.9269 Y23.9760
 X138.8794 Y23.9882
 X138.8345 Y24.0046
 X138.7927 Y24.0247
 X138.7514 Y24.0499
 X138.7122 Y24.0791
 X138.6770 Y24.1112
 X138.6443 Y24.1471
 X138.6164 Y24.1846
 X138.5912 Y24.2260
 X138.5695 Y24.2711
 X138.5526 Y24.3168
 X138.5416 Y24.3598
 X138.5342 Y24.4097
 X138.5314 Y24.4638
 X138.5342 Y24.5181
 X138.5416 Y24.5684
 X138.5527 Y24.6117
 X138.5696 Y24.6574
 X138.5914 Y24.7026
 X138.6167 Y24.7444
 X138.6447 Y24.7821
 X138.6773 Y24.8179
 X138.7124 Y24.8500
 X138.7512 Y24.8788
 X138.7927 Y24.9042
 X138.8347 Y24.9244
 X138.8794 Y24.9407
 X138.9272 Y24.9530
 X138.9767 Y24.9606
 X139.0290 Y24.9632
 X139.0813 Y24.9606
 X139.1308 Y24.9530
 X139.1775 Y24.9410
 X139.2226 Y24.9244
 X139.2682 Y24.9026
 X139.3075 Y24.8788
 X139.3459 Y24.8500
 X139.3813 Y24.8179
 X139.4154 Y24.7801
 X139.4462 Y24.7397
 X139.4670 Y24.7053
 X139.4883 Y24.6604
 X139.5063 Y24.6117
 X139.5182 Y24.5652
 X139.5255 Y24.5181
 X139.5280 Y24.4638
G0 Z2.0000
 X70.5272 Y12.7642
G1 Z-1.2600
 X70.5246 Y12.7116
 X70.5171 Y12.6625
 X70.5050 Y12.6154
 X70.4885 Y12.5705
 X70.4677 Y12.5273
 X70.4427 Y12.4860
 X70.4139 Y12.4476
 X70.3814 Y12.4118
 X70.3457 Y12.3794
 X70.3077 Y12.3509
 X70.2662 Y12.3258
 X70.2227 Y12.3048
 X70.1781 Y12.2885
 X70.1311 Y12.2764
 X70.0815 Y12.2689
 X70.0292 Y12.2662
 X69.9768 Y12.2689
 X69.9270 Y12.2764
 X69.8799 Y12.2885
 X69.8348 Y12.3050
 X69.7912 Y12.3260
 X69.7503 Y12.3508
 X69.7115 Y12.3798
 X69.6754 Y12.4125
 X69.6431 Y12.4480
 X69.6143 Y12.4865
 X69.5893 Y12.5276
 X69.5685 Y12.5707
 X69.5520 Y12.6158
 X69.5399 Y12.6629
 X69.5324 Y12.7119
 X69.5298 Y12.7642
 X69.5324 Y12.8166
 X69.5399 Y12.8657
 X69.5521 Y12.9129
 X69.5686 Y12.9581
 X69.5896 Y13.0016
 X69.6145 Y13.0427
 X69.6434 Y13.0813
 X69.6760 Y13.1171
 X69.7121 Y13.1500
 X69.7512 Y13.1793
 X69.7917 Y13.2039
 X69.8348 Y13.2246
 X69.8805 Y13.2413
 X69.9277 Y13.2535
 X69.9768 Y13.2610
 X70.0292 Y13.2636
 X70.0815 Y13.2610
 X70.1305 Y13.2535
 X70.1775 Y13.2414
 X70.2227 Y13.2248
 X70.2656 Y13.2041
 X70.3067 Y13.1791
 X70.3451 Y13.1504
 X70.3809 Y13.1178
 X70.4136 Y13.0817
 X70.4424 Y13.0432
 X70.4675 Y13.0019
 X70.4884 Y12.9584
 X70.5050 Y12.9132
 X70.5171 Y12.8660
 X70.5246 Y12.8169
 X70.5272 Y12.7642
G0 Z2.0000
 X14.9990 Y13.5703
G1 Z-1.2600
 X14.9964 Y13.5184
 X14.9889 Y13.4694
 X14.9766 Y13.4221
 X14.9601 Y13.3770
 X14.9393 Y13.3338
 X14.9143 Y13.2927
 X14.8854 Y13.2541
 X14.8530 Y13.2185
 X14.8171 Y13.1859
 X14.7784 Y13.1570
 X14.7374 Y13.1321
 X14.6941 Y13.1112
 X14.6487 Y13.0946
 X14.6016 Y13.0825
 X14.5522 Y13.0750
 X14.4999 Y13.0723
 X14.4475 Y13.0750
 X14.3981 Y13.0825
 X14.3510 Y13.0946
 X14.3056 Y13.1112
 X14.2628 Y13.1318
 X14.2218 Y13.1567
 X14.1832 Y13.1856
 X14.1477 Y13.2179
 X14.1150 Y13.2539
 X14.0861 Y13.2925
 X14.0613 Y13.3333
 X14.0406 Y13.3764
 X14.0241 Y13.4214
 X14.0120 Y13.4685
 X14.0045 Y13.5181
 X14.0018 Y13.5703
 X14.0045 Y13.6227
 X14.0120 Y13.6725
 X14.0242 Y13.7198
 X14.0407 Y13.7649
 X14.0615 Y13.8081
 X14.0865 Y13.8493
 X14.1151 Y13.8877
 X14.1480 Y13.9238
 X14.1839 Y13.9565
 X14.2225 Y13.9855
 X14.2636 Y14.0105
 X14.3059 Y14.0309
 X14.3513 Y14.0475
 X14.3985 Y14.0597
 X14.4472 Y14.0671
 X14.4999 Y14.0697
 X14.5525 Y14.0671
 X14.6012 Y14.0597
 X14.6484 Y14.0475
 X14.6938 Y14.0309
 X14.7366 Y14.0102
 X14.7777 Y13.9852
 X14.8165 Y13.9562
 X14.8527 Y13.9233
 X14.8853 Y13.8874
 X14.9140 Y13.8491
 X14.9391 Y13.8076
 X14.9600 Y13.7643
 X14.9765 Y13.7191
 X14.9888 Y13.6715
 X14.9964 Y13.6224
 X14.9990 Y13.5703
G0 Z2.0000
 X222.0206
G1 Z-1.6800
 X222.0178 Y13.5164
 X222.0109 Y13.4698
 X221.9987 Y13.4236
 X221.9821 Y13.3779
 X221.9614 Y13.3354
 X221.9348 Y13.2915
 X221.9050 Y13.2516
 X221.8743 Y13.2176
 X221.8391 Y13.1857
 X221.8005 Y13.1567
 X221.7599 Y13.1322
 X221.7165 Y13.1113
 X221.6705 Y13.0945
 X221.6239 Y13.0824
 X221.5751 Y13.0750
 X221.5222 Y13.0723
 X221.4705 Y13.0749
 X221.4209 Y13.0825
 X221.3730 Y13.0947
 X221.3281 Y13.1113
 X221.2828 Y13.1329
 X221.2435 Y13.1567
 X221.2049 Y13.1857
 X221.1697 Y13.2176
 X221.1371 Y13.2537
 X221.1068 Y13.2939
 X221.0832 Y13.3328
 X221.0615 Y13.3779
 X221.0457 Y13.4205
 X221.0334 Y13.4697
 X221.0253 Y13.5198
 X221.0230 Y13.5703
 X221.0254 Y13.6210
 X221.0335 Y13.6712
 X221.0458 Y13.7207
 X221.0616 Y13.7634
 X221.0834 Y13.8086
 X221.1071 Y13.8479
 X221.1373 Y13.8879
 X221.1700 Y13.9242
 X221.2055 Y13.9564
 X221.2442 Y13.9855
 X221.2836 Y14.0094
 X221.3284 Y14.0308
 X221.3733 Y14.0474
 X221.4212 Y14.0596
 X221.4702 Y14.0671
 X221.5222 Y14.0697
 X221.5755 Y14.0671
 X221.6236 Y14.0597
 X221.6702 Y14.0476
 X221.7163 Y14.0308
 X221.7591 Y14.0102
 X221.7998 Y13.9855
 X221.8385 Y13.9564
 X221.8740 Y13.9242
 X221.9049 Y13.8899
 X221.9344 Y13.8502
 X221.9612 Y13.8060
 X221.9820 Y13.7634
 X221.9986 Y13.7176
 X222.0109 Y13.6711
 X222.0178 Y13.6244
 X222.0206 Y13.5703
G0 Z2.0000
 X157.5280 Y12.7642
G1 Z-1.6800
 X157.5255 Y12.7103
 X157.5183 Y12.6635
 X157.5064 Y12.6173
 X157.4884 Y12.5687
 X157.4672 Y12.5239
 X157.4465 Y12.4898
 X157.4157 Y12.4494
 X157.3815 Y12.4115
 X157.3463 Y12.3797
 X157.3077 Y12.3507
 X157.2682 Y12.3268
 X157.2226 Y12.3050
 X157.1775 Y12.2884
 X157.1311 Y12.2765
 X157.0810 Y12.2688
 X157.0288 Y12.2662
 X156.9759 Y12.2689
 X156.9267 Y12.2764
 X156.8790 Y12.2887
 X156.8341 Y12.3050
 X156.7924 Y12.3252
 X156.7503 Y12.3507
 X156.7117 Y12.3797
 X156.6765 Y12.4115
 X156.6460 Y12.4453
 X156.6146 Y12.4874
 X156.5889 Y12.5292
 X156.5699 Y12.5687
 X156.5534 Y12.6142
 X156.5416 Y12.6603
 X156.5337 Y12.7135
 X156.5307 Y12.7642
 X156.5337 Y12.8150
 X156.5416 Y12.8683
 X156.5535 Y12.9145
 X156.5700 Y12.9602
 X156.5892 Y13.0000
 X156.6148 Y13.0418
 X156.6463 Y13.0840
 X156.6770 Y13.1182
 X156.7123 Y13.1501
 X156.7512 Y13.1794
 X156.7929 Y13.2047
 X156.8341 Y13.2247
 X156.8797 Y13.2412
 X156.9274 Y13.2536
 X156.9759 Y13.2610
 X157.0288 Y13.2636
 X157.0810 Y13.2610
 X157.1304 Y13.2534
 X157.1769 Y13.2415
 X157.2226 Y13.2247
 X157.2676 Y13.2031
 X157.3068 Y13.1794
 X157.3457 Y13.1501
 X157.3810 Y13.1182
 X157.4154 Y13.0799
 X157.4463 Y13.0394
 X157.4669 Y13.0053
 X157.4883 Y12.9602
 X157.5063 Y12.9114
 X157.5183 Y12.8651
 X157.5255 Y12.8182
 X157.5280 Y12.7642
G0 Z2.0000
 X139.5280 Y24.4638
G1 Z-1.6800
 X139.5255 Y24.4098
 X139.5183 Y24.3630
 X139.5064 Y24.3168
 X139.4884 Y24.2682
 X139.4672 Y24.2234
 X139.4465 Y24.1893
 X139.4159 Y24.1491
 X139.3817 Y24.1112
 X139.3461 Y24.0791
 X139.3073 Y24.0499
 X139.2682 Y24.0262
 X139.2229 Y24.0046
 X139.1775 Y23.9879
 X139.1311 Y23.9760
 X139.0810 Y23.9683
 X139.0290 Y23.9657
 X138.9770 Y23.9683
 X138.9269 Y23.9760
 X138.8794 Y23.9882
 X138.8345 Y24.0046
 X138.7927 Y24.0247
 X138.7514 Y24.0499
 X138.7122 Y24.0791
 X138.6770 Y24.1112
 X138.6443 Y24.1471
 X138.6164 Y24.1846
 X138.5912 Y24.2260
 X138.5695 Y24.2711
 X138.5526 Y24.3168
 X138.5416 Y24.3598
 X138.5342 Y24.4097
 X138.5314 Y24.4638
 X138.5342 Y24.5181
 X138.5416 Y24.5684
 X138.5527 Y24.6117
 X138.5696 Y24.6574
 X138.5914 Y24.7026
 X138.6167 Y24.7444
 X138.6447 Y24.7821
 X138.6773 Y24.8179
 X138.7124 Y24.8500
 X138.7512 Y24.8788
 X138.7927 Y24.9042
 X138.8347 Y24.9244
 X138.8794 Y24.9407
 X138.9272 Y24.9530
 X138.9767 Y24.9606
 X139.0290 Y24.9632
 X139.0813 Y24.9606
 X139.1308 Y24.9530
 X139.1775 Y24.9410
 X139.2226 Y24.9244
 X139.2682 Y24.9026
 X139.3075 Y24.8788
 X139.3459 Y24.8500
 X139.3813 Y24.8179
 X139.4154 Y24.7801
 X139.4462 Y24.7397
 X139.4670 Y24.7053
 X139.4883 Y24.6604
 X139.5063 Y24.6117
 X139.5182 Y24.5652
 X139.5255 Y24.5181
 X139.5280 Y24.4638
G0 Z2.0000
 X70.5272 Y12.7642
G1 Z-1.6800
 X70.5246 Y12.7116
 X70.5171 Y12.6625
 X70.5050 Y12.6154
 X70.4885 Y12.5705
 X70.4677 Y12.5273
 X70.4427 Y12.4860
 X70.4139 Y12.4476
 X70.3814 Y12.4118
 X70.3457 Y12.3794
 X70.3077 Y12.3509
 X70.2662 Y12.3258
 X70.2227 Y12.3048
 X70.1781 Y12.2885
 X70.1311 Y12.2764
 X70.0815 Y12.2689
 X70.0292 Y12.2662
 X69.9768 Y12.2689
 X69.9270 Y12.2764
 X69.8799 Y12.2885
 X69.8348 Y12.3050
 X69.7912 Y12.3260
 X69.7503 Y12.3508
 X69.7115 Y12.3798
 X69.6754 Y12.4125
 X69.6431 Y12.4480
 X69.6143 Y12.4865
 X69.5893 Y12.5276
 X69.5685 Y12.5707
 X69.5520 Y12.6158
 X69.5399 Y12.6629
 X69.5324 Y12.7119
 X69.5298 Y12.7642
 X69.5324 Y12.8166
 X69.5399 Y12.8657
 X69.5521 Y12.9129
 X69.5686 Y12.9581
 X69.5896 Y13.0016
 X69.6145 Y13.0427
 X69.6434 Y13.0813
 X69.6760 Y13.1171
 X69.7121 Y13.1500
 X69.7512 Y13.1793
 X69.7917 Y13.2039
 X69.8348 Y13.2246
 X69.8805 Y13.2413
 X69.9277 Y13.2535
 X69.9768 Y13.2610
 X70.0292 Y13.2636
 X70.0815 Y13.2610
 X70.1305 Y13.2535
 X70.1775 Y13.2414
 X70.2227 Y13.2248
 X70.2656 Y13.2041
 X70.3067 Y13.1791
 X70.3451 Y13.1504
 X70.3809 Y13.1178
 X70.4136 Y13.0817
 X70.4424 Y13.0432
 X70.4675 Y13.0019
 X70.4884 Y12.9584
 X70.5050 Y12.9132
 X70.5171 Y12.8660
 X70.5246 Y12.8169
 X70.5272 Y12.7642
G0 Z2.0000
 X14.9990 Y13.5703
G1 Z-1.6800
 X14.9964 Y13.5184
 X14.9889 Y13.4694
 X14.9766 Y13.4221
 X14.9601 Y13.3770
 X14.9393 Y13.3338
 X14.9143 Y13.2927
 X14.8854 Y13.2541
 X14.8530 Y13.2185
 X14.8171 Y13.1859
 X14.7784 Y13.1570
 X14.7374 Y13.1321
 X14.6941 Y13.1112
 X14.6487 Y13.0946
 X14.6016 Y13.0825
 X14.5522 Y13.0750
 X14.4999 Y13.0723
 X14.4475 Y13.0750
 X14.3981 Y13.0825
 X14.3510 Y13.0946
 X14.3056 Y13.1112
 X14.2628 Y13.1318
 X14.2218 Y13.1567
 X14.1832 Y13.1856
 X14.1477 Y13.2179
 X14.1150 Y13.2539
 X14.0861 Y13.2925
 X14.0613 Y13.3333
 X14.0406 Y13.3764
 X14.0241 Y13.4214
 X14.0120 Y13.4685
 X14.0045 Y13.5181
 X14.0018 Y13.5703
 X14.0045 Y13.6227
 X14.0120 Y13.6725
 X14.0242 Y13.7198
 X14.0407 Y13.7649
 X14.0615 Y13.8081
 X14.0865 Y13.8493
 X14.1151 Y13.8877
 X14.1480 Y13.9238
 X14.1839 Y13.9565
 X14.2225 Y13.9855
 X14.2636 Y14.0105
 X14.3059 Y14.0309
 X14.3513 Y14.0475
 X14.3985 Y14.0597
 X14.4472 Y14.0671
 X14.4999 Y14.0697
 X14.5525 Y14.0671
 X14.6012 Y14.0597
 X14.6484 Y14.0475
 X14.6938 Y14.0309
 X14.7366 Y14.0102
 X14.7777 Y13.9852
 X14.8165 Y13.9562
 X14.8527 Y13.9233
 X14.8853 Y13.8874
 X14.9140 Y13.8491
 X14.9391 Y13.8076
 X14.9600 Y13.7643
 X14.9765 Y13.7191
 X14.9888 Y13.6715
 X14.9964 Y13.6224
 X14.9990 Y13.5703
G0 Z2.0000
 X222.0206
G1 Z-2.1000
 X222.0178 Y13.5164
 X222.0109 Y13.4698
 X221.9987 Y13.4236
 X221.9821 Y13.3779
 X221.9614 Y13.3354
 X221.9348 Y13.2915
 X221.9050 Y13.2516
 X221.8743 Y13.2176
 X221.8391 Y13.1857
 X221.8005 Y13.1567
 X221.7599 Y13.1322
 X221.7165 Y13.1113
 X221.6705 Y13.0945
 X221.6239 Y13.0824
 X221.5751 Y13.0750
 X221.5222 Y13.0723
 X221.4705 Y13.0749
 X221.4209 Y13.0825
 X221.3730 Y13.0947
 X221.3281 Y13.1113
 X221.2828 Y13.1329
 X221.2435 Y13.1567
 X221.2049 Y13.1857
 X221.1697 Y13.2176
 X221.1371 Y13.2537
 X221.1068 Y13.2939
 X221.0832 Y13.3328
 X221.0615 Y13.3779
 X221.0457 Y13.4205
 X221.0334 Y13.4697
 X221.0253 Y13.5198
 X221.0230 Y13.5703
 X221.0254 Y13.6210
 X221.0335 Y13.6712
 X221.0458 Y13.7207
 X221.0616 Y13.7634
 X221.0834 Y13.8086
 X221.1071 Y13.8479
 X221.1373 Y13.8879
 X221.1700 Y13.9242
 X221.2055 Y13.9564
 X221.2442 Y13.9855
 X221.2836 Y14.0094
 X221.3284 Y14.0308
 X221.3733 Y14.0474
 X221.4212 Y14.0596
 X221.4702 Y14.0671
 X221.5222 Y14.0697
 X221.5755 Y14.0671
 X221.6236 Y14.0597
 X221.6702 Y14.0476
 X221.7163 Y14.0308
 X221.7591 Y14.0102
 X221.7998 Y13.9855
 X221.8385 Y13.9564
 X221.8740 Y13.9242
 X221.9049 Y13.8899
 X221.9344 Y13.8502
 X221.9612 Y13.8060
 X221.9820 Y13.7634
 X221.9986 Y13.7176
 X222.0109 Y13.6711
 X222.0178 Y13.6244
 X222.0206 Y13.5703
G0 Z2.0000
 X157.5280 Y12.7642
G1 Z-2.1000
 X157.5255 Y12.7103
 X157.5183 Y12.6635
 X157.5064 Y12.6173
 X157.4884 Y12.5687
 X157.4672 Y12.5239
 X157.4465 Y12.4898
 X157.4157 Y12.4494
 X157.3815 Y12.4115
 X157.3463 Y12.3797
 X157.3077 Y12.3507
 X157.2682 Y12.3268
 X157.2226 Y12.3050
 X157.1775 Y12.2884
 X157.1311 Y12.2765
 X157.0810 Y12.2688
 X157.0288 Y12.2662
 X156.9759 Y12.2689
 X156.9267 Y12.2764
 X156.8790 Y12.2887
 X156.8341 Y12.3050
 X156.7924 Y12.3252
 X156.7503 Y12.3507
 X156.7117 Y12.3797
 X156.6765 Y12.4115
 X156.6460 Y12.4453
 X156.6146 Y12.4874
 X156.5889 Y12.5292
 X156.5699 Y12.5687
 X156.5534 Y12.6142
 X156.5416 Y12.6603
 X156.5337 Y12.7135
 X156.5307 Y12.7642
 X156.5337 Y12.8150
 X156.5416 Y12.8683
 X156.5535 Y12.9145
 X156.5700 Y12.9602
 X156.5892 Y13.0000
 X156.6148 Y13.0418
 X156.6463 Y13.0840
 X156.6770 Y13.1182
 X156.7123 Y13.1501
 X156.7512 Y13.1794
 X156.7929 Y13.2047
 X156.8341 Y13.2247
 X156.8797 Y13.2412
 X156.9274 Y13.2536
 X156.9759 Y13.2610
 X157.0288 Y13.2636
 X157.0810 Y13.2610
 X157.1304 Y13.2534
 X157.1769 Y13.2415
 X157.2226 Y13.2247
 X157.2676 Y13.2031
 X157.3068 Y13.1794
 X157.3457 Y13.1501
 X157.3810 Y13.1182
 X157.4154 Y13.0799
 X157.4463 Y13.0394
 X157.4669 Y13.0053
 X157.4883 Y12.9602
 X157.5063 Y12.9114
 X157.5183 Y12.8651
 X157.5255 Y12.8182
 X157.5280 Y12.7642
G0 Z2.0000
 X139.5280 Y24.4638
G1 Z-2.1000
 X139.5255 Y24.4098
 X139.5183 Y24.3630
 X139.5064 Y24.3168
 X139.4884 Y24.2682
 X139.4672 Y24.2234
 X139.4465 Y24.1893
 X139.4159 Y24.1491
 X139.3817 Y24.1112
 X139.3461 Y24.0791
 X139.3073 Y24.0499
 X139.2682 Y24.0262
 X139.2229 Y24.0046
 X139.1775 Y23.9879
 X139.1311 Y23.9760
 X139.0810 Y23.9683
 X139.0290 Y23.9657
 X138.9770 Y23.9683
 X138.9269 Y23.9760
 X138.8794 Y23.9882
 X138.8345 Y24.0046
 X138.7927 Y24.0247
 X138.7514 Y24.0499
 X138.7122 Y24.0791
 X138.6770 Y24.1112
 X138.6443 Y24.1471
 X138.6164 Y24.1846
 X138.5912 Y24.2260
 X138.5695 Y24.2711
 X138.5526 Y24.3168
 X138.5416 Y24.3598
 X138.5342 Y24.4097
 X138.5314 Y24.4638
 X138.5342 Y24.5181
 X138.5416 Y24.5684
 X138.5527 Y24.6117
 X138.5696 Y24.6574
 X138.5914 Y24.7026
 X138.6167 Y24.7444
 X138.6447 Y24.7821
 X138.6773 Y24.8179
 X138.7124 Y24.8500
 X138.7512 Y24.8788
 X138.7927 Y24.9042
 X138.8347 Y24.9244
 X138.8794 Y24.9407
 X138.9272 Y24.9530
 X138.9767 Y24.9606
 X139.0290 Y24.9632
 X139.0813 Y24.9606
 X139.1308 Y24.9530
 X139.1775 Y24.9410
 X139.2226 Y24.9244
 X139.2682 Y24.9026
 X139.3075 Y24.8788
 X139.3459 Y24.8500
 X139.3813 Y24.8179
 X139.4154 Y24.7801
 X139.4462 Y24.7397
 X139.4670 Y24.7053
 X139.4883 Y24.6604
 X139.5063 Y24.6117
 X139.5182 Y24.5652
 X139.5255 Y24.5181
 X139.5280 Y24.4638
G0 Z2.0000
 X70.5272 Y12.7642
G1 Z-2.1000
 X70.5246 Y12.7116
 X70.5171 Y12.6625
 X70.5050 Y12.6154
 X70.4885 Y12.5705
 X70.4677 Y12.5273
 X70.4427 Y12.4860
 X70.4139 Y12.4476
 X70.3814 Y12.4118
 X70.3457 Y12.3794
 X70.3077 Y12.3509
 X70.2662 Y12.3258
 X70.2227 Y12.3048
 X70.1781 Y12.2885
 X70.1311 Y12.2764
 X70.0815 Y12.2689
 X70.0292 Y12.2662
 X69.9768 Y12.2689
 X69.9270 Y12.2764
 X69.8799 Y12.2885
 X69.8348 Y12.3050
 X69.7912 Y12.3260
 X69.7503 Y12.3508
 X69.7115 Y12.3798
 X69.6754 Y12.4125
 X69.6431 Y12.4480
 X69.6143 Y12.4865
 X69.5893 Y12.5276
 X69.5685 Y12.5707
 X69.5520 Y12.6158
 X69.5399 Y12.6629
 X69.5324 Y12.7119
 X69.5298 Y12.7642
 X69.5324 Y12.8166
 X69.5399 Y12.8657
 X69.5521 Y12.9129
 X69.5686 Y12.9581
 X69.5896 Y13.0016
 X69.6145 Y13.0427
 X69.6434 Y13.0813
 X69.6760 Y13.1171
 X69.7121 Y13.1500
 X69.7512 Y13.1793
 X69.7917 Y13.2039
 X69.8348 Y13.2246
 X69.8805 Y13.2413
 X69.9277 Y13.2535
 X69.9768 Y13.2610
 X70.0292 Y13.2636
 X70.0815 Y13.2610
 X70.1305 Y13.2535
 X70.1775 Y13.2414
 X70.2227 Y13.2248
 X70.2656 Y13.2041
 X70.3067 Y13.1791
 X70.3451 Y13.1504
 X70.3809 Y13.1178
 X70.4136 Y13.0817
 X70.4424 Y13.0432
 X70.4675 Y13.0019
 X70.4884 Y12.9584
 X70.5050 Y12.9132
 X70.5171 Y12.8660
 X70.5246 Y12.8169
 X70.5272 Y12.7642
G0 Z2.0000
 X14.9990 Y13.5703
G1 Z-2.1000
 X14.9964 Y13.5184
 X14.9889 Y13.4694
 X14.9766 Y13.4221
 X14.9601 Y13.3770
 X14.9393 Y13.3338
 X14.9143 Y13.2927
 X14.8854 Y13.2541
 X14.8530 Y13.2185
 X14.8171 Y13.1859
 X14.7784 Y13.1570
 X14.7374 Y13.1321
 X14.6941 Y13.1112
 X14.6487 Y13.0946
 X14.6016 Y13.0825
 X14.5522 Y13.0750
 X14.4999 Y13.0723
 X14.4475 Y13.0750
 X14.3981 Y13.0825
 X14.3510 Y13.0946
 X14.3056 Y13.1112
 X14.2628 Y13.1318
 X14.2218 Y13.1567
 X14.1832 Y13.1856
 X14.1477 Y13.2179
 X14.1150 Y13.2539
 X14.0861 Y13.2925
 X14.0613 Y13.3333
 X14.0406 Y13.3764
 X14.0241 Y13.4214
 X14.0120 Y13.4685
 X14.0045 Y13.5181
 X14.0018 Y13.5703
 X14.0045 Y13.6227
 X14.0120 Y13.6725
 X14.0242 Y13.7198
 X14.0407 Y13.7649
 X14.0615 Y13.8081
 X14.0865 Y13.8493
 X14.1151 Y13.8877
 X14.1480 Y13.9238
 X14.1839 Y13.9565
 X14.2225 Y13.9855
 X14.2636 Y14.0105
 X14.3059 Y14.0309
 X14.3513 Y14.0475
 X14.3985 Y14.0597
 X14.4472 Y14.0671
 X14.4999 Y14.0697
 X14.5525 Y14.0671
 X14.6012 Y14.0597
 X14.6484 Y14.0475
 X14.6938 Y14.0309
 X14.7366 Y14.0102
 X14.7777 Y13.9852
 X14.8165 Y13.9562
 X14.8527 Y13.9233
 X14.8853 Y13.8874
 X14.9140 Y13.8491
 X14.9391 Y13.8076
 X14.9600 Y13.7643
 X14.9765 Y13.7191
 X14.9888 Y13.6715
 X14.9964 Y13.6224
 X14.9990 Y13.5703
G0 Z2.0000
M5 (stop spindle)
G04 P3 (wait for 3 seconds)
G0 Z2.0000
M2 (end program)
