;PYCAM-META-DATA: Filename: None
;PYCAM-META-DATA: Timestamp: 2012-02-02 16:03:09.268200
;PYCAM-META-DATA: Version: 0.5.1
;Estimated machine time: 10 minutes
G40 (disable tool radius compensation)
G49 (disable tool length compensation)
G80 (cancel modal motion)
G54 (select coordinate system 1)
G90 (disable incremental moves)
G21 (metric)
G61 (exact path mode)
F350.00000
S1000.00000
;PYCAM_TOOLPATH_SETTINGS: START
;[Bounds]
;maxz = 0.0
;maxx = 229.0242
;maxy = 16.3011437
;minx = -19.0022
;miny = 0.5006193
;minz = -2.2
;
;[Tool]
;torus_radius = 0.25
;speed = 1000.0
;shape = CylindricalCutter
;tool_radius = 2.0
;feedrate = 350.0
;
;[Process]
;engrave_offset = 1.0
;step_down = 0.3
;generator = EngraveCutter
;postprocessor = SimpleCutter
;milling_style = conventional
;material_allowance = 0.0
;pocketing_type = none
;path_direction = x
;
;PYCAM_TOOLPATH_SETTINGS: END
T1 M6
G0 Z10.0000
M3 (start spindle)
G04 P3 (wait for 3 seconds)
 X209.0210 Y15.1504
G1 Z-0.2750
 X209.0185 Y15.0965
 X209.0108 Y15.0464
 X209.0000 Y15.0035
 X208.9828 Y14.9579
 X208.9601 Y14.9099
 X208.9396 Y14.8761
 X208.9089 Y14.8359
 X208.8742 Y14.7973
 X208.8393 Y14.7658
 X208.8007 Y14.7369
 X208.7599 Y14.7122
 X208.7165 Y14.6913
 X208.6716 Y14.6749
 X208.6241 Y14.6627
 X208.5740 Y14.6550
 X208.5218 Y14.6524
 X208.4689 Y14.6551
 X208.4197 Y14.6626
 X208.3743 Y14.6743
 X208.3281 Y14.6913
 X208.2828 Y14.7129
 X208.2433 Y14.7369
 X208.2047 Y14.7658
 X208.1698 Y14.7973
 X208.1388 Y14.8317
 X208.1092 Y14.8714
 X208.0827 Y14.9152
 X208.0618 Y14.9579
 X208.0464 Y15.0003
 X208.0346 Y15.0464
 X208.0267 Y15.0997
 X208.0237 Y15.1505
 X208.0267 Y15.2016
 X208.0346 Y15.2550
 X208.0465 Y15.3014
 X208.0621 Y15.3443
 X208.0828 Y15.3867
 X208.1096 Y15.4309
 X208.1391 Y15.4706
 X208.1697 Y15.5045
 X208.2051 Y15.5366
 X208.2435 Y15.5654
 X208.2828 Y15.5892
 X208.3287 Y15.6112
 X208.3746 Y15.6281
 X208.4194 Y15.6397
 X208.4685 Y15.6471
 X208.5218 Y15.6498
 X208.5743 Y15.6471
 X208.6244 Y15.6395
 X208.6713 Y15.6275
 X208.7160 Y15.6112
 X208.7599 Y15.5900
 X208.8005 Y15.5654
 X208.8389 Y15.5366
 X208.8743 Y15.5045
 X208.9086 Y15.4665
 X208.9393 Y15.4262
 X208.9600 Y15.3920
 X208.9825 Y15.3444
 X208.9999 Y15.2983
 X209.0107 Y15.2550
 X209.0185 Y15.2047
 X209.0210 Y15.1504
G0 Z10.0000
 X1.9987
G1 Z-0.2750
 X1.9961 Y15.0981
 X1.9885 Y15.0484
 X1.9764 Y15.0012
 X1.9600 Y14.9566
 X1.9391 Y14.9132
 X1.9143 Y14.8722
 X1.8855 Y14.8338
 X1.8528 Y14.7977
 X1.8175 Y14.7657
 X1.7790 Y14.7369
 X1.7378 Y14.7119
 X1.6948 Y14.6912
 X1.6498 Y14.6747
 X1.6027 Y14.6626
 X1.5530 Y14.6551
 X1.5007 Y14.6524
 X1.4480 Y14.6551
 X1.3979 Y14.6627
 X1.3507 Y14.6748
 X1.3054 Y14.6913
 X1.2622 Y14.7121
 X1.2210 Y14.7371
 X1.1825 Y14.7659
 X1.1472 Y14.7979
 X1.1143 Y14.8341
 X1.0856 Y14.8725
 X1.0609 Y14.9132
 X1.0399 Y14.9566
 X1.0235 Y15.0014
 X1.0114 Y15.0486
 X1.0039 Y15.0979
 X1.0013 Y15.1504
 X1.0039 Y15.2033
 X1.0115 Y15.2528
 X1.0237 Y15.3003
 X1.0402 Y15.3456
 X1.0609 Y15.3887
 X1.0859 Y15.4299
 X1.1146 Y15.4682
 X1.1470 Y15.5039
 X1.1829 Y15.5365
 X1.2213 Y15.5652
 X1.2622 Y15.5900
 X1.3060 Y15.6111
 X1.3510 Y15.6276
 X1.3976 Y15.6395
 X1.4476 Y15.6471
 X1.5007 Y15.6498
 X1.5533 Y15.6471
 X1.6030 Y15.6396
 X1.6495 Y15.6277
 X1.6942 Y15.6113
 X1.7378 Y15.5902
 X1.7788 Y15.5654
 X1.8171 Y15.5367
 X1.8529 Y15.5041
 X1.8852 Y15.4686
 X1.9140 Y15.4301
 X1.9391 Y15.3887
 X1.9598 Y15.3457
 X1.9763 Y15.3005
 X1.9885 Y15.2530
 X1.9961 Y15.2032
 X1.9987 Y15.1504
G0 Z10.0000
 X209.0210
G1 Z-0.5500
 X209.0185 Y15.0965
 X209.0108 Y15.0464
 X209.0000 Y15.0035
 X208.9828 Y14.9579
 X208.9601 Y14.9099
 X208.9396 Y14.8761
 X208.9089 Y14.8359
 X208.8742 Y14.7973
 X208.8393 Y14.7658
 X208.8007 Y14.7369
 X208.7599 Y14.7122
 X208.7165 Y14.6913
 X208.6716 Y14.6749
 X208.6241 Y14.6627
 X208.5740 Y14.6550
 X208.5218 Y14.6524
 X208.4689 Y14.6551
 X208.4197 Y14.6626
 X208.3743 Y14.6743
 X208.3281 Y14.6913
 X208.2828 Y14.7129
 X208.2433 Y14.7369
 X208.2047 Y14.7658
 X208.1698 Y14.7973
 X208.1388 Y14.8317
 X208.1092 Y14.8714
 X208.0827 Y14.9152
 X208.0618 Y14.9579
 X208.0464 Y15.0003
 X208.0346 Y15.0464
 X208.0267 Y15.0997
 X208.0237 Y15.1505
 X208.0267 Y15.2016
 X208.0346 Y15.2550
 X208.0465 Y15.3014
 X208.0621 Y15.3443
 X208.0828 Y15.3867
 X208.1096 Y15.4309
 X208.1391 Y15.4706
 X208.1697 Y15.5045
 X208.2051 Y15.5366
 X208.2435 Y15.5654
 X208.2828 Y15.5892
 X208.3287 Y15.6112
 X208.3746 Y15.6281
 X208.4194 Y15.6397
 X208.4685 Y15.6471
 X208.5218 Y15.6498
 X208.5743 Y15.6471
 X208.6244 Y15.6395
 X208.6713 Y15.6275
 X208.7160 Y15.6112
 X208.7599 Y15.5900
 X208.8005 Y15.5654
 X208.8389 Y15.5366
 X208.8743 Y15.5045
 X208.9086 Y15.4665
 X208.9393 Y15.4262
 X208.9600 Y15.3920
 X208.9825 Y15.3444
 X208.9999 Y15.2983
 X209.0107 Y15.2550
 X209.0185 Y15.2047
 X209.0210 Y15.1504
G0 Z10.0000
 X1.9987
G1 Z-0.5500
 X1.9961 Y15.0981
 X1.9885 Y15.0484
 X1.9764 Y15.0012
 X1.9600 Y14.9566
 X1.9391 Y14.9132
 X1.9143 Y14.8722
 X1.8855 Y14.8338
 X1.8528 Y14.7977
 X1.8175 Y14.7657
 X1.7790 Y14.7369
 X1.7378 Y14.7119
 X1.6948 Y14.6912
 X1.6498 Y14.6747
 X1.6027 Y14.6626
 X1.5530 Y14.6551
 X1.5007 Y14.6524
 X1.4480 Y14.6551
 X1.3979 Y14.6627
 X1.3507 Y14.6748
 X1.3054 Y14.6913
 X1.2622 Y14.7121
 X1.2210 Y14.7371
 X1.1825 Y14.7659
 X1.1472 Y14.7979
 X1.1143 Y14.8341
 X1.0856 Y14.8725
 X1.0609 Y14.9132
 X1.0399 Y14.9566
 X1.0235 Y15.0014
 X1.0114 Y15.0486
 X1.0039 Y15.0979
 X1.0013 Y15.1504
 X1.0039 Y15.2033
 X1.0115 Y15.2528
 X1.0237 Y15.3003
 X1.0402 Y15.3456
 X1.0609 Y15.3887
 X1.0859 Y15.4299
 X1.1146 Y15.4682
 X1.1470 Y15.5039
 X1.1829 Y15.5365
 X1.2213 Y15.5652
 X1.2622 Y15.5900
 X1.3060 Y15.6111
 X1.3510 Y15.6276
 X1.3976 Y15.6395
 X1.4476 Y15.6471
 X1.5007 Y15.6498
 X1.5533 Y15.6471
 X1.6030 Y15.6396
 X1.6495 Y15.6277
 X1.6942 Y15.6113
 X1.7378 Y15.5902
 X1.7788 Y15.5654
 X1.8171 Y15.5367
 X1.8529 Y15.5041
 X1.8852 Y15.4686
 X1.9140 Y15.4301
 X1.9391 Y15.3887
 X1.9598 Y15.3457
 X1.9763 Y15.3005
 X1.9885 Y15.2530
 X1.9961 Y15.2032
 X1.9987 Y15.1504
G0 Z10.0000
 X209.0210
G1 Z-0.8250
 X209.0185 Y15.0965
 X209.0108 Y15.0464
 X209.0000 Y15.0035
 X208.9828 Y14.9579
 X208.9601 Y14.9099
 X208.9396 Y14.8761
 X208.9089 Y14.8359
 X208.8742 Y14.7973
 X208.8393 Y14.7658
 X208.8007 Y14.7369
 X208.7599 Y14.7122
 X208.7165 Y14.6913
 X208.6716 Y14.6749
 X208.6241 Y14.6627
 X208.5740 Y14.6550
 X208.5218 Y14.6524
 X208.4689 Y14.6551
 X208.4197 Y14.6626
 X208.3743 Y14.6743
 X208.3281 Y14.6913
 X208.2828 Y14.7129
 X208.2433 Y14.7369
 X208.2047 Y14.7658
 X208.1698 Y14.7973
 X208.1388 Y14.8317
 X208.1092 Y14.8714
 X208.0827 Y14.9152
 X208.0618 Y14.9579
 X208.0464 Y15.0003
 X208.0346 Y15.0464
 X208.0267 Y15.0997
 X208.0237 Y15.1505
 X208.0267 Y15.2016
 X208.0346 Y15.2550
 X208.0465 Y15.3014
 X208.0621 Y15.3443
 X208.0828 Y15.3867
 X208.1096 Y15.4309
 X208.1391 Y15.4706
 X208.1697 Y15.5045
 X208.2051 Y15.5366
 X208.2435 Y15.5654
 X208.2828 Y15.5892
 X208.3287 Y15.6112
 X208.3746 Y15.6281
 X208.4194 Y15.6397
 X208.4685 Y15.6471
 X208.5218 Y15.6498
 X208.5743 Y15.6471
 X208.6244 Y15.6395
 X208.6713 Y15.6275
 X208.7160 Y15.6112
 X208.7599 Y15.5900
 X208.8005 Y15.5654
 X208.8389 Y15.5366
 X208.8743 Y15.5045
 X208.9086 Y15.4665
 X208.9393 Y15.4262
 X208.9600 Y15.3920
 X208.9825 Y15.3444
 X208.9999 Y15.2983
 X209.0107 Y15.2550
 X209.0185 Y15.2047
 X209.0210 Y15.1504
G0 Z10.0000
 X1.9987
G1 Z-0.8250
 X1.9961 Y15.0981
 X1.9885 Y15.0484
 X1.9764 Y15.0012
 X1.9600 Y14.9566
 X1.9391 Y14.9132
 X1.9143 Y14.8722
 X1.8855 Y14.8338
 X1.8528 Y14.7977
 X1.8175 Y14.7657
 X1.7790 Y14.7369
 X1.7378 Y14.7119
 X1.6948 Y14.6912
 X1.6498 Y14.6747
 X1.6027 Y14.6626
 X1.5530 Y14.6551
 X1.5007 Y14.6524
 X1.4480 Y14.6551
 X1.3979 Y14.6627
 X1.3507 Y14.6748
 X1.3054 Y14.6913
 X1.2622 Y14.7121
 X1.2210 Y14.7371
 X1.1825 Y14.7659
 X1.1472 Y14.7979
 X1.1143 Y14.8341
 X1.0856 Y14.8725
 X1.0609 Y14.9132
 X1.0399 Y14.9566
 X1.0235 Y15.0014
 X1.0114 Y15.0486
 X1.0039 Y15.0979
 X1.0013 Y15.1504
 X1.0039 Y15.2033
 X1.0115 Y15.2528
 X1.0237 Y15.3003
 X1.0402 Y15.3456
 X1.0609 Y15.3887
 X1.0859 Y15.4299
 X1.1146 Y15.4682
 X1.1470 Y15.5039
 X1.1829 Y15.5365
 X1.2213 Y15.5652
 X1.2622 Y15.5900
 X1.3060 Y15.6111
 X1.3510 Y15.6276
 X1.3976 Y15.6395
 X1.4476 Y15.6471
 X1.5007 Y15.6498
 X1.5533 Y15.6471
 X1.6030 Y15.6396
 X1.6495 Y15.6277
 X1.6942 Y15.6113
 X1.7378 Y15.5902
 X1.7788 Y15.5654
 X1.8171 Y15.5367
 X1.8529 Y15.5041
 X1.8852 Y15.4686
 X1.9140 Y15.4301
 X1.9391 Y15.3887
 X1.9598 Y15.3457
 X1.9763 Y15.3005
 X1.9885 Y15.2530
 X1.9961 Y15.2032
 X1.9987 Y15.1504
G0 Z10.0000
 X209.0210
G1 Z-1.1000
 X209.0185 Y15.0965
 X209.0108 Y15.0464
 X209.0000 Y15.0035
 X208.9828 Y14.9579
 X208.9601 Y14.9099
 X208.9396 Y14.8761
 X208.9089 Y14.8359
 X208.8742 Y14.7973
 X208.8393 Y14.7658
 X208.8007 Y14.7369
 X208.7599 Y14.7122
 X208.7165 Y14.6913
 X208.6716 Y14.6749
 X208.6241 Y14.6627
 X208.5740 Y14.6550
 X208.5218 Y14.6524
 X208.4689 Y14.6551
 X208.4197 Y14.6626
 X208.3743 Y14.6743
 X208.3281 Y14.6913
 X208.2828 Y14.7129
 X208.2433 Y14.7369
 X208.2047 Y14.7658
 X208.1698 Y14.7973
 X208.1388 Y14.8317
 X208.1092 Y14.8714
 X208.0827 Y14.9152
 X208.0618 Y14.9579
 X208.0464 Y15.0003
 X208.0346 Y15.0464
 X208.0267 Y15.0997
 X208.0237 Y15.1505
 X208.0267 Y15.2016
 X208.0346 Y15.2550
 X208.0465 Y15.3014
 X208.0621 Y15.3443
 X208.0828 Y15.3867
 X208.1096 Y15.4309
 X208.1391 Y15.4706
 X208.1697 Y15.5045
 X208.2051 Y15.5366
 X208.2435 Y15.5654
 X208.2828 Y15.5892
 X208.3287 Y15.6112
 X208.3746 Y15.6281
 X208.4194 Y15.6397
 X208.4685 Y15.6471
 X208.5218 Y15.6498
 X208.5743 Y15.6471
 X208.6244 Y15.6395
 X208.6713 Y15.6275
 X208.7160 Y15.6112
 X208.7599 Y15.5900
 X208.8005 Y15.5654
 X208.8389 Y15.5366
 X208.8743 Y15.5045
 X208.9086 Y15.4665
 X208.9393 Y15.4262
 X208.9600 Y15.3920
 X208.9825 Y15.3444
 X208.9999 Y15.2983
 X209.0107 Y15.2550
 X209.0185 Y15.2047
 X209.0210 Y15.1504
G0 Z10.0000
 X1.9987
G1 Z-1.1000
 X1.9961 Y15.0981
 X1.9885 Y15.0484
 X1.9764 Y15.0012
 X1.9600 Y14.9566
 X1.9391 Y14.9132
 X1.9143 Y14.8722
 X1.8855 Y14.8338
 X1.8528 Y14.7977
 X1.8175 Y14.7657
 X1.7790 Y14.7369
 X1.7378 Y14.7119
 X1.6948 Y14.6912
 X1.6498 Y14.6747
 X1.6027 Y14.6626
 X1.5530 Y14.6551
 X1.5007 Y14.6524
 X1.4480 Y14.6551
 X1.3979 Y14.6627
 X1.3507 Y14.6748
 X1.3054 Y14.6913
 X1.2622 Y14.7121
 X1.2210 Y14.7371
 X1.1825 Y14.7659
 X1.1472 Y14.7979
 X1.1143 Y14.8341
 X1.0856 Y14.8725
 X1.0609 Y14.9132
 X1.0399 Y14.9566
 X1.0235 Y15.0014
 X1.0114 Y15.0486
 X1.0039 Y15.0979
 X1.0013 Y15.1504
 X1.0039 Y15.2033
 X1.0115 Y15.2528
 X1.0237 Y15.3003
 X1.0402 Y15.3456
 X1.0609 Y15.3887
 X1.0859 Y15.4299
 X1.1146 Y15.4682
 X1.1470 Y15.5039
 X1.1829 Y15.5365
 X1.2213 Y15.5652
 X1.2622 Y15.5900
 X1.3060 Y15.6111
 X1.3510 Y15.6276
 X1.3976 Y15.6395
 X1.4476 Y15.6471
 X1.5007 Y15.6498
 X1.5533 Y15.6471
 X1.6030 Y15.6396
 X1.6495 Y15.6277
 X1.6942 Y15.6113
 X1.7378 Y15.5902
 X1.7788 Y15.5654
 X1.8171 Y15.5367
 X1.8529 Y15.5041
 X1.8852 Y15.4686
 X1.9140 Y15.4301
 X1.9391 Y15.3887
 X1.9598 Y15.3457
 X1.9763 Y15.3005
 X1.9885 Y15.2530
 X1.9961 Y15.2032
 X1.9987 Y15.1504
G0 Z10.0000
 X209.0210
G1 Z-1.3750
 X209.0185 Y15.0965
 X209.0108 Y15.0464
 X209.0000 Y15.0035
 X208.9828 Y14.9579
 X208.9601 Y14.9099
 X208.9396 Y14.8761
 X208.9089 Y14.8359
 X208.8742 Y14.7973
 X208.8393 Y14.7658
 X208.8007 Y14.7369
 X208.7599 Y14.7122
 X208.7165 Y14.6913
 X208.6716 Y14.6749
 X208.6241 Y14.6627
 X208.5740 Y14.6550
 X208.5218 Y14.6524
 X208.4689 Y14.6551
 X208.4197 Y14.6626
 X208.3743 Y14.6743
 X208.3281 Y14.6913
 X208.2828 Y14.7129
 X208.2433 Y14.7369
 X208.2047 Y14.7658
 X208.1698 Y14.7973
 X208.1388 Y14.8317
 X208.1092 Y14.8714
 X208.0827 Y14.9152
 X208.0618 Y14.9579
 X208.0464 Y15.0003
 X208.0346 Y15.0464
 X208.0267 Y15.0997
 X208.0237 Y15.1505
 X208.0267 Y15.2016
 X208.0346 Y15.2550
 X208.0465 Y15.3014
 X208.0621 Y15.3443
 X208.0828 Y15.3867
 X208.1096 Y15.4309
 X208.1391 Y15.4706
 X208.1697 Y15.5045
 X208.2051 Y15.5366
 X208.2435 Y15.5654
 X208.2828 Y15.5892
 X208.3287 Y15.6112
 X208.3746 Y15.6281
 X208.4194 Y15.6397
 X208.4685 Y15.6471
 X208.5218 Y15.6498
 X208.5743 Y15.6471
 X208.6244 Y15.6395
 X208.6713 Y15.6275
 X208.7160 Y15.6112
 X208.7599 Y15.5900
 X208.8005 Y15.5654
 X208.8389 Y15.5366
 X208.8743 Y15.5045
 X208.9086 Y15.4665
 X208.9393 Y15.4262
 X208.9600 Y15.3920
 X208.9825 Y15.3444
 X208.9999 Y15.2983
 X209.0107 Y15.2550
 X209.0185 Y15.2047
 X209.0210 Y15.1504
G0 Z10.0000
 X1.9987
G1 Z-1.3750
 X1.9961 Y15.0981
 X1.9885 Y15.0484
 X1.9764 Y15.0012
 X1.9600 Y14.9566
 X1.9391 Y14.9132
 X1.9143 Y14.8722
 X1.8855 Y14.8338
 X1.8528 Y14.7977
 X1.8175 Y14.7657
 X1.7790 Y14.7369
 X1.7378 Y14.7119
 X1.6948 Y14.6912
 X1.6498 Y14.6747
 X1.6027 Y14.6626
 X1.5530 Y14.6551
 X1.5007 Y14.6524
 X1.4480 Y14.6551
 X1.3979 Y14.6627
 X1.3507 Y14.6748
 X1.3054 Y14.6913
 X1.2622 Y14.7121
 X1.2210 Y14.7371
 X1.1825 Y14.7659
 X1.1472 Y14.7979
 X1.1143 Y14.8341
 X1.0856 Y14.8725
 X1.0609 Y14.9132
 X1.0399 Y14.9566
 X1.0235 Y15.0014
 X1.0114 Y15.0486
 X1.0039 Y15.0979
 X1.0013 Y15.1504
 X1.0039 Y15.2033
 X1.0115 Y15.2528
 X1.0237 Y15.3003
 X1.0402 Y15.3456
 X1.0609 Y15.3887
 X1.0859 Y15.4299
 X1.1146 Y15.4682
 X1.1470 Y15.5039
 X1.1829 Y15.5365
 X1.2213 Y15.5652
 X1.2622 Y15.5900
 X1.3060 Y15.6111
 X1.3510 Y15.6276
 X1.3976 Y15.6395
 X1.4476 Y15.6471
 X1.5007 Y15.6498
 X1.5533 Y15.6471
 X1.6030 Y15.6396
 X1.6495 Y15.6277
 X1.6942 Y15.6113
 X1.7378 Y15.5902
 X1.7788 Y15.5654
 X1.8171 Y15.5367
 X1.8529 Y15.5041
 X1.8852 Y15.4686
 X1.9140 Y15.4301
 X1.9391 Y15.3887
 X1.9598 Y15.3457
 X1.9763 Y15.3005
 X1.9885 Y15.2530
 X1.9961 Y15.2032
 X1.9987 Y15.1504
G0 Z10.0000
 X209.0210
G1 Z-1.6500
 X209.0185 Y15.0965
 X209.0108 Y15.0464
 X209.0000 Y15.0035
 X208.9828 Y14.9579
 X208.9601 Y14.9099
 X208.9396 Y14.8761
 X208.9089 Y14.8359
 X208.8742 Y14.7973
 X208.8393 Y14.7658
 X208.8007 Y14.7369
 X208.7599 Y14.7122
 X208.7165 Y14.6913
 X208.6716 Y14.6749
 X208.6241 Y14.6627
 X208.5740 Y14.6550
 X208.5218 Y14.6524
 X208.4689 Y14.6551
 X208.4197 Y14.6626
 X208.3743 Y14.6743
 X208.3281 Y14.6913
 X208.2828 Y14.7129
 X208.2433 Y14.7369
 X208.2047 Y14.7658
 X208.1698 Y14.7973
 X208.1388 Y14.8317
 X208.1092 Y14.8714
 X208.0827 Y14.9152
 X208.0618 Y14.9579
 X208.0464 Y15.0003
 X208.0346 Y15.0464
 X208.0267 Y15.0997
 X208.0237 Y15.1505
 X208.0267 Y15.2016
 X208.0346 Y15.2550
 X208.0465 Y15.3014
 X208.0621 Y15.3443
 X208.0828 Y15.3867
 X208.1096 Y15.4309
 X208.1391 Y15.4706
 X208.1697 Y15.5045
 X208.2051 Y15.5366
 X208.2435 Y15.5654
 X208.2828 Y15.5892
 X208.3287 Y15.6112
 X208.3746 Y15.6281
 X208.4194 Y15.6397
 X208.4685 Y15.6471
 X208.5218 Y15.6498
 X208.5743 Y15.6471
 X208.6244 Y15.6395
 X208.6713 Y15.6275
 X208.7160 Y15.6112
 X208.7599 Y15.5900
 X208.8005 Y15.5654
 X208.8389 Y15.5366
 X208.8743 Y15.5045
 X208.9086 Y15.4665
 X208.9393 Y15.4262
 X208.9600 Y15.3920
 X208.9825 Y15.3444
 X208.9999 Y15.2983
 X209.0107 Y15.2550
 X209.0185 Y15.2047
 X209.0210 Y15.1504
G0 Z10.0000
 X1.9987
G1 Z-1.6500
 X1.9961 Y15.0981
 X1.9885 Y15.0484
 X1.9764 Y15.0012
 X1.9600 Y14.9566
 X1.9391 Y14.9132
 X1.9143 Y14.8722
 X1.8855 Y14.8338
 X1.8528 Y14.7977
 X1.8175 Y14.7657
 X1.7790 Y14.7369
 X1.7378 Y14.7119
 X1.6948 Y14.6912
 X1.6498 Y14.6747
 X1.6027 Y14.6626
 X1.5530 Y14.6551
 X1.5007 Y14.6524
 X1.4480 Y14.6551
 X1.3979 Y14.6627
 X1.3507 Y14.6748
 X1.3054 Y14.6913
 X1.2622 Y14.7121
 X1.2210 Y14.7371
 X1.1825 Y14.7659
 X1.1472 Y14.7979
 X1.1143 Y14.8341
 X1.0856 Y14.8725
 X1.0609 Y14.9132
 X1.0399 Y14.9566
 X1.0235 Y15.0014
 X1.0114 Y15.0486
 X1.0039 Y15.0979
 X1.0013 Y15.1504
 X1.0039 Y15.2033
 X1.0115 Y15.2528
 X1.0237 Y15.3003
 X1.0402 Y15.3456
 X1.0609 Y15.3887
 X1.0859 Y15.4299
 X1.1146 Y15.4682
 X1.1470 Y15.5039
 X1.1829 Y15.5365
 X1.2213 Y15.5652
 X1.2622 Y15.5900
 X1.3060 Y15.6111
 X1.3510 Y15.6276
 X1.3976 Y15.6395
 X1.4476 Y15.6471
 X1.5007 Y15.6498
 X1.5533 Y15.6471
 X1.6030 Y15.6396
 X1.6495 Y15.6277
 X1.6942 Y15.6113
 X1.7378 Y15.5902
 X1.7788 Y15.5654
 X1.8171 Y15.5367
 X1.8529 Y15.5041
 X1.8852 Y15.4686
 X1.9140 Y15.4301
 X1.9391 Y15.3887
 X1.9598 Y15.3457
 X1.9763 Y15.3005
 X1.9885 Y15.2530
 X1.9961 Y15.2032
 X1.9987 Y15.1504
G0 Z10.0000
 X209.0210
G1 Z-1.9250
 X209.0185 Y15.0965
 X209.0108 Y15.0464
 X209.0000 Y15.0035
 X208.9828 Y14.9579
 X208.9601 Y14.9099
 X208.9396 Y14.8761
 X208.9089 Y14.8359
 X208.8742 Y14.7973
 X208.8393 Y14.7658
 X208.8007 Y14.7369
 X208.7599 Y14.7122
 X208.7165 Y14.6913
 X208.6716 Y14.6749
 X208.6241 Y14.6627
 X208.5740 Y14.6550
 X208.5218 Y14.6524
 X208.4689 Y14.6551
 X208.4197 Y14.6626
 X208.3743 Y14.6743
 X208.3281 Y14.6913
 X208.2828 Y14.7129
 X208.2433 Y14.7369
 X208.2047 Y14.7658
 X208.1698 Y14.7973
 X208.1388 Y14.8317
 X208.1092 Y14.8714
 X208.0827 Y14.9152
 X208.0618 Y14.9579
 X208.0464 Y15.0003
 X208.0346 Y15.0464
 X208.0267 Y15.0997
 X208.0237 Y15.1505
 X208.0267 Y15.2016
 X208.0346 Y15.2550
 X208.0465 Y15.3014
 X208.0621 Y15.3443
 X208.0828 Y15.3867
 X208.1096 Y15.4309
 X208.1391 Y15.4706
 X208.1697 Y15.5045
 X208.2051 Y15.5366
 X208.2435 Y15.5654
 X208.2828 Y15.5892
 X208.3287 Y15.6112
 X208.3746 Y15.6281
 X208.4194 Y15.6397
 X208.4685 Y15.6471
 X208.5218 Y15.6498
 X208.5743 Y15.6471
 X208.6244 Y15.6395
 X208.6713 Y15.6275
 X208.7160 Y15.6112
 X208.7599 Y15.5900
 X208.8005 Y15.5654
 X208.8389 Y15.5366
 X208.8743 Y15.5045
 X208.9086 Y15.4665
 X208.9393 Y15.4262
 X208.9600 Y15.3920
 X208.9825 Y15.3444
 X208.9999 Y15.2983
 X209.0107 Y15.2550
 X209.0185 Y15.2047
 X209.0210 Y15.1504
G0 Z10.0000
 X1.9987
G1 Z-1.9250
 X1.9961 Y15.0981
 X1.9885 Y15.0484
 X1.9764 Y15.0012
 X1.9600 Y14.9566
 X1.9391 Y14.9132
 X1.9143 Y14.8722
 X1.8855 Y14.8338
 X1.8528 Y14.7977
 X1.8175 Y14.7657
 X1.7790 Y14.7369
 X1.7378 Y14.7119
 X1.6948 Y14.6912
 X1.6498 Y14.6747
 X1.6027 Y14.6626
 X1.5530 Y14.6551
 X1.5007 Y14.6524
 X1.4480 Y14.6551
 X1.3979 Y14.6627
 X1.3507 Y14.6748
 X1.3054 Y14.6913
 X1.2622 Y14.7121
 X1.2210 Y14.7371
 X1.1825 Y14.7659
 X1.1472 Y14.7979
 X1.1143 Y14.8341
 X1.0856 Y14.8725
 X1.0609 Y14.9132
 X1.0399 Y14.9566
 X1.0235 Y15.0014
 X1.0114 Y15.0486
 X1.0039 Y15.0979
 X1.0013 Y15.1504
 X1.0039 Y15.2033
 X1.0115 Y15.2528
 X1.0237 Y15.3003
 X1.0402 Y15.3456
 X1.0609 Y15.3887
 X1.0859 Y15.4299
 X1.1146 Y15.4682
 X1.1470 Y15.5039
 X1.1829 Y15.5365
 X1.2213 Y15.5652
 X1.2622 Y15.5900
 X1.3060 Y15.6111
 X1.3510 Y15.6276
 X1.3976 Y15.6395
 X1.4476 Y15.6471
 X1.5007 Y15.6498
 X1.5533 Y15.6471
 X1.6030 Y15.6396
 X1.6495 Y15.6277
 X1.6942 Y15.6113
 X1.7378 Y15.5902
 X1.7788 Y15.5654
 X1.8171 Y15.5367
 X1.8529 Y15.5041
 X1.8852 Y15.4686
 X1.9140 Y15.4301
 X1.9391 Y15.3887
 X1.9598 Y15.3457
 X1.9763 Y15.3005
 X1.9885 Y15.2530
 X1.9961 Y15.2032
 X1.9987 Y15.1504
G0 Z10.0000
 X209.0210
G1 Z-2.2000
 X209.0185 Y15.0965
 X209.0108 Y15.0464
 X209.0000 Y15.0035
 X208.9828 Y14.9579
 X208.9601 Y14.9099
 X208.9396 Y14.8761
 X208.9089 Y14.8359
 X208.8742 Y14.7973
 X208.8393 Y14.7658
 X208.8007 Y14.7369
 X208.7599 Y14.7122
 X208.7165 Y14.6913
 X208.6716 Y14.6749
 X208.6241 Y14.6627
 X208.5740 Y14.6550
 X208.5218 Y14.6524
 X208.4689 Y14.6551
 X208.4197 Y14.6626
 X208.3743 Y14.6743
 X208.3281 Y14.6913
 X208.2828 Y14.7129
 X208.2433 Y14.7369
 X208.2047 Y14.7658
 X208.1698 Y14.7973
 X208.1388 Y14.8317
 X208.1092 Y14.8714
 X208.0827 Y14.9152
 X208.0618 Y14.9579
 X208.0464 Y15.0003
 X208.0346 Y15.0464
 X208.0267 Y15.0997
 X208.0237 Y15.1505
 X208.0267 Y15.2016
 X208.0346 Y15.2550
 X208.0465 Y15.3014
 X208.0621 Y15.3443
 X208.0828 Y15.3867
 X208.1096 Y15.4309
 X208.1391 Y15.4706
 X208.1697 Y15.5045
 X208.2051 Y15.5366
 X208.2435 Y15.5654
 X208.2828 Y15.5892
 X208.3287 Y15.6112
 X208.3746 Y15.6281
 X208.4194 Y15.6397
 X208.4685 Y15.6471
 X208.5218 Y15.6498
 X208.5743 Y15.6471
 X208.6244 Y15.6395
 X208.6713 Y15.6275
 X208.7160 Y15.6112
 X208.7599 Y15.5900
 X208.8005 Y15.5654
 X208.8389 Y15.5366
 X208.8743 Y15.5045
 X208.9086 Y15.4665
 X208.9393 Y15.4262
 X208.9600 Y15.3920
 X208.9825 Y15.3444
 X208.9999 Y15.2983
 X209.0107 Y15.2550
 X209.0185 Y15.2047
 X209.0210 Y15.1504
G0 Z10.0000
 X1.9987
G1 Z-2.2000
 X1.9961 Y15.0981
 X1.9885 Y15.0484
 X1.9764 Y15.0012
 X1.9600 Y14.9566
 X1.9391 Y14.9132
 X1.9143 Y14.8722
 X1.8855 Y14.8338
 X1.8528 Y14.7977
 X1.8175 Y14.7657
 X1.7790 Y14.7369
 X1.7378 Y14.7119
 X1.6948 Y14.6912
 X1.6498 Y14.6747
 X1.6027 Y14.6626
 X1.5530 Y14.6551
 X1.5007 Y14.6524
 X1.4480 Y14.6551
 X1.3979 Y14.6627
 X1.3507 Y14.6748
 X1.3054 Y14.6913
 X1.2622 Y14.7121
 X1.2210 Y14.7371
 X1.1825 Y14.7659
 X1.1472 Y14.7979
 X1.1143 Y14.8341
 X1.0856 Y14.8725
 X1.0609 Y14.9132
 X1.0399 Y14.9566
 X1.0235 Y15.0014
 X1.0114 Y15.0486
 X1.0039 Y15.0979
 X1.0013 Y15.1504
 X1.0039 Y15.2033
 X1.0115 Y15.2528
 X1.0237 Y15.3003
 X1.0402 Y15.3456
 X1.0609 Y15.3887
 X1.0859 Y15.4299
 X1.1146 Y15.4682
 X1.1470 Y15.5039
 X1.1829 Y15.5365
 X1.2213 Y15.5652
 X1.2622 Y15.5900
 X1.3060 Y15.6111
 X1.3510 Y15.6276
 X1.3976 Y15.6395
 X1.4476 Y15.6471
 X1.5007 Y15.6498
 X1.5533 Y15.6471
 X1.6030 Y15.6396
 X1.6495 Y15.6277
 X1.6942 Y15.6113
 X1.7378 Y15.5902
 X1.7788 Y15.5654
 X1.8171 Y15.5367
 X1.8529 Y15.5041
 X1.8852 Y15.4686
 X1.9140 Y15.4301
 X1.9391 Y15.3887
 X1.9598 Y15.3457
 X1.9763 Y15.3005
 X1.9885 Y15.2530
 X1.9961 Y15.2032
 X1.9987 Y15.1504
G0 Z10.0000
M5 (stop spindle)
G04 P3 (wait for 3 seconds)
G0 Z10.0000
M2 (end program)
