;PYCAM-META-DATA: Filename: None
;PYCAM-META-DATA: Timestamp: 2012-02-14 11:46:15.354430
;PYCAM-META-DATA: Version: 0.5.1
;Estimated machine time: 3 minutes
G40 (disable tool radius compensation)
G49 (disable tool length compensation)
G80 (cancel modal motion)
G54 (select coordinate system 1)
G90 (disable incremental moves)
G21 (metric)
G61 (exact path mode)
F200.00000
S1000.00000
;PYCAM_TOOLPATH_SETTINGS: START
;[Bounds]
;maxz = 0.0
;maxx = 266.6264
;maxy = 31.16393414
;minx = -43.6044
;miny = -4.31
;minz = -2.1
;
;[Tool]
;torus_radius = 0.25
;speed = 1000.0
;shape = CylindricalCutter
;tool_radius = 1.0
;feedrate = 200.0
;
;[Process]
;engrave_offset = 1.0
;step_down = 0.5
;generator = EngraveCutter
;postprocessor = SimpleCutter
;milling_style = conventional
;material_allowance = 0.0
;pocketing_type = none
;path_direction = x
;
;PYCAM_TOOLPATH_SETTINGS: END
T1 M6
G0 Z2.0000
M3 (start spindle)
G04 P3 (wait for 3 seconds)
 X77.2289 Y22.1422
G1 Z-0.4200
 X129.3580
 Y10.0131
 X77.2289
 Y22.1422
 Z-0.8400
 X129.3580
 Y10.0131
 X77.2289
 Y22.1422
 Z-1.2600
 X129.3580
 Y10.0131
 X77.2289
 Y22.1422
 Z-1.6800
 X129.3580
 Y10.0131
 X77.2289
 Y22.1422
 Z-2.1000
 X129.3580
 Y10.0131
 X77.2289
 Y22.1422
G0 Z2.0000
M5 (stop spindle)
G04 P3 (wait for 3 seconds)
G0 Z2.0000
M2 (end program)
