;PYCAM-META-DATA: Filename: /home/matt/cad/testing/dialgaugeholder2.dxf
;PYCAM-META-DATA: Timestamp: 2012-01-03 16:31:58.687245
;PYCAM-META-DATA: Version: 0.5.1
;Estimated machine time: 1 minutes
G40 (disable tool radius compensation)
G49 (disable tool length compensation)
G80 (cancel modal motion)
G54 (select coordinate system 1)
G90 (disable incremental moves)
G21 (metric)
G61 (exact path mode)
F600.00000
S1000.00000
;PYCAM_TOOLPATH_SETTINGS: START
;[Bounds]
;maxz = 3.0
;maxx = 63.5
;maxy = 18.5
;minx = -1.5
;miny = -1.5
;minz = 0.0
;
;[Tool]
;torus_radius = 0.25
;speed = 1000.0
;shape = CylindricalCutter
;tool_radius = 1.5
;feedrate = 600.0
;
;[Process]
;engrave_offset = 0.0
;step_down = 0.7
;generator = EngraveCutter
;postprocessor = SimpleCutter
;milling_style = conventional
;material_allowance = 0.0
;pocketing_type = none
;path_direction = x
;
;PYCAM_TOOLPATH_SETTINGS: END
T1 M6
G0 Z25.0000
M3 (start spindle)
G04 P3 (wait for 3 seconds)
 X9.0000 Y-1.0000
G1 Z2.4000
 X7.2442 Y-0.8271
 X5.5558 Y-0.3149
 X3.9999 Y0.5168
 X2.6360 Y1.6360
 X1.5168 Y2.9999
 X0.6851 Y4.5558
 X0.1729 Y6.2442
 X0.0000 Y8.0000
 X0.1729 Y9.7558
 X0.6851 Y11.4442
 X1.5168 Y13.0001
 X2.6360 Y14.3640
 X3.9999 Y15.4832
 X5.5558 Y16.3149
 X7.2442 Y16.8271
 X9.0000 Y17.0000
 X50.0000
 X51.7558 Y16.8271
 X53.4442 Y16.3149
 X55.0001 Y15.4832
 X56.3640 Y14.3640
 X57.4832 Y13.0001
 X58.3149 Y11.4442
 X58.8271 Y9.7558
 X59.0000 Y8.0000
 X58.8271 Y6.2442
 X58.3149 Y4.5558
 X57.4832 Y2.9999
 X56.3640 Y1.6360
 X55.0001 Y0.5168
 X53.4442 Y-0.3149
 X51.7558 Y-0.8271
 X50.0000 Y-1.0000
 X9.0000
 Z1.8000
 X7.2442 Y-0.8271
 X5.5558 Y-0.3149
 X3.9999 Y0.5168
 X2.6360 Y1.6360
 X1.5168 Y2.9999
 X0.6851 Y4.5558
 X0.1729 Y6.2442
 X0.0000 Y8.0000
 X0.1729 Y9.7558
 X0.6851 Y11.4442
 X1.5168 Y13.0001
 X2.6360 Y14.3640
 X3.9999 Y15.4832
 X5.5558 Y16.3149
 X7.2442 Y16.8271
 X9.0000 Y17.0000
 X50.0000
 X51.7558 Y16.8271
 X53.4442 Y16.3149
 X55.0001 Y15.4832
 X56.3640 Y14.3640
 X57.4832 Y13.0001
 X58.3149 Y11.4442
 X58.8271 Y9.7558
 X59.0000 Y8.0000
 X58.8271 Y6.2442
 X58.3149 Y4.5558
 X57.4832 Y2.9999
 X56.3640 Y1.6360
 X55.0001 Y0.5168
 X53.4442 Y-0.3149
 X51.7558 Y-0.8271
 X50.0000 Y-1.0000
 X9.0000
 Z1.2000
 X7.2442 Y-0.8271
 X5.5558 Y-0.3149
 X3.9999 Y0.5168
 X2.6360 Y1.6360
 X1.5168 Y2.9999
 X0.6851 Y4.5558
 X0.1729 Y6.2442
 X0.0000 Y8.0000
 X0.1729 Y9.7558
 X0.6851 Y11.4442
 X1.5168 Y13.0001
 X2.6360 Y14.3640
 X3.9999 Y15.4832
 X5.5558 Y16.3149
 X7.2442 Y16.8271
 X9.0000 Y17.0000
 X50.0000
 X51.7558 Y16.8271
 X53.4442 Y16.3149
 X55.0001 Y15.4832
 X56.3640 Y14.3640
 X57.4832 Y13.0001
 X58.3149 Y11.4442
 X58.8271 Y9.7558
 X59.0000 Y8.0000
 X58.8271 Y6.2442
 X58.3149 Y4.5558
 X57.4832 Y2.9999
 X56.3640 Y1.6360
 X55.0001 Y0.5168
 X53.4442 Y-0.3149
 X51.7558 Y-0.8271
 X50.0000 Y-1.0000
 X9.0000
 Z0.6000
 X7.2442 Y-0.8271
 X5.5558 Y-0.3149
 X3.9999 Y0.5168
 X2.6360 Y1.6360
 X1.5168 Y2.9999
 X0.6851 Y4.5558
 X0.1729 Y6.2442
 X0.0000 Y8.0000
 X0.1729 Y9.7558
 X0.6851 Y11.4442
 X1.5168 Y13.0001
 X2.6360 Y14.3640
 X3.9999 Y15.4832
 X5.5558 Y16.3149
 X7.2442 Y16.8271
 X9.0000 Y17.0000
 X50.0000
 X51.7558 Y16.8271
 X53.4442 Y16.3149
 X55.0001 Y15.4832
 X56.3640 Y14.3640
 X57.4832 Y13.0001
 X58.3149 Y11.4442
 X58.8271 Y9.7558
 X59.0000 Y8.0000
 X58.8271 Y6.2442
 X58.3149 Y4.5558
 X57.4832 Y2.9999
 X56.3640 Y1.6360
 X55.0001 Y0.5168
 X53.4442 Y-0.3149
 X51.7558 Y-0.8271
 X50.0000 Y-1.0000
 X9.0000
 Z0.0000
 X7.2442 Y-0.8271
 X5.5558 Y-0.3149
 X3.9999 Y0.5168
 X2.6360 Y1.6360
 X1.5168 Y2.9999
 X0.6851 Y4.5558
 X0.1729 Y6.2442
 X0.0000 Y8.0000
 X0.1729 Y9.7558
 X0.6851 Y11.4442
 X1.5168 Y13.0001
 X2.6360 Y14.3640
 X3.9999 Y15.4832
 X5.5558 Y16.3149
 X7.2442 Y16.8271
 X9.0000 Y17.0000
 X50.0000
 X51.7558 Y16.8271
 X53.4442 Y16.3149
 X55.0001 Y15.4832
 X56.3640 Y14.3640
 X57.4832 Y13.0001
 X58.3149 Y11.4442
 X58.8271 Y9.7558
 X59.0000 Y8.0000
 X58.8271 Y6.2442
 X58.3149 Y4.5558
 X57.4832 Y2.9999
 X56.3640 Y1.6360
 X55.0001 Y0.5168
 X53.4442 Y-0.3149
 X51.7558 Y-0.8271
 X50.0000 Y-1.0000
 X9.0000
G0 Z25.0000
M5 (stop spindle)
G04 P3 (wait for 3 seconds)
G0 Z25.0000
M2 (end program)
