;PYCAM-META-DATA: Filename: /home/matt/cad/testing/dialgaugeholder2.dxf
;PYCAM-META-DATA: Timestamp: 2012-01-15 14:58:13.195621
;PYCAM-META-DATA: Version: 0.5.1
;Estimated machine time: 2 minutes
G40 (disable tool radius compensation)
G49 (disable tool length compensation)
G80 (cancel modal motion)
G54 (select coordinate system 1)
G90 (disable incremental moves)
G21 (metric)
G61 (exact path mode)
F400.00000
S1000.00000
;PYCAM_TOOLPATH_SETTINGS: START
;[Bounds]
;maxz = 0.0
;maxx = 84.4977045397
;maxy = 22.0
;minx = -25.4931136191
;miny = -6.0
;minz = -3.0
;
;[Tool]
;torus_radius = 0.25
;speed = 1000.0
;shape = CylindricalCutter
;tool_radius = 2.0
;feedrate = 400.0
;
;[Process]
;engrave_offset = 2.0
;step_down = 1.0
;generator = EngraveCutter
;postprocessor = SimpleCutter
;milling_style = conventional
;material_allowance = 0.0
;pocketing_type = none
;path_direction = x
;
;PYCAM_TOOLPATH_SETTINGS: END
T1 M6
G0 Z10.0000
M3 (start spindle)
G04 P3 (wait for 3 seconds)
 X50.9903 Y8.0000
G1 Z-1.0000
 X50.9713 Y7.8068
 X50.9149 Y7.6210
 X50.8234 Y7.4498
 X50.7003 Y7.2997
 X50.5502 Y7.1766
 X50.3790 Y7.0851
 X50.1932 Y7.0287
 X50.0000 Y7.0097
 X49.8068 Y7.0287
 X49.6210 Y7.0851
 X49.4498 Y7.1766
 X49.2997 Y7.2997
 X49.1766 Y7.4498
 X49.0851 Y7.6210
 X49.0287 Y7.8068
 X49.0097 Y8.0000
 X49.0287 Y8.1932
 X49.0851 Y8.3790
 X49.1766 Y8.5502
 X49.2997 Y8.7003
 X49.4498 Y8.8234
 X49.6210 Y8.9149
 X49.8068 Y8.9713
 X50.0000 Y8.9903
 X50.1932 Y8.9713
 X50.3790 Y8.9149
 X50.5502 Y8.8234
 X50.7003 Y8.7003
 X50.8234 Y8.5502
 X50.9149 Y8.3790
 X50.9713 Y8.1932
 X50.9903 Y8.0000
G0 Z10.0000
 X9.9903
G1 Z-1.0000
 X9.9713 Y7.8068
 X9.9149 Y7.6210
 X9.8234 Y7.4498
 X9.7003 Y7.2997
 X9.5502 Y7.1766
 X9.3790 Y7.0851
 X9.1932 Y7.0287
 X9.0000 Y7.0097
 X8.8068 Y7.0287
 X8.6210 Y7.0851
 X8.4498 Y7.1766
 X8.2997 Y7.2997
 X8.1766 Y7.4498
 X8.0851 Y7.6210
 X8.0287 Y7.8068
 X8.0097 Y8.0000
 X8.0287 Y8.1932
 X8.0851 Y8.3790
 X8.1766 Y8.5502
 X8.2997 Y8.7003
 X8.4498 Y8.8234
 X8.6210 Y8.9149
 X8.8068 Y8.9713
 X9.0000 Y8.9903
 X9.1932 Y8.9713
 X9.3790 Y8.9149
 X9.5502 Y8.8234
 X9.7003 Y8.7003
 X9.8234 Y8.5502
 X9.9149 Y8.3790
 X9.9713 Y8.1932
 X9.9903 Y8.0000
G0 Z10.0000
 X50.9903
G1 Z-2.0000
 X50.9713 Y7.8068
 X50.9149 Y7.6210
 X50.8234 Y7.4498
 X50.7003 Y7.2997
 X50.5502 Y7.1766
 X50.3790 Y7.0851
 X50.1932 Y7.0287
 X50.0000 Y7.0097
 X49.8068 Y7.0287
 X49.6210 Y7.0851
 X49.4498 Y7.1766
 X49.2997 Y7.2997
 X49.1766 Y7.4498
 X49.0851 Y7.6210
 X49.0287 Y7.8068
 X49.0097 Y8.0000
 X49.0287 Y8.1932
 X49.0851 Y8.3790
 X49.1766 Y8.5502
 X49.2997 Y8.7003
 X49.4498 Y8.8234
 X49.6210 Y8.9149
 X49.8068 Y8.9713
 X50.0000 Y8.9903
 X50.1932 Y8.9713
 X50.3790 Y8.9149
 X50.5502 Y8.8234
 X50.7003 Y8.7003
 X50.8234 Y8.5502
 X50.9149 Y8.3790
 X50.9713 Y8.1932
 X50.9903 Y8.0000
G0 Z10.0000
 X9.9903
G1 Z-2.0000
 X9.9713 Y7.8068
 X9.9149 Y7.6210
 X9.8234 Y7.4498
 X9.7003 Y7.2997
 X9.5502 Y7.1766
 X9.3790 Y7.0851
 X9.1932 Y7.0287
 X9.0000 Y7.0097
 X8.8068 Y7.0287
 X8.6210 Y7.0851
 X8.4498 Y7.1766
 X8.2997 Y7.2997
 X8.1766 Y7.4498
 X8.0851 Y7.6210
 X8.0287 Y7.8068
 X8.0097 Y8.0000
 X8.0287 Y8.1932
 X8.0851 Y8.3790
 X8.1766 Y8.5502
 X8.2997 Y8.7003
 X8.4498 Y8.8234
 X8.6210 Y8.9149
 X8.8068 Y8.9713
 X9.0000 Y8.9903
 X9.1932 Y8.9713
 X9.3790 Y8.9149
 X9.5502 Y8.8234
 X9.7003 Y8.7003
 X9.8234 Y8.5502
 X9.9149 Y8.3790
 X9.9713 Y8.1932
 X9.9903 Y8.0000
G0 Z10.0000
 X50.9903
G1 Z-3.0000
 X50.9713 Y7.8068
 X50.9149 Y7.6210
 X50.8234 Y7.4498
 X50.7003 Y7.2997
 X50.5502 Y7.1766
 X50.3790 Y7.0851
 X50.1932 Y7.0287
 X50.0000 Y7.0097
 X49.8068 Y7.0287
 X49.6210 Y7.0851
 X49.4498 Y7.1766
 X49.2997 Y7.2997
 X49.1766 Y7.4498
 X49.0851 Y7.6210
 X49.0287 Y7.8068
 X49.0097 Y8.0000
 X49.0287 Y8.1932
 X49.0851 Y8.3790
 X49.1766 Y8.5502
 X49.2997 Y8.7003
 X49.4498 Y8.8234
 X49.6210 Y8.9149
 X49.8068 Y8.9713
 X50.0000 Y8.9903
 X50.1932 Y8.9713
 X50.3790 Y8.9149
 X50.5502 Y8.8234
 X50.7003 Y8.7003
 X50.8234 Y8.5502
 X50.9149 Y8.3790
 X50.9713 Y8.1932
 X50.9903 Y8.0000
G0 Z10.0000
 X9.9903
G1 Z-3.0000
 X9.9713 Y7.8068
 X9.9149 Y7.6210
 X9.8234 Y7.4498
 X9.7003 Y7.2997
 X9.5502 Y7.1766
 X9.3790 Y7.0851
 X9.1932 Y7.0287
 X9.0000 Y7.0097
 X8.8068 Y7.0287
 X8.6210 Y7.0851
 X8.4498 Y7.1766
 X8.2997 Y7.2997
 X8.1766 Y7.4498
 X8.0851 Y7.6210
 X8.0287 Y7.8068
 X8.0097 Y8.0000
 X8.0287 Y8.1932
 X8.0851 Y8.3790
 X8.1766 Y8.5502
 X8.2997 Y8.7003
 X8.4498 Y8.8234
 X8.6210 Y8.9149
 X8.8068 Y8.9713
 X9.0000 Y8.9903
 X9.1932 Y8.9713
 X9.3790 Y8.9149
 X9.5502 Y8.8234
 X9.7003 Y8.7003
 X9.8234 Y8.5502
 X9.9149 Y8.3790
 X9.9713 Y8.1932
 X9.9903 Y8.0000
G0 Z10.0000
M5 (stop spindle)
G04 P3 (wait for 3 seconds)
F400.00000
S1000.00000
;PYCAM_TOOLPATH_SETTINGS: START
;[Bounds]
;maxz = 0.0
;maxx = 85.4977045397
;maxy = 24.0
;minx = -26.4977045397
;miny = -6.0
;minz = -3.0
;
;[Tool]
;torus_radius = 0.25
;speed = 1000.0
;shape = CylindricalCutter
;tool_radius = 2.0
;feedrate = 400.0
;
;[SupportGrid]
;height = 0.5
;average_distance = 50.0
;thickness = 0.5
;length = 5.0
;type = distributed_edges
;
;[Process]
;engrave_offset = 2.0
;step_down = 1.0
;generator = EngraveCutter
;postprocessor = SimpleCutter
;milling_style = conventional
;material_allowance = 0.0
;pocketing_type = none
;path_direction = x
;
;PYCAM_TOOLPATH_SETTINGS: END
G0 Z10.0000
M3 (start spindle)
G04 P3 (wait for 3 seconds)
 X50.0983 Y-2.0000
G1 Z-1.0000
 X52.1479 Y-1.7981
 X54.2132 Y-1.1716
 X56.1166 Y-0.1542
 X57.7850 Y1.2150
 X59.1542 Y2.8834
 X60.1716 Y4.7868
 X60.7981 Y6.8521
 X61.0097 Y9.0000
 X60.7981 Y11.1479
 X60.1716 Y13.2132
 X59.1542 Y15.1166
 X57.7850 Y16.7850
 X56.1166 Y18.1542
 X54.2132 Y19.1716
 X52.1479 Y19.7981
 X50.0983 Y20.0000
 X8.9017
 X6.8521 Y19.7981
 X4.7868 Y19.1716
 X2.8834 Y18.1542
 X1.2150 Y16.7850
 X-0.1542 Y15.1166
 X-1.1716 Y13.2132
 X-1.7981 Y11.1479
 X-2.0097 Y9.0000
 X-1.7981 Y6.8521
 X-1.1716 Y4.7868
 X-0.1542 Y2.8834
 X1.2150 Y1.2150
 X2.8834 Y-0.1542
 X4.7868 Y-1.1716
 X6.8521 Y-1.7981
 X8.9017 Y-2.0000
 X50.0983
 Z-2.0000
 X52.1479 Y-1.7981
 X54.2132 Y-1.1716
 X56.1166 Y-0.1542
 X57.7850 Y1.2150
 X59.1542 Y2.8834
 X60.1716 Y4.7868
 X60.7981 Y6.8521
 X61.0097 Y9.0000
 X60.7981 Y11.1479
 X60.1716 Y13.2132
 X59.1542 Y15.1166
 X57.7850 Y16.7850
 X56.1166 Y18.1542
 X54.2132 Y19.1716
 X52.1479 Y19.7981
 X50.0983 Y20.0000
 X8.9017
 X6.8521 Y19.7981
 X4.7868 Y19.1716
 X2.8834 Y18.1542
 X1.2150 Y16.7850
 X-0.1542 Y15.1166
 X-1.1716 Y13.2132
 X-1.7981 Y11.1479
 X-2.0097 Y9.0000
 X-1.7981 Y6.8521
 X-1.1716 Y4.7868
 X-0.1542 Y2.8834
 X1.2150 Y1.2150
 X2.8834 Y-0.1542
 X4.7868 Y-1.1716
 X6.8521 Y-1.7981
 X8.9017 Y-2.0000
 X50.0983
 Z-3.0000
 X50.9597 Y-1.9152
 X50.9605 Y-1.9151 Z-2.5000
 X52.1479 Y-1.7981
 X54.2132 Y-1.1716
 X55.2661 Y-0.6089
 X55.2668 Y-0.6085 Z-3.0000
 X56.1166 Y-0.1542
 X57.7850 Y1.2150
 X59.1542 Y2.8834
 X60.1716 Y4.7868
 X60.7981 Y6.8521
 X61.0097 Y9.0000
 X60.7981 Y11.1479
 X60.1716 Y13.2132
 X59.1542 Y15.1166
 X57.7850 Y16.7850
 X56.1166 Y18.1542
 X54.2132 Y19.1716
 X52.1479 Y19.7981
 X50.0983 Y20.0000
 X31.7500
 X31.7495 Z-2.5000
 X27.2509
 X27.2500 Z-3.0000
 X8.9017
 X6.8521 Y19.7981
 X4.7868 Y19.1716
 X2.8834 Y18.1542
 X1.2150 Y16.7850
 X-0.1542 Y15.1166
 X-1.1716 Y13.2132
 X-1.7981 Y11.1479
 X-2.0097 Y9.0000
 X-1.7981 Y6.8521
 X-1.1716 Y4.7868
 X-0.1542 Y2.8834
 X1.2150 Y1.2150
 X2.8834 Y-0.1542
 X3.7339 Y-0.6089
 Z-2.5000
 X4.7868 Y-1.1716
 X6.8521 Y-1.7981
 X8.0402 Y-1.9151
 Z-3.0000
 X8.9017 Y-2.0000
 X50.0983
G0 Z10.0000
M5 (stop spindle)
G04 P3 (wait for 3 seconds)
G0 Z10.0000
M2 (end program)
