;PYCAM-META-DATA: Filename: /home/matt/cad/testing/dialgaugeholder.dxf
;PYCAM-META-DATA: Timestamp: 2012-01-03 16:10:33.353153
;PYCAM-META-DATA: Version: 0.5.1
;Estimated machine time: 2 minutes
G40 (disable tool radius compensation)
G49 (disable tool length compensation)
G80 (cancel modal motion)
G54 (select coordinate system 1)
G90 (disable incremental moves)
G21 (metric)
G61 (exact path mode)
F600.00000
S1000.00000
;PYCAM_TOOLPATH_SETTINGS: START
;[Bounds]
;maxz = 3.0
;maxx = 78.5
;maxy = 43.5
;minx = 1.5
;miny = 1.5
;minz = 0.0
;
;[Tool]
;torus_radius = 0.25
;speed = 1000.0
;shape = CylindricalCutter
;tool_radius = 1.5
;feedrate = 600.0
;
;[Process]
;engrave_offset = 1.5
;step_down = 0.7
;generator = EngraveCutter
;postprocessor = SimpleCutter
;milling_style = conventional
;material_allowance = 0.0
;pocketing_type = none
;path_direction = x
;
;PYCAM_TOOLPATH_SETTINGS: END
T1 M6
G0 Z25.0000
M3 (start spindle)
G04 P3 (wait for 3 seconds)
 X51.4927 Y8.0000
G1 Z2.4000
 X51.4641 Y7.7088
 X51.3791 Y7.4288
 X51.2412 Y7.1707
 X51.0555 Y6.9445
 X50.8293 Y6.7588
 X50.5712 Y6.6209
 X50.2912 Y6.5359
 X50.0000 Y6.5073
 X49.7088 Y6.5359
 X49.4288 Y6.6209
 X49.1707 Y6.7588
 X48.9445 Y6.9445
 X48.7588 Y7.1707
 X48.6209 Y7.4288
 X48.5359 Y7.7088
 X48.5073 Y8.0000
 X48.5359 Y8.2912
 X48.6209 Y8.5712
 X48.7588 Y8.8293
 X48.9445 Y9.0555
 X49.1707 Y9.2412
 X49.4288 Y9.3791
 X49.7088 Y9.4641
 X50.0000 Y9.4927
 X50.2912 Y9.4641
 X50.5712 Y9.3791
 X50.8293 Y9.2412
 X51.0555 Y9.0555
 X51.2412 Y8.8293
 X51.3791 Y8.5712
 X51.4641 Y8.2912
 X51.4927 Y8.0000
G0 Z25.0000
 X10.4927
G1 Z2.4000
 X10.4641 Y7.7088
 X10.3791 Y7.4288
 X10.2412 Y7.1707
 X10.0555 Y6.9445
 X9.8293 Y6.7588
 X9.5712 Y6.6209
 X9.2912 Y6.5359
 X9.0000 Y6.5073
 X8.7088 Y6.5359
 X8.4288 Y6.6209
 X8.1707 Y6.7588
 X7.9445 Y6.9445
 X7.7588 Y7.1707
 X7.6209 Y7.4288
 X7.5359 Y7.7088
 X7.5073 Y8.0000
 X7.5359 Y8.2912
 X7.6209 Y8.5712
 X7.7588 Y8.8293
 X7.9445 Y9.0555
 X8.1707 Y9.2412
 X8.4288 Y9.3791
 X8.7088 Y9.4641
 X9.0000 Y9.4927
 X9.2912 Y9.4641
 X9.5712 Y9.3791
 X9.8293 Y9.2412
 X10.0555 Y9.0555
 X10.2412 Y8.8293
 X10.3791 Y8.5712
 X10.4641 Y8.2912
 X10.4927 Y8.0000
G0 Z25.0000
 X51.4927
G1 Z1.8000
 X51.4641 Y7.7088
 X51.3791 Y7.4288
 X51.2412 Y7.1707
 X51.0555 Y6.9445
 X50.8293 Y6.7588
 X50.5712 Y6.6209
 X50.2912 Y6.5359
 X50.0000 Y6.5073
 X49.7088 Y6.5359
 X49.4288 Y6.6209
 X49.1707 Y6.7588
 X48.9445 Y6.9445
 X48.7588 Y7.1707
 X48.6209 Y7.4288
 X48.5359 Y7.7088
 X48.5073 Y8.0000
 X48.5359 Y8.2912
 X48.6209 Y8.5712
 X48.7588 Y8.8293
 X48.9445 Y9.0555
 X49.1707 Y9.2412
 X49.4288 Y9.3791
 X49.7088 Y9.4641
 X50.0000 Y9.4927
 X50.2912 Y9.4641
 X50.5712 Y9.3791
 X50.8293 Y9.2412
 X51.0555 Y9.0555
 X51.2412 Y8.8293
 X51.3791 Y8.5712
 X51.4641 Y8.2912
 X51.4927 Y8.0000
G0 Z25.0000
 X10.4927
G1 Z1.8000
 X10.4641 Y7.7088
 X10.3791 Y7.4288
 X10.2412 Y7.1707
 X10.0555 Y6.9445
 X9.8293 Y6.7588
 X9.5712 Y6.6209
 X9.2912 Y6.5359
 X9.0000 Y6.5073
 X8.7088 Y6.5359
 X8.4288 Y6.6209
 X8.1707 Y6.7588
 X7.9445 Y6.9445
 X7.7588 Y7.1707
 X7.6209 Y7.4288
 X7.5359 Y7.7088
 X7.5073 Y8.0000
 X7.5359 Y8.2912
 X7.6209 Y8.5712
 X7.7588 Y8.8293
 X7.9445 Y9.0555
 X8.1707 Y9.2412
 X8.4288 Y9.3791
 X8.7088 Y9.4641
 X9.0000 Y9.4927
 X9.2912 Y9.4641
 X9.5712 Y9.3791
 X9.8293 Y9.2412
 X10.0555 Y9.0555
 X10.2412 Y8.8293
 X10.3791 Y8.5712
 X10.4641 Y8.2912
 X10.4927 Y8.0000
G0 Z25.0000
 X51.4927
G1 Z1.2000
 X51.4641 Y7.7088
 X51.3791 Y7.4288
 X51.2412 Y7.1707
 X51.0555 Y6.9445
 X50.8293 Y6.7588
 X50.5712 Y6.6209
 X50.2912 Y6.5359
 X50.0000 Y6.5073
 X49.7088 Y6.5359
 X49.4288 Y6.6209
 X49.1707 Y6.7588
 X48.9445 Y6.9445
 X48.7588 Y7.1707
 X48.6209 Y7.4288
 X48.5359 Y7.7088
 X48.5073 Y8.0000
 X48.5359 Y8.2912
 X48.6209 Y8.5712
 X48.7588 Y8.8293
 X48.9445 Y9.0555
 X49.1707 Y9.2412
 X49.4288 Y9.3791
 X49.7088 Y9.4641
 X50.0000 Y9.4927
 X50.2912 Y9.4641
 X50.5712 Y9.3791
 X50.8293 Y9.2412
 X51.0555 Y9.0555
 X51.2412 Y8.8293
 X51.3791 Y8.5712
 X51.4641 Y8.2912
 X51.4927 Y8.0000
G0 Z25.0000
 X10.4927
G1 Z1.2000
 X10.4641 Y7.7088
 X10.3791 Y7.4288
 X10.2412 Y7.1707
 X10.0555 Y6.9445
 X9.8293 Y6.7588
 X9.5712 Y6.6209
 X9.2912 Y6.5359
 X9.0000 Y6.5073
 X8.7088 Y6.5359
 X8.4288 Y6.6209
 X8.1707 Y6.7588
 X7.9445 Y6.9445
 X7.7588 Y7.1707
 X7.6209 Y7.4288
 X7.5359 Y7.7088
 X7.5073 Y8.0000
 X7.5359 Y8.2912
 X7.6209 Y8.5712
 X7.7588 Y8.8293
 X7.9445 Y9.0555
 X8.1707 Y9.2412
 X8.4288 Y9.3791
 X8.7088 Y9.4641
 X9.0000 Y9.4927
 X9.2912 Y9.4641
 X9.5712 Y9.3791
 X9.8293 Y9.2412
 X10.0555 Y9.0555
 X10.2412 Y8.8293
 X10.3791 Y8.5712
 X10.4641 Y8.2912
 X10.4927 Y8.0000
G0 Z25.0000
 X51.4927
G1 Z0.6000
 X51.4641 Y7.7088
 X51.3791 Y7.4288
 X51.2412 Y7.1707
 X51.0555 Y6.9445
 X50.8293 Y6.7588
 X50.5712 Y6.6209
 X50.2912 Y6.5359
 X50.0000 Y6.5073
 X49.7088 Y6.5359
 X49.4288 Y6.6209
 X49.1707 Y6.7588
 X48.9445 Y6.9445
 X48.7588 Y7.1707
 X48.6209 Y7.4288
 X48.5359 Y7.7088
 X48.5073 Y8.0000
 X48.5359 Y8.2912
 X48.6209 Y8.5712
 X48.7588 Y8.8293
 X48.9445 Y9.0555
 X49.1707 Y9.2412
 X49.4288 Y9.3791
 X49.7088 Y9.4641
 X50.0000 Y9.4927
 X50.2912 Y9.4641
 X50.5712 Y9.3791
 X50.8293 Y9.2412
 X51.0555 Y9.0555
 X51.2412 Y8.8293
 X51.3791 Y8.5712
 X51.4641 Y8.2912
 X51.4927 Y8.0000
G0 Z25.0000
 X10.4927
G1 Z0.6000
 X10.4641 Y7.7088
 X10.3791 Y7.4288
 X10.2412 Y7.1707
 X10.0555 Y6.9445
 X9.8293 Y6.7588
 X9.5712 Y6.6209
 X9.2912 Y6.5359
 X9.0000 Y6.5073
 X8.7088 Y6.5359
 X8.4288 Y6.6209
 X8.1707 Y6.7588
 X7.9445 Y6.9445
 X7.7588 Y7.1707
 X7.6209 Y7.4288
 X7.5359 Y7.7088
 X7.5073 Y8.0000
 X7.5359 Y8.2912
 X7.6209 Y8.5712
 X7.7588 Y8.8293
 X7.9445 Y9.0555
 X8.1707 Y9.2412
 X8.4288 Y9.3791
 X8.7088 Y9.4641
 X9.0000 Y9.4927
 X9.2912 Y9.4641
 X9.5712 Y9.3791
 X9.8293 Y9.2412
 X10.0555 Y9.0555
 X10.2412 Y8.8293
 X10.3791 Y8.5712
 X10.4641 Y8.2912
 X10.4927 Y8.0000
G0 Z25.0000
 X51.4927
G1 Z0.0000
 X51.4641 Y7.7088
 X51.3791 Y7.4288
 X51.2412 Y7.1707
 X51.0555 Y6.9445
 X50.8293 Y6.7588
 X50.5712 Y6.6209
 X50.2912 Y6.5359
 X50.0000 Y6.5073
 X49.7088 Y6.5359
 X49.4288 Y6.6209
 X49.1707 Y6.7588
 X48.9445 Y6.9445
 X48.7588 Y7.1707
 X48.6209 Y7.4288
 X48.5359 Y7.7088
 X48.5073 Y8.0000
 X48.5359 Y8.2912
 X48.6209 Y8.5712
 X48.7588 Y8.8293
 X48.9445 Y9.0555
 X49.1707 Y9.2412
 X49.4288 Y9.3791
 X49.7088 Y9.4641
 X50.0000 Y9.4927
 X50.2912 Y9.4641
 X50.5712 Y9.3791
 X50.8293 Y9.2412
 X51.0555 Y9.0555
 X51.2412 Y8.8293
 X51.3791 Y8.5712
 X51.4641 Y8.2912
 X51.4927 Y8.0000
G0 Z25.0000
 X10.4927
G1 Z0.0000
 X10.4641 Y7.7088
 X10.3791 Y7.4288
 X10.2412 Y7.1707
 X10.0555 Y6.9445
 X9.8293 Y6.7588
 X9.5712 Y6.6209
 X9.2912 Y6.5359
 X9.0000 Y6.5073
 X8.7088 Y6.5359
 X8.4288 Y6.6209
 X8.1707 Y6.7588
 X7.9445 Y6.9445
 X7.7588 Y7.1707
 X7.6209 Y7.4288
 X7.5359 Y7.7088
 X7.5073 Y8.0000
 X7.5359 Y8.2912
 X7.6209 Y8.5712
 X7.7588 Y8.8293
 X7.9445 Y9.0555
 X8.1707 Y9.2412
 X8.4288 Y9.3791
 X8.7088 Y9.4641
 X9.0000 Y9.4927
 X9.2912 Y9.4641
 X9.5712 Y9.3791
 X9.8293 Y9.2412
 X10.0555 Y9.0555
 X10.2412 Y8.8293
 X10.3791 Y8.5712
 X10.4641 Y8.2912
 X10.4927 Y8.0000
G0 Z25.0000
M5 (stop spindle)
G04 P3 (wait for 3 seconds)
G0 Z25.0000
M2 (end program)
