(Generated with: dxf2gcode_b02, Version: TKINTER Beta 02, Date: 2010-05-04)
(Time: Tue Dec  6 17:52:47 2011)
(Created from file: /home/matt/cad/testing/nojunk.dxf)
G21 (Unit in mm)
G90 (Absolute distance mode)
G64 P0.01 (Exact Path 0.001 tol.)
G17
G40 (Cancel diameter comp.)
G49 (Cancel length comp.)
T1M6 (Tool change to T1)
M8 (Coolant flood on)
S5000M03 (Spindle 5000rpm cw)
G0 Z  15.000 
G0 X  84.000 Y  26.000
G0 Z   3.000 
F150
G1 Z  -0.400
F800
G1 X  85.333 Y  26.000
G3 X  89.333 Y  30.000 I   0.000 J   4.000
G1 X  89.333 Y  50.000
G1 Z   3.000
G0 Z  15.000 
G0 X  89.333 Y  56.667
G0 Z   3.000 
F150
G1 Z  -0.400
F800
G1 X  89.333 Y  58.000
G1 Z   3.000
G0 Z  15.000 
G0 X  97.333 Y  50.000
G0 Z   3.000 
F150
G1 Z  -0.400
F800
G1 X  97.333 Y  38.000
G3 X 101.333 Y  34.000 I   4.000 J   0.000
G1 X 108.000 Y  34.000
G1 X 108.000 Y  50.000
G1 Z   3.000
G0 Z  15.000 
G0 X 116.000 Y  34.000
G0 Z   3.000 
F150
G1 Z  -0.400
F800
G1 X 116.000 Y  50.000
G1 X 122.667 Y  50.000
G2 X 126.667 Y  46.000 I   0.000 J  -4.000
G1 X 126.667 Y  34.000
G1 Z   3.000
G0 Z  15.000 
G0 X 134.667 Y  43.333
G0 Z   3.000 
F150
G1 Z  -0.400
F800
G1 X 145.333 Y  50.000
G1 Z   3.000
G0 Z  15.000 
G0 X 138.189 Y  45.535
G0 Z   3.000 
F150
G1 Z  -0.400
F800
G1 X 145.333 Y  34.000
G1 Z   3.000
G0 Z  15.000 
G0 X 179.333 Y  50.000
G0 Z   3.000 
F150
G1 Z  -0.400
F800
G1 X 179.333 Y  34.000
G1 Z   3.000
G0 Z  15.000 
G0 X 171.333 Y  34.000
G0 Z   3.000 
F150
G1 Z  -0.400
F800
G1 X 171.333 Y  50.000
G1 X 183.333 Y  50.000
G2 X 187.333 Y  46.000 I   0.000 J  -4.000
G1 X 187.333 Y  34.000
G1 Z   3.000
G0 Z  15.000 
G0 X 196.667 Y  50.000
G0 Z   3.000 
F150
G1 Z  -0.400
F800
G1 X 202.000 Y  50.000
G2 X 206.000 Y  46.000 I   0.000 J  -4.000
G1 X 206.000 Y  34.000
G1 X 199.333 Y  34.000
G2 X 199.333 Y  42.000 I   0.000 J   4.000
G1 X 206.000 Y  42.000
G1 Z   3.000
G0 Z  15.000 
G0 X 214.000 Y  34.000
G0 Z   3.000 
F150
G1 Z  -0.400
F800
G1 X 214.000 Y  50.000
G1 Z   3.000
G0 Z  15.000 
G0 X 214.000 Y  56.667
G0 Z   3.000 
F150
G1 Z  -0.400
F800
G1 X 214.000 Y  58.000
G1 Z   3.000
G0 Z  15.000 
G0 X 222.000 Y  58.000
G0 Z   3.000 
F150
G1 Z  -0.400
F800
G1 X 222.000 Y  36.667
G3 X 224.667 Y  34.000 I   2.667 J   0.000
G1 Z   3.000
G0 Z  15.000 
G0 X 269.333 Y  58.000
G0 Z   3.000 
F150
G1 Z  -0.400
F800
G1 X 269.333 Y  36.667
G3 X 272.000 Y  34.000 I   2.667 J   0.000
G1 Z   3.000
G0 Z  15.000 
G0 X 280.000 Y  42.000
G0 Z   3.000 
F150
G1 Z  -0.400
F800
G1 X 290.667 Y  42.000
G1 X 290.667 Y  44.667
G3 X 280.000 Y  44.667 I  -5.333 J   0.000
G1 X 280.000 Y  38.000
G3 X 284.000 Y  34.000 I   4.000 J   0.000
G1 X 290.667 Y  34.000
G1 Z   3.000
G0 Z  15.000 
G0 X 300.000 Y  50.000
G0 Z   3.000 
F150
G1 Z  -0.400
F800
G1 X 305.333 Y  50.000
G2 X 309.333 Y  46.000 I   0.000 J  -4.000
G1 X 309.333 Y  34.000
G1 X 302.667 Y  34.000
G2 X 302.667 Y  42.000 I   0.000 J   4.000
G1 X 309.333 Y  42.000
G1 Z   3.000
G0 Z  15.000 
G0 X 328.000 Y  48.504
G0 Z   3.000 
F150
G1 Z  -0.400
F800
G3 X 319.712 Y  49.129 I  -4.896 J  -9.649
G3 X 319.506 Y  43.128 I   1.003 J  -3.039
G1 X 325.828 Y  40.547
G2 X 325.622 Y  34.546 I  -1.210 J  -2.963
G2 X 317.333 Y  35.171 I  -3.393 J  10.274
G1 Z   3.000
G0 Z  15.000 
G0 X 336.000 Y  42.000
G0 Z   3.000 
F150
G1 Z  -0.400
F800
G1 X 346.667 Y  42.000
G1 X 346.667 Y  44.667
G3 X 336.000 Y  44.667 I  -5.333 J   0.000
G1 X 336.000 Y  38.000
G3 X 340.000 Y  34.000 I   4.000 J   0.000
G1 X 346.667 Y  34.000
G1 Z   3.000
G0 Z  15.000 
G0 X 250.667 Y  34.000
G0 Z   3.000 
F150
G1 Z  -0.400
F800
G1 X 257.333 Y  34.000
G3 X 261.333 Y  38.000 I   0.000 J   4.000
G1 X 261.333 Y  46.000
G3 X 257.333 Y  50.000 I  -4.000 J   0.000
G1 X 250.667 Y  50.000
G1 X 250.667 Y  26.000
G1 Z   3.000
G0 Z  15.000 
G0 X 134.667 Y  58.000
G0 Z   3.000 
F150
G1 Z  -0.400
F800
G1 X 134.667 Y  34.000
G1 Z   3.000
G0 Z  15.000 
G0 X  47.333 Y  39.333
G0 Z   3.000 
F150
G1 Z  -0.400
F800
G1 X  47.333 Y  44.667
G2 X  58.000 Y  44.667 I   5.333 J   0.000
G1 X  58.000 Y  39.333
G2 X  47.333 Y  39.333 I  -5.333 J   0.000
G1 Z   3.000
G0 Z  15.000 
G0 X  26.000 Y  34.000
G0 Z   3.000 
F150
G1 Z  -0.400
F800
G1 X  26.000 Y  58.000
G1 X  39.333 Y  34.000
G1 X  39.333 Y  58.000
G1 Z   3.000
G0 Z  15.000 
G0 X  18.000 Y  62.000
G0 Z   3.000 
F150
G1 Z  -0.400
F800
G2 X  22.000 Y  66.000 I   4.000 J   0.000
G1 X 350.000 Y  66.000
G2 X 354.000 Y  62.000 I   0.000 J  -4.000
G1 X 354.000 Y  22.000
G2 X 350.000 Y  18.000 I  -4.000 J   0.000
G1 X  22.000 Y  18.000
G2 X  18.000 Y  22.000 I   0.000 J   4.000
G1 X  18.000 Y  62.000
G1 Z   3.000
G0 Z  15.000 
G0 X   0.000 Y   0.000
M9 (Coolant off)
M5 (Spindle off)
M2 (Prgram end)