( This gcode generated by /home/mattvenn/.eagle/ulp/pcb-gcode.ulp )
( Copyright 2005 by John Johnson. See readme.txt for licensing terms. )

( This file generated from the board /home/mattvenn/eagle-circuit-designs/energy plotter/polarplotter.brd )
( This file generated 06/12/2011 12:40 )

G20

G90
G00 Z0.5000 
G00 X0 Y0
M03
G04 P3.000000
G00 Z0.0200 
G00 X1.3401 Y2.6934 
G01 Z-0.0100 F10.00 
G01 X1.3401 Y2.7266 
G01 X1.3166 Y2.7501 
G01 X1.3049 Y2.7501 
G01 X1.3117 Y2.7514 
G01 X1.3190 Y2.7545 
G01 X1.3256 Y2.7589 
G01 X1.3311 Y2.7644 
G01 X1.3355 Y2.7710 
G01 X1.3386 Y2.7783 
G01 X1.3401 Y2.7860 
G01 X1.3401 Y2.7939 
G01 X1.3386 Y2.8017 
G01 X1.3355 Y2.8090 
G01 X1.3311 Y2.8156 
G01 X1.3256 Y2.8211 
G01 X1.3190 Y2.8255 
G01 X1.3117 Y2.8286 
G01 X1.3039 Y2.8301 
G01 X1.2960 Y2.8301 
G01 X1.2883 Y2.8286 
G01 X1.2810 Y2.8255 
G01 X1.2744 Y2.8211 
G01 X1.2689 Y2.8156 
G01 X1.2645 Y2.8090 
G01 X1.2614 Y2.8017 
G01 X1.2599 Y2.7939 
G01 X1.2599 Y2.7860 
G01 X1.2614 Y2.7783 
G01 X1.2645 Y2.7710 
G01 X1.2689 Y2.7644 
G01 X1.2744 Y2.7589 
G01 X1.2810 Y2.7545 
G01 X1.2883 Y2.7514 
G01 X1.2951 Y2.7501 
G01 X1.2834 Y2.7501 
G01 X1.2599 Y2.7266 
G01 X1.2599 Y2.6934 
G01 X1.2834 Y2.6699 
G01 X1.3166 Y2.6699 
G01 X1.3401 Y2.6934 
G00 Z0.0200 
G00 X3.2551 Y1.5772 
G01 Z-0.0100 F10.00 
G01 X3.2551 Y1.6228 
G01 X3.2228 Y1.6551 
G01 X3.1772 Y1.6551 
G01 X3.1449 Y1.6228 
G01 X3.1449 Y1.5772 
G01 X3.1772 Y1.5449 
G01 X3.2228 Y1.5449 
G01 X3.2551 Y1.5772 
G00 Z0.0200 
G00 X2.9551 Y1.5772 
G01 Z-0.0100 F10.00 
G01 X2.9551 Y1.6228 
G01 X2.9228 Y1.6551 
G01 X2.8772 Y1.6551 
G01 X2.8449 Y1.6228 
G01 X2.8449 Y1.5772 
G01 X2.8772 Y1.5449 
G01 X2.9228 Y1.5449 
G01 X2.9551 Y1.5772 
G00 Z0.0200 
G00 X2.5051 Y1.2772 
G01 Z-0.0100 F10.00 
G01 X2.5051 Y1.3228 
G01 X2.4728 Y1.3551 
G01 X2.4272 Y1.3551 
G01 X2.3949 Y1.3228 
G01 X2.3949 Y1.2772 
G01 X2.4272 Y1.2449 
G01 X2.4728 Y1.2449 
G01 X2.5051 Y1.2772 
G00 Z0.0200 
G00 X2.8051 Y1.2772 
G01 Z-0.0100 F10.00 
G01 X2.8051 Y1.3228 
G01 X2.7728 Y1.3551 
G01 X2.7272 Y1.3551 
G01 X2.6949 Y1.3228 
G01 X2.6949 Y1.2772 
G01 X2.7272 Y1.2449 
G01 X2.7728 Y1.2449 
G01 X2.8051 Y1.2772 
G00 Z0.0200 
G00 X2.6881 Y1.4132 
G01 Z-0.0100 F10.00 
G01 X2.6881 Y1.4868 
G01 X2.6866 Y1.4941 
G01 X2.6838 Y1.5010 
G01 X2.6796 Y1.5073 
G01 X2.6743 Y1.5126 
G01 X2.6680 Y1.5168 
G01 X2.6611 Y1.5196 
G01 X2.6538 Y1.5211 
G01 X2.6462 Y1.5211 
G01 X2.6389 Y1.5196 
G01 X2.6320 Y1.5168 
G01 X2.6257 Y1.5126 
G01 X2.6204 Y1.5073 
G01 X2.6162 Y1.5010 
G01 X2.6134 Y1.4941 
G01 X2.6119 Y1.4868 
G01 X2.6119 Y1.4132 
G01 X2.6134 Y1.4059 
G01 X2.6162 Y1.3990 
G01 X2.6204 Y1.3927 
G01 X2.6257 Y1.3874 
G01 X2.6320 Y1.3832 
G01 X2.6389 Y1.3804 
G01 X2.6462 Y1.3789 
G01 X2.6538 Y1.3789 
G01 X2.6611 Y1.3804 
G01 X2.6680 Y1.3832 
G01 X2.6743 Y1.3874 
G01 X2.6796 Y1.3927 
G01 X2.6838 Y1.3990 
G01 X2.6866 Y1.4059 
G01 X2.6881 Y1.4132 
G00 Z0.0200 
G00 X2.5881 Y1.4132 
G01 Z-0.0100 F10.00 
G01 X2.5881 Y1.4868 
G01 X2.5866 Y1.4941 
G01 X2.5838 Y1.5010 
G01 X2.5796 Y1.5073 
G01 X2.5743 Y1.5126 
G01 X2.5680 Y1.5168 
G01 X2.5611 Y1.5196 
G01 X2.5538 Y1.5211 
G01 X2.5462 Y1.5211 
G01 X2.5389 Y1.5196 
G01 X2.5320 Y1.5168 
G01 X2.5257 Y1.5126 
G01 X2.5204 Y1.5073 
G01 X2.5162 Y1.5010 
G01 X2.5134 Y1.4941 
G01 X2.5119 Y1.4868 
G01 X2.5119 Y1.4132 
G01 X2.5134 Y1.4059 
G01 X2.5162 Y1.3990 
G01 X2.5204 Y1.3927 
G01 X2.5257 Y1.3874 
G01 X2.5320 Y1.3832 
G01 X2.5389 Y1.3804 
G01 X2.5462 Y1.3789 
G01 X2.5538 Y1.3789 
G01 X2.5611 Y1.3804 
G01 X2.5680 Y1.3832 
G01 X2.5743 Y1.3874 
G01 X2.5796 Y1.3927 
G01 X2.5838 Y1.3990 
G01 X2.5866 Y1.4059 
G01 X2.5881 Y1.4132 
G00 Z0.0200 
G00 X2.7881 Y1.4132 
G01 Z-0.0100 F10.00 
G01 X2.7881 Y1.4868 
G01 X2.7866 Y1.4941 
G01 X2.7838 Y1.5010 
G01 X2.7796 Y1.5073 
G01 X2.7743 Y1.5126 
G01 X2.7680 Y1.5168 
G01 X2.7611 Y1.5196 
G01 X2.7538 Y1.5211 
G01 X2.7462 Y1.5211 
G01 X2.7389 Y1.5196 
G01 X2.7320 Y1.5168 
G01 X2.7257 Y1.5126 
G01 X2.7204 Y1.5073 
G01 X2.7162 Y1.5010 
G01 X2.7134 Y1.4941 
G01 X2.7119 Y1.4868 
G01 X2.7119 Y1.4132 
G01 X2.7134 Y1.4059 
G01 X2.7162 Y1.3990 
G01 X2.7204 Y1.3927 
G01 X2.7257 Y1.3874 
G01 X2.7320 Y1.3832 
G01 X2.7389 Y1.3804 
G01 X2.7462 Y1.3789 
G01 X2.7538 Y1.3789 
G01 X2.7611 Y1.3804 
G01 X2.7680 Y1.3832 
G01 X2.7743 Y1.3874 
G01 X2.7796 Y1.3927 
G01 X2.7838 Y1.3990 
G01 X2.7866 Y1.4059 
G01 X2.7881 Y1.4132 
G00 Z0.0200 
G00 X3.1149 Y1.4335 
G01 Z-0.0100 F10.00 
G01 X3.1149 Y1.3665 
G01 X3.1163 Y1.3598 
G01 X3.1189 Y1.3534 
G01 X3.1227 Y1.3476 
G01 X3.1276 Y1.3427 
G01 X3.1334 Y1.3389 
G01 X3.1398 Y1.3363 
G01 X3.1465 Y1.3349 
G01 X3.1535 Y1.3349 
G01 X3.1602 Y1.3363 
G01 X3.1666 Y1.3389 
G01 X3.1724 Y1.3427 
G01 X3.1773 Y1.3476 
G01 X3.1811 Y1.3534 
G01 X3.1837 Y1.3598 
G01 X3.1851 Y1.3665 
G01 X3.1851 Y1.4335 
G01 X3.1837 Y1.4402 
G01 X3.1811 Y1.4466 
G01 X3.1773 Y1.4524 
G01 X3.1724 Y1.4573 
G01 X3.1666 Y1.4611 
G01 X3.1602 Y1.4637 
G01 X3.1535 Y1.4651 
G01 X3.1465 Y1.4651 
G01 X3.1398 Y1.4637 
G01 X3.1334 Y1.4611 
G01 X3.1276 Y1.4573 
G01 X3.1227 Y1.4524 
G01 X3.1189 Y1.4466 
G01 X3.1163 Y1.4402 
G01 X3.1149 Y1.4335 
G00 Z0.0200 
G00 X3.0149 Y1.4335 
G01 Z-0.0100 F10.00 
G01 X3.0149 Y1.3665 
G01 X3.0163 Y1.3598 
G01 X3.0189 Y1.3534 
G01 X3.0227 Y1.3476 
G01 X3.0276 Y1.3427 
G01 X3.0334 Y1.3389 
G01 X3.0398 Y1.3363 
G01 X3.0465 Y1.3349 
G01 X3.0535 Y1.3349 
G01 X3.0602 Y1.3363 
G01 X3.0666 Y1.3389 
G01 X3.0724 Y1.3427 
G01 X3.0773 Y1.3476 
G01 X3.0811 Y1.3534 
G01 X3.0837 Y1.3598 
G01 X3.0851 Y1.3665 
G01 X3.0851 Y1.4335 
G01 X3.0837 Y1.4402 
G01 X3.0811 Y1.4466 
G01 X3.0773 Y1.4524 
G01 X3.0724 Y1.4573 
G01 X3.0666 Y1.4611 
G01 X3.0602 Y1.4637 
G01 X3.0535 Y1.4651 
G01 X3.0465 Y1.4651 
G01 X3.0398 Y1.4637 
G01 X3.0334 Y1.4611 
G01 X3.0276 Y1.4573 
G01 X3.0227 Y1.4524 
G01 X3.0189 Y1.4466 
G01 X3.0163 Y1.4402 
G01 X3.0149 Y1.4335 
G00 Z0.0200 
G00 X2.9149 Y1.4335 
G01 Z-0.0100 F10.00 
G01 X2.9149 Y1.3665 
G01 X2.9163 Y1.3598 
G01 X2.9189 Y1.3534 
G01 X2.9227 Y1.3476 
G01 X2.9276 Y1.3427 
G01 X2.9334 Y1.3389 
G01 X2.9398 Y1.3363 
G01 X2.9465 Y1.3349 
G01 X2.9535 Y1.3349 
G01 X2.9602 Y1.3363 
G01 X2.9666 Y1.3389 
G01 X2.9724 Y1.3427 
G01 X2.9773 Y1.3476 
G01 X2.9811 Y1.3534 
G01 X2.9837 Y1.3598 
G01 X2.9851 Y1.3665 
G01 X2.9851 Y1.4335 
G01 X2.9837 Y1.4402 
G01 X2.9811 Y1.4466 
G01 X2.9773 Y1.4524 
G01 X2.9724 Y1.4573 
G01 X2.9666 Y1.4611 
G01 X2.9602 Y1.4637 
G01 X2.9535 Y1.4651 
G01 X2.9465 Y1.4651 
G01 X2.9398 Y1.4637 
G01 X2.9334 Y1.4611 
G01 X2.9276 Y1.4573 
G01 X2.9227 Y1.4524 
G01 X2.9189 Y1.4466 
G01 X2.9163 Y1.4402 
G01 X2.9149 Y1.4335 
G00 Z0.0200 
G00 X0.2110 Y1.1599 
G01 Z-0.0100 F10.00 
G01 X0.2889 Y1.1599 
G01 X0.2967 Y1.1614 
G01 X0.3040 Y1.1645 
G01 X0.3106 Y1.1689 
G01 X0.3161 Y1.1744 
G01 X0.3205 Y1.1810 
G01 X0.3236 Y1.1883 
G01 X0.3251 Y1.1960 
G01 X0.3251 Y1.2039 
G01 X0.3236 Y1.2117 
G01 X0.3205 Y1.2190 
G01 X0.3161 Y1.2256 
G01 X0.3106 Y1.2311 
G01 X0.3040 Y1.2355 
G01 X0.2967 Y1.2386 
G01 X0.2889 Y1.2401 
G01 X0.2110 Y1.2401 
G01 X0.2033 Y1.2386 
G01 X0.1960 Y1.2355 
G01 X0.1894 Y1.2311 
G01 X0.1839 Y1.2256 
G01 X0.1795 Y1.2190 
G01 X0.1764 Y1.2117 
G01 X0.1749 Y1.2039 
G01 X0.1749 Y1.1960 
G01 X0.1764 Y1.1883 
G01 X0.1795 Y1.1810 
G01 X0.1839 Y1.1744 
G01 X0.1894 Y1.1689 
G01 X0.1960 Y1.1645 
G01 X0.2033 Y1.1614 
G01 X0.2110 Y1.1599 
G00 Z0.0200 
G00 X0.2110 Y1.2599 
G01 Z-0.0100 F10.00 
G01 X0.2889 Y1.2599 
G01 X0.2967 Y1.2614 
G01 X0.3040 Y1.2645 
G01 X0.3106 Y1.2689 
G01 X0.3161 Y1.2744 
G01 X0.3205 Y1.2810 
G01 X0.3236 Y1.2883 
G01 X0.3251 Y1.2960 
G01 X0.3251 Y1.3039 
G01 X0.3236 Y1.3117 
G01 X0.3205 Y1.3190 
G01 X0.3161 Y1.3256 
G01 X0.3106 Y1.3311 
G01 X0.3040 Y1.3355 
G01 X0.2967 Y1.3386 
G01 X0.2889 Y1.3401 
G01 X0.2110 Y1.3401 
G01 X0.2033 Y1.3386 
G01 X0.1960 Y1.3355 
G01 X0.1894 Y1.3311 
G01 X0.1839 Y1.3256 
G01 X0.1795 Y1.3190 
G01 X0.1764 Y1.3117 
G01 X0.1749 Y1.3039 
G01 X0.1749 Y1.2960 
G01 X0.1764 Y1.2883 
G01 X0.1795 Y1.2810 
G01 X0.1839 Y1.2744 
G01 X0.1894 Y1.2689 
G01 X0.1960 Y1.2645 
G01 X0.2033 Y1.2614 
G01 X0.2110 Y1.2599 
G00 Z0.0200 
G00 X0.2110 Y1.3599 
G01 Z-0.0100 F10.00 
G01 X0.2889 Y1.3599 
G01 X0.2967 Y1.3614 
G01 X0.3040 Y1.3645 
G01 X0.3106 Y1.3689 
G01 X0.3161 Y1.3744 
G01 X0.3205 Y1.3810 
G01 X0.3236 Y1.3883 
G01 X0.3251 Y1.3960 
G01 X0.3251 Y1.4039 
G01 X0.3236 Y1.4117 
G01 X0.3205 Y1.4190 
G01 X0.3161 Y1.4256 
G01 X0.3106 Y1.4311 
G01 X0.3040 Y1.4355 
G01 X0.2967 Y1.4386 
G01 X0.2889 Y1.4401 
G01 X0.2110 Y1.4401 
G01 X0.2033 Y1.4386 
G01 X0.1960 Y1.4355 
G01 X0.1894 Y1.4311 
G01 X0.1839 Y1.4256 
G01 X0.1795 Y1.4190 
G01 X0.1764 Y1.4117 
G01 X0.1749 Y1.4039 
G01 X0.1749 Y1.3960 
G01 X0.1764 Y1.3883 
G01 X0.1795 Y1.3810 
G01 X0.1839 Y1.3744 
G01 X0.1894 Y1.3689 
G01 X0.1960 Y1.3645 
G01 X0.2033 Y1.3614 
G01 X0.2110 Y1.3599 
G00 Z0.0200 
G00 X0.2110 Y1.4599 
G01 Z-0.0100 F10.00 
G01 X0.2889 Y1.4599 
G01 X0.2967 Y1.4614 
G01 X0.3040 Y1.4645 
G01 X0.3106 Y1.4689 
G01 X0.3161 Y1.4744 
G01 X0.3205 Y1.4810 
G01 X0.3236 Y1.4883 
G01 X0.3251 Y1.4960 
G01 X0.3251 Y1.5039 
G01 X0.3236 Y1.5117 
G01 X0.3205 Y1.5190 
G01 X0.3161 Y1.5256 
G01 X0.3106 Y1.5311 
G01 X0.3040 Y1.5355 
G01 X0.2967 Y1.5386 
G01 X0.2889 Y1.5401 
G01 X0.2110 Y1.5401 
G01 X0.2033 Y1.5386 
G01 X0.1960 Y1.5355 
G01 X0.1894 Y1.5311 
G01 X0.1839 Y1.5256 
G01 X0.1795 Y1.5190 
G01 X0.1764 Y1.5117 
G01 X0.1749 Y1.5039 
G01 X0.1749 Y1.4960 
G01 X0.1764 Y1.4883 
G01 X0.1795 Y1.4810 
G01 X0.1839 Y1.4744 
G01 X0.1894 Y1.4689 
G01 X0.1960 Y1.4645 
G01 X0.2033 Y1.4614 
G01 X0.2110 Y1.4599 
G00 Z0.0200 
G00 X0.6632 Y1.3619 
G01 Z-0.0100 F10.00 
G01 X0.7368 Y1.3619 
G01 X0.7441 Y1.3634 
G01 X0.7510 Y1.3662 
G01 X0.7573 Y1.3704 
G01 X0.7626 Y1.3757 
G01 X0.7668 Y1.3820 
G01 X0.7696 Y1.3889 
G01 X0.7711 Y1.3962 
G01 X0.7711 Y1.4038 
G01 X0.7696 Y1.4111 
G01 X0.7668 Y1.4180 
G01 X0.7626 Y1.4243 
G01 X0.7573 Y1.4296 
G01 X0.7510 Y1.4338 
G01 X0.7441 Y1.4366 
G01 X0.7368 Y1.4381 
G01 X0.6632 Y1.4381 
G01 X0.6559 Y1.4366 
G01 X0.6490 Y1.4338 
G01 X0.6427 Y1.4296 
G01 X0.6374 Y1.4243 
G01 X0.6332 Y1.4180 
G01 X0.6304 Y1.4111 
G01 X0.6289 Y1.4038 
G01 X0.6289 Y1.3962 
G01 X0.6304 Y1.3889 
G01 X0.6332 Y1.3820 
G01 X0.6374 Y1.3757 
G01 X0.6427 Y1.3704 
G01 X0.6490 Y1.3662 
G01 X0.6559 Y1.3634 
G01 X0.6632 Y1.3619 
G00 Z0.0200 
G00 X0.6632 Y1.2619 
G01 Z-0.0100 F10.00 
G01 X0.7368 Y1.2619 
G01 X0.7441 Y1.2634 
G01 X0.7510 Y1.2662 
G01 X0.7573 Y1.2704 
G01 X0.7626 Y1.2757 
G01 X0.7668 Y1.2820 
G01 X0.7696 Y1.2889 
G01 X0.7711 Y1.2962 
G01 X0.7711 Y1.3038 
G01 X0.7696 Y1.3111 
G01 X0.7668 Y1.3180 
G01 X0.7626 Y1.3243 
G01 X0.7573 Y1.3296 
G01 X0.7510 Y1.3338 
G01 X0.7441 Y1.3366 
G01 X0.7368 Y1.3381 
G01 X0.6632 Y1.3381 
G01 X0.6559 Y1.3366 
G01 X0.6490 Y1.3338 
G01 X0.6427 Y1.3296 
G01 X0.6374 Y1.3243 
G01 X0.6332 Y1.3180 
G01 X0.6304 Y1.3111 
G01 X0.6289 Y1.3038 
G01 X0.6289 Y1.2962 
G01 X0.6304 Y1.2889 
G01 X0.6332 Y1.2820 
G01 X0.6374 Y1.2757 
G01 X0.6427 Y1.2704 
G01 X0.6490 Y1.2662 
G01 X0.6559 Y1.2634 
G01 X0.6632 Y1.2619 
G00 Z0.0200 
G00 X0.6632 Y1.1619 
G01 Z-0.0100 F10.00 
G01 X0.7368 Y1.1619 
G01 X0.7441 Y1.1634 
G01 X0.7510 Y1.1662 
G01 X0.7573 Y1.1704 
G01 X0.7626 Y1.1757 
G01 X0.7668 Y1.1820 
G01 X0.7696 Y1.1889 
G01 X0.7711 Y1.1962 
G01 X0.7711 Y1.2038 
G01 X0.7696 Y1.2111 
G01 X0.7668 Y1.2180 
G01 X0.7626 Y1.2243 
G01 X0.7573 Y1.2296 
G01 X0.7510 Y1.2338 
G01 X0.7441 Y1.2366 
G01 X0.7368 Y1.2381 
G01 X0.6632 Y1.2381 
G01 X0.6559 Y1.2366 
G01 X0.6490 Y1.2338 
G01 X0.6427 Y1.2296 
G01 X0.6374 Y1.2243 
G01 X0.6332 Y1.2180 
G01 X0.6304 Y1.2111 
G01 X0.6289 Y1.2038 
G01 X0.6289 Y1.1962 
G01 X0.6304 Y1.1889 
G01 X0.6332 Y1.1820 
G01 X0.6374 Y1.1757 
G01 X0.6427 Y1.1704 
G01 X0.6490 Y1.1662 
G01 X0.6559 Y1.1634 
G01 X0.6632 Y1.1619 
G00 Z0.0200 
G00 X0.8051 Y2.5657 
G01 Z-0.0100 F10.00 
G01 X0.8051 Y2.5743 
G01 X0.8037 Y2.5829 
G01 X0.8011 Y2.5911 
G01 X0.7971 Y2.5989 
G01 X0.7920 Y2.6059 
G01 X0.7859 Y2.6120 
G01 X0.7789 Y2.6171 
G01 X0.7711 Y2.6211 
G01 X0.7629 Y2.6237 
G01 X0.7543 Y2.6251 
G01 X0.7457 Y2.6251 
G01 X0.7371 Y2.6237 
G01 X0.7289 Y2.6211 
G01 X0.7211 Y2.6171 
G01 X0.7141 Y2.6120 
G01 X0.7080 Y2.6059 
G01 X0.7029 Y2.5989 
G01 X0.6989 Y2.5911 
G01 X0.6963 Y2.5829 
G01 X0.6949 Y2.5743 
G01 X0.6949 Y2.5657 
G01 X0.6963 Y2.5571 
G01 X0.6989 Y2.5489 
G01 X0.7029 Y2.5411 
G01 X0.7080 Y2.5341 
G01 X0.7141 Y2.5280 
G01 X0.7211 Y2.5229 
G01 X0.7289 Y2.5189 
G01 X0.7371 Y2.5163 
G01 X0.7457 Y2.5149 
G01 X0.7543 Y2.5149 
G01 X0.7629 Y2.5163 
G01 X0.7711 Y2.5189 
G01 X0.7789 Y2.5229 
G01 X0.7859 Y2.5280 
G01 X0.7920 Y2.5341 
G01 X0.7971 Y2.5411 
G01 X0.8011 Y2.5489 
G01 X0.8037 Y2.5571 
G01 X0.8051 Y2.5657 
G00 Z0.0200 
G00 X0.8051 Y2.4072 
G01 Z-0.0100 F10.00 
G01 X0.8051 Y2.4528 
G01 X0.7728 Y2.4851 
G01 X0.7272 Y2.4851 
G01 X0.6949 Y2.4528 
G01 X0.6949 Y2.4072 
G01 X0.7272 Y2.3749 
G01 X0.7728 Y2.3749 
G01 X0.8051 Y2.4072 
G00 Z0.0200 
G00 X0.2532 Y2.5035 
G01 Z-0.0100 F10.00 
G01 X0.3468 Y2.5035 
G01 X0.3543 Y2.5047 
G01 X0.3615 Y2.5070 
G01 X0.3682 Y2.5104 
G01 X0.3743 Y2.5149 
G01 X0.3797 Y2.5202 
G01 X0.3841 Y2.5264 
G01 X0.3876 Y2.5331 
G01 X0.3899 Y2.5403 
G01 X0.3911 Y2.5478 
G01 X0.3911 Y2.5554 
G01 X0.3899 Y2.5628 
G01 X0.3876 Y2.5700 
G01 X0.3841 Y2.5768 
G01 X0.3797 Y2.5829 
G01 X0.3743 Y2.5883 
G01 X0.3682 Y2.5927 
G01 X0.3615 Y2.5961 
G01 X0.3543 Y2.5985 
G01 X0.3468 Y2.5997 
G01 X0.2532 Y2.5997 
G01 X0.2457 Y2.5985 
G01 X0.2385 Y2.5961 
G01 X0.2318 Y2.5927 
G01 X0.2257 Y2.5883 
G01 X0.2203 Y2.5829 
G01 X0.2159 Y2.5768 
G01 X0.2124 Y2.5700 
G01 X0.2101 Y2.5628 
G01 X0.2089 Y2.5554 
G01 X0.2089 Y2.5478 
G01 X0.2101 Y2.5403 
G01 X0.2124 Y2.5331 
G01 X0.2159 Y2.5264 
G01 X0.2203 Y2.5202 
G01 X0.2257 Y2.5149 
G01 X0.2318 Y2.5104 
G01 X0.2385 Y2.5070 
G01 X0.2457 Y2.5047 
G01 X0.2532 Y2.5035 
G00 Z0.0200 
G00 X0.2532 Y2.7003 
G01 Z-0.0100 F10.00 
G01 X0.3468 Y2.7003 
G01 X0.3543 Y2.7015 
G01 X0.3615 Y2.7039 
G01 X0.3682 Y2.7073 
G01 X0.3743 Y2.7117 
G01 X0.3797 Y2.7171 
G01 X0.3841 Y2.7232 
G01 X0.3876 Y2.7300 
G01 X0.3899 Y2.7372 
G01 X0.3911 Y2.7446 
G01 X0.3911 Y2.7522 
G01 X0.3899 Y2.7597 
G01 X0.3876 Y2.7669 
G01 X0.3841 Y2.7736 
G01 X0.3797 Y2.7798 
G01 X0.3743 Y2.7851 
G01 X0.3682 Y2.7896 
G01 X0.3615 Y2.7930 
G01 X0.3543 Y2.7953 
G01 X0.3468 Y2.7965 
G01 X0.2532 Y2.7965 
G01 X0.2457 Y2.7953 
G01 X0.2385 Y2.7930 
G01 X0.2318 Y2.7896 
G01 X0.2257 Y2.7851 
G01 X0.2203 Y2.7798 
G01 X0.2159 Y2.7736 
G01 X0.2124 Y2.7669 
G01 X0.2101 Y2.7597 
G01 X0.2089 Y2.7522 
G01 X0.2089 Y2.7446 
G01 X0.2101 Y2.7372 
G01 X0.2124 Y2.7300 
G01 X0.2159 Y2.7232 
G01 X0.2203 Y2.7171 
G01 X0.2257 Y2.7117 
G01 X0.2318 Y2.7073 
G01 X0.2385 Y2.7039 
G01 X0.2457 Y2.7015 
G01 X0.2532 Y2.7003 
G00 Z0.0200 
G00 X1.3051 Y2.2772 
G01 Z-0.0100 F10.00 
G01 X1.3051 Y2.3228 
G01 X1.2728 Y2.3551 
G01 X1.2272 Y2.3551 
G01 X1.1949 Y2.3228 
G01 X1.1949 Y2.2772 
G01 X1.2272 Y2.2449 
G01 X1.2728 Y2.2449 
G01 X1.3051 Y2.2772 
G00 Z0.0200 
G00 X1.0051 Y2.2772 
G01 Z-0.0100 F10.00 
G01 X1.0051 Y2.3228 
G01 X0.9728 Y2.3551 
G01 X0.9272 Y2.3551 
G01 X0.8949 Y2.3228 
G01 X0.8949 Y2.2772 
G01 X0.9272 Y2.2449 
G01 X0.9728 Y2.2449 
G01 X1.0051 Y2.2772 
G00 Z0.0200 
G00 X1.8868 Y2.5881 
G01 Z-0.0100 F10.00 
G01 X1.8132 Y2.5881 
G01 X1.8059 Y2.5866 
G01 X1.7990 Y2.5838 
G01 X1.7927 Y2.5796 
G01 X1.7874 Y2.5743 
G01 X1.7832 Y2.5680 
G01 X1.7804 Y2.5611 
G01 X1.7789 Y2.5538 
G01 X1.7789 Y2.5462 
G01 X1.7804 Y2.5389 
G01 X1.7832 Y2.5320 
G01 X1.7874 Y2.5257 
G01 X1.7927 Y2.5204 
G01 X1.7990 Y2.5162 
G01 X1.8059 Y2.5134 
G01 X1.8132 Y2.5119 
G01 X1.8868 Y2.5119 
G01 X1.8941 Y2.5134 
G01 X1.9010 Y2.5162 
G01 X1.9073 Y2.5204 
G01 X1.9126 Y2.5257 
G01 X1.9168 Y2.5320 
G01 X1.9196 Y2.5389 
G01 X1.9211 Y2.5462 
G01 X1.9211 Y2.5538 
G01 X1.9196 Y2.5611 
G01 X1.9168 Y2.5680 
G01 X1.9126 Y2.5743 
G01 X1.9073 Y2.5796 
G01 X1.9010 Y2.5838 
G01 X1.8941 Y2.5866 
G01 X1.8868 Y2.5881 
G00 Z0.0200 
G00 X1.8868 Y2.4881 
G01 Z-0.0100 F10.00 
G01 X1.8132 Y2.4881 
G01 X1.8059 Y2.4866 
G01 X1.7990 Y2.4838 
G01 X1.7927 Y2.4796 
G01 X1.7874 Y2.4743 
G01 X1.7832 Y2.4680 
G01 X1.7804 Y2.4611 
G01 X1.7789 Y2.4538 
G01 X1.7789 Y2.4462 
G01 X1.7804 Y2.4389 
G01 X1.7832 Y2.4320 
G01 X1.7874 Y2.4257 
G01 X1.7927 Y2.4204 
G01 X1.7990 Y2.4162 
G01 X1.8059 Y2.4134 
G01 X1.8132 Y2.4119 
G01 X1.8868 Y2.4119 
G01 X1.8941 Y2.4134 
G01 X1.9010 Y2.4162 
G01 X1.9073 Y2.4204 
G01 X1.9126 Y2.4257 
G01 X1.9168 Y2.4320 
G01 X1.9196 Y2.4389 
G01 X1.9211 Y2.4462 
G01 X1.9211 Y2.4538 
G01 X1.9196 Y2.4611 
G01 X1.9168 Y2.4680 
G01 X1.9126 Y2.4743 
G01 X1.9073 Y2.4796 
G01 X1.9010 Y2.4838 
G01 X1.8941 Y2.4866 
G01 X1.8868 Y2.4881 
G00 Z0.0200 
G00 X1.8868 Y2.3881 
G01 Z-0.0100 F10.00 
G01 X1.8132 Y2.3881 
G01 X1.8059 Y2.3866 
G01 X1.7990 Y2.3838 
G01 X1.7927 Y2.3796 
G01 X1.7874 Y2.3743 
G01 X1.7832 Y2.3680 
G01 X1.7804 Y2.3611 
G01 X1.7789 Y2.3538 
G01 X1.7789 Y2.3462 
G01 X1.7804 Y2.3389 
G01 X1.7832 Y2.3320 
G01 X1.7874 Y2.3257 
G01 X1.7927 Y2.3204 
G01 X1.7990 Y2.3162 
G01 X1.8059 Y2.3134 
G01 X1.8132 Y2.3119 
G01 X1.8868 Y2.3119 
G01 X1.8941 Y2.3134 
G01 X1.9010 Y2.3162 
G01 X1.9073 Y2.3204 
G01 X1.9126 Y2.3257 
G01 X1.9168 Y2.3320 
G01 X1.9196 Y2.3389 
G01 X1.9211 Y2.3462 
G01 X1.9211 Y2.3538 
G01 X1.9196 Y2.3611 
G01 X1.9168 Y2.3680 
G01 X1.9126 Y2.3743 
G01 X1.9073 Y2.3796 
G01 X1.9010 Y2.3838 
G01 X1.8941 Y2.3866 
G01 X1.8868 Y2.3881 
G00 Z0.0200 
G00 X1.8868 Y2.2881 
G01 Z-0.0100 F10.00 
G01 X1.8132 Y2.2881 
G01 X1.8059 Y2.2866 
G01 X1.7990 Y2.2838 
G01 X1.7927 Y2.2796 
G01 X1.7874 Y2.2743 
G01 X1.7832 Y2.2680 
G01 X1.7804 Y2.2611 
G01 X1.7789 Y2.2538 
G01 X1.7789 Y2.2462 
G01 X1.7804 Y2.2389 
G01 X1.7832 Y2.2320 
G01 X1.7874 Y2.2257 
G01 X1.7927 Y2.2204 
G01 X1.7990 Y2.2162 
G01 X1.8059 Y2.2134 
G01 X1.8132 Y2.2119 
G01 X1.8868 Y2.2119 
G01 X1.8941 Y2.2134 
G01 X1.9010 Y2.2162 
G01 X1.9073 Y2.2204 
G01 X1.9126 Y2.2257 
G01 X1.9168 Y2.2320 
G01 X1.9196 Y2.2389 
G01 X1.9211 Y2.2462 
G01 X1.9211 Y2.2538 
G01 X1.9196 Y2.2611 
G01 X1.9168 Y2.2680 
G01 X1.9126 Y2.2743 
G01 X1.9073 Y2.2796 
G01 X1.9010 Y2.2838 
G01 X1.8941 Y2.2866 
G01 X1.8868 Y2.2881 
G00 Z0.0200 
G00 X1.8868 Y2.1881 
G01 Z-0.0100 F10.00 
G01 X1.8132 Y2.1881 
G01 X1.8059 Y2.1866 
G01 X1.7990 Y2.1838 
G01 X1.7927 Y2.1796 
G01 X1.7874 Y2.1743 
G01 X1.7832 Y2.1680 
G01 X1.7804 Y2.1611 
G01 X1.7789 Y2.1538 
G01 X1.7789 Y2.1462 
G01 X1.7804 Y2.1389 
G01 X1.7832 Y2.1320 
G01 X1.7874 Y2.1257 
G01 X1.7927 Y2.1204 
G01 X1.7990 Y2.1162 
G01 X1.8059 Y2.1134 
G01 X1.8132 Y2.1119 
G01 X1.8868 Y2.1119 
G01 X1.8941 Y2.1134 
G01 X1.9010 Y2.1162 
G01 X1.9073 Y2.1204 
G01 X1.9126 Y2.1257 
G01 X1.9168 Y2.1320 
G01 X1.9196 Y2.1389 
G01 X1.9211 Y2.1462 
G01 X1.9211 Y2.1538 
G01 X1.9196 Y2.1611 
G01 X1.9168 Y2.1680 
G01 X1.9126 Y2.1743 
G01 X1.9073 Y2.1796 
G01 X1.9010 Y2.1838 
G01 X1.8941 Y2.1866 
G01 X1.8868 Y2.1881 
G00 Z0.0200 
G00 X1.8868 Y2.0881 
G01 Z-0.0100 F10.00 
G01 X1.8132 Y2.0881 
G01 X1.8059 Y2.0866 
G01 X1.7990 Y2.0838 
G01 X1.7927 Y2.0796 
G01 X1.7874 Y2.0743 
G01 X1.7832 Y2.0680 
G01 X1.7804 Y2.0611 
G01 X1.7789 Y2.0538 
G01 X1.7789 Y2.0462 
G01 X1.7804 Y2.0389 
G01 X1.7832 Y2.0320 
G01 X1.7874 Y2.0257 
G01 X1.7927 Y2.0204 
G01 X1.7990 Y2.0162 
G01 X1.8059 Y2.0134 
G01 X1.8132 Y2.0119 
G01 X1.8868 Y2.0119 
G01 X1.8941 Y2.0134 
G01 X1.9010 Y2.0162 
G01 X1.9073 Y2.0204 
G01 X1.9126 Y2.0257 
G01 X1.9168 Y2.0320 
G01 X1.9196 Y2.0389 
G01 X1.9211 Y2.0462 
G01 X1.9211 Y2.0538 
G01 X1.9196 Y2.0611 
G01 X1.9168 Y2.0680 
G01 X1.9126 Y2.0743 
G01 X1.9073 Y2.0796 
G01 X1.9010 Y2.0838 
G01 X1.8941 Y2.0866 
G01 X1.8868 Y2.0881 
G00 Z0.0200 
G00 X1.8868 Y1.9881 
G01 Z-0.0100 F10.00 
G01 X1.8132 Y1.9881 
G01 X1.8059 Y1.9866 
G01 X1.7990 Y1.9838 
G01 X1.7927 Y1.9796 
G01 X1.7874 Y1.9743 
G01 X1.7832 Y1.9680 
G01 X1.7804 Y1.9611 
G01 X1.7789 Y1.9538 
G01 X1.7789 Y1.9462 
G01 X1.7804 Y1.9389 
G01 X1.7832 Y1.9320 
G01 X1.7874 Y1.9257 
G01 X1.7927 Y1.9204 
G01 X1.7990 Y1.9162 
G01 X1.8059 Y1.9134 
G01 X1.8132 Y1.9119 
G01 X1.8868 Y1.9119 
G01 X1.8941 Y1.9134 
G01 X1.9010 Y1.9162 
G01 X1.9073 Y1.9204 
G01 X1.9126 Y1.9257 
G01 X1.9168 Y1.9320 
G01 X1.9196 Y1.9389 
G01 X1.9211 Y1.9462 
G01 X1.9211 Y1.9538 
G01 X1.9196 Y1.9611 
G01 X1.9168 Y1.9680 
G01 X1.9126 Y1.9743 
G01 X1.9073 Y1.9796 
G01 X1.9010 Y1.9838 
G01 X1.8941 Y1.9866 
G01 X1.8868 Y1.9881 
G00 Z0.0200 
G00 X1.8868 Y1.8881 
G01 Z-0.0100 F10.00 
G01 X1.8132 Y1.8881 
G01 X1.8059 Y1.8866 
G01 X1.7990 Y1.8838 
G01 X1.7927 Y1.8796 
G01 X1.7874 Y1.8743 
G01 X1.7832 Y1.8680 
G01 X1.7804 Y1.8611 
G01 X1.7789 Y1.8538 
G01 X1.7789 Y1.8462 
G01 X1.7804 Y1.8389 
G01 X1.7832 Y1.8320 
G01 X1.7874 Y1.8257 
G01 X1.7927 Y1.8204 
G01 X1.7990 Y1.8162 
G01 X1.8059 Y1.8134 
G01 X1.8132 Y1.8119 
G01 X1.8868 Y1.8119 
G01 X1.8941 Y1.8134 
G01 X1.9010 Y1.8162 
G01 X1.9073 Y1.8204 
G01 X1.9126 Y1.8257 
G01 X1.9168 Y1.8320 
G01 X1.9196 Y1.8389 
G01 X1.9211 Y1.8462 
G01 X1.9211 Y1.8538 
G01 X1.9196 Y1.8611 
G01 X1.9168 Y1.8680 
G01 X1.9126 Y1.8743 
G01 X1.9073 Y1.8796 
G01 X1.9010 Y1.8838 
G01 X1.8941 Y1.8866 
G01 X1.8868 Y1.8881 
G00 Z0.0200 
G00 X1.8868 Y1.7881 
G01 Z-0.0100 F10.00 
G01 X1.8132 Y1.7881 
G01 X1.8059 Y1.7866 
G01 X1.7990 Y1.7838 
G01 X1.7927 Y1.7796 
G01 X1.7874 Y1.7743 
G01 X1.7832 Y1.7680 
G01 X1.7804 Y1.7611 
G01 X1.7789 Y1.7538 
G01 X1.7789 Y1.7462 
G01 X1.7804 Y1.7389 
G01 X1.7832 Y1.7320 
G01 X1.7874 Y1.7257 
G01 X1.7927 Y1.7204 
G01 X1.7990 Y1.7162 
G01 X1.8059 Y1.7134 
G01 X1.8132 Y1.7119 
G01 X1.8868 Y1.7119 
G01 X1.8941 Y1.7134 
G01 X1.9010 Y1.7162 
G01 X1.9073 Y1.7204 
G01 X1.9126 Y1.7257 
G01 X1.9168 Y1.7320 
G01 X1.9196 Y1.7389 
G01 X1.9211 Y1.7462 
G01 X1.9211 Y1.7538 
G01 X1.9196 Y1.7611 
G01 X1.9168 Y1.7680 
G01 X1.9126 Y1.7743 
G01 X1.9073 Y1.7796 
G01 X1.9010 Y1.7838 
G01 X1.8941 Y1.7866 
G01 X1.8868 Y1.7881 
G00 Z0.0200 
G00 X1.8868 Y1.6881 
G01 Z-0.0100 F10.00 
G01 X1.8132 Y1.6881 
G01 X1.8059 Y1.6866 
G01 X1.7990 Y1.6838 
G01 X1.7927 Y1.6796 
G01 X1.7874 Y1.6743 
G01 X1.7832 Y1.6680 
G01 X1.7804 Y1.6611 
G01 X1.7789 Y1.6538 
G01 X1.7789 Y1.6462 
G01 X1.7804 Y1.6389 
G01 X1.7832 Y1.6320 
G01 X1.7874 Y1.6257 
G01 X1.7927 Y1.6204 
G01 X1.7990 Y1.6162 
G01 X1.8059 Y1.6134 
G01 X1.8132 Y1.6119 
G01 X1.8868 Y1.6119 
G01 X1.8941 Y1.6134 
G01 X1.9010 Y1.6162 
G01 X1.9073 Y1.6204 
G01 X1.9126 Y1.6257 
G01 X1.9168 Y1.6320 
G01 X1.9196 Y1.6389 
G01 X1.9211 Y1.6462 
G01 X1.9211 Y1.6538 
G01 X1.9196 Y1.6611 
G01 X1.9168 Y1.6680 
G01 X1.9126 Y1.6743 
G01 X1.9073 Y1.6796 
G01 X1.9010 Y1.6838 
G01 X1.8941 Y1.6866 
G01 X1.8868 Y1.6881 
G00 Z0.0200 
G00 X1.8868 Y1.5881 
G01 Z-0.0100 F10.00 
G01 X1.8132 Y1.5881 
G01 X1.8059 Y1.5866 
G01 X1.7990 Y1.5838 
G01 X1.7927 Y1.5796 
G01 X1.7874 Y1.5743 
G01 X1.7832 Y1.5680 
G01 X1.7804 Y1.5611 
G01 X1.7789 Y1.5538 
G01 X1.7789 Y1.5462 
G01 X1.7804 Y1.5389 
G01 X1.7832 Y1.5320 
G01 X1.7874 Y1.5257 
G01 X1.7927 Y1.5204 
G01 X1.7990 Y1.5162 
G01 X1.8059 Y1.5134 
G01 X1.8132 Y1.5119 
G01 X1.8868 Y1.5119 
G01 X1.8941 Y1.5134 
G01 X1.9010 Y1.5162 
G01 X1.9073 Y1.5204 
G01 X1.9126 Y1.5257 
G01 X1.9168 Y1.5320 
G01 X1.9196 Y1.5389 
G01 X1.9211 Y1.5462 
G01 X1.9211 Y1.5538 
G01 X1.9196 Y1.5611 
G01 X1.9168 Y1.5680 
G01 X1.9126 Y1.5743 
G01 X1.9073 Y1.5796 
G01 X1.9010 Y1.5838 
G01 X1.8941 Y1.5866 
G01 X1.8868 Y1.5881 
G00 Z0.0200 
G00 X1.8868 Y1.4881 
G01 Z-0.0100 F10.00 
G01 X1.8132 Y1.4881 
G01 X1.8059 Y1.4866 
G01 X1.7990 Y1.4838 
G01 X1.7927 Y1.4796 
G01 X1.7874 Y1.4743 
G01 X1.7832 Y1.4680 
G01 X1.7804 Y1.4611 
G01 X1.7789 Y1.4538 
G01 X1.7789 Y1.4462 
G01 X1.7804 Y1.4389 
G01 X1.7832 Y1.4320 
G01 X1.7874 Y1.4257 
G01 X1.7927 Y1.4204 
G01 X1.7990 Y1.4162 
G01 X1.8059 Y1.4134 
G01 X1.8132 Y1.4119 
G01 X1.8868 Y1.4119 
G01 X1.8941 Y1.4134 
G01 X1.9010 Y1.4162 
G01 X1.9073 Y1.4204 
G01 X1.9126 Y1.4257 
G01 X1.9168 Y1.4320 
G01 X1.9196 Y1.4389 
G01 X1.9211 Y1.4462 
G01 X1.9211 Y1.4538 
G01 X1.9196 Y1.4611 
G01 X1.9168 Y1.4680 
G01 X1.9126 Y1.4743 
G01 X1.9073 Y1.4796 
G01 X1.9010 Y1.4838 
G01 X1.8941 Y1.4866 
G01 X1.8868 Y1.4881 
G00 Z0.0200 
G00 X1.8868 Y1.3881 
G01 Z-0.0100 F10.00 
G01 X1.8132 Y1.3881 
G01 X1.8059 Y1.3866 
G01 X1.7990 Y1.3838 
G01 X1.7927 Y1.3796 
G01 X1.7874 Y1.3743 
G01 X1.7832 Y1.3680 
G01 X1.7804 Y1.3611 
G01 X1.7789 Y1.3538 
G01 X1.7789 Y1.3462 
G01 X1.7804 Y1.3389 
G01 X1.7832 Y1.3320 
G01 X1.7874 Y1.3257 
G01 X1.7927 Y1.3204 
G01 X1.7990 Y1.3162 
G01 X1.8059 Y1.3134 
G01 X1.8132 Y1.3119 
G01 X1.8868 Y1.3119 
G01 X1.8941 Y1.3134 
G01 X1.9010 Y1.3162 
G01 X1.9073 Y1.3204 
G01 X1.9126 Y1.3257 
G01 X1.9168 Y1.3320 
G01 X1.9196 Y1.3389 
G01 X1.9211 Y1.3462 
G01 X1.9211 Y1.3538 
G01 X1.9196 Y1.3611 
G01 X1.9168 Y1.3680 
G01 X1.9126 Y1.3743 
G01 X1.9073 Y1.3796 
G01 X1.9010 Y1.3838 
G01 X1.8941 Y1.3866 
G01 X1.8868 Y1.3881 
G00 Z0.0200 
G00 X1.8868 Y1.2881 
G01 Z-0.0100 F10.00 
G01 X1.8132 Y1.2881 
G01 X1.8059 Y1.2866 
G01 X1.7990 Y1.2838 
G01 X1.7927 Y1.2796 
G01 X1.7874 Y1.2743 
G01 X1.7832 Y1.2680 
G01 X1.7804 Y1.2611 
G01 X1.7789 Y1.2538 
G01 X1.7789 Y1.2462 
G01 X1.7804 Y1.2389 
G01 X1.7832 Y1.2320 
G01 X1.7874 Y1.2257 
G01 X1.7927 Y1.2204 
G01 X1.7990 Y1.2162 
G01 X1.8059 Y1.2134 
G01 X1.8132 Y1.2119 
G01 X1.8868 Y1.2119 
G01 X1.8941 Y1.2134 
G01 X1.9010 Y1.2162 
G01 X1.9073 Y1.2204 
G01 X1.9126 Y1.2257 
G01 X1.9168 Y1.2320 
G01 X1.9196 Y1.2389 
G01 X1.9211 Y1.2462 
G01 X1.9211 Y1.2538 
G01 X1.9196 Y1.2611 
G01 X1.9168 Y1.2680 
G01 X1.9126 Y1.2743 
G01 X1.9073 Y1.2796 
G01 X1.9010 Y1.2838 
G01 X1.8941 Y1.2866 
G01 X1.8868 Y1.2881 
G00 Z0.0200 
G00 X2.1868 Y1.2881 
G01 Z-0.0100 F10.00 
G01 X2.1132 Y1.2881 
G01 X2.1059 Y1.2866 
G01 X2.0990 Y1.2838 
G01 X2.0927 Y1.2796 
G01 X2.0874 Y1.2743 
G01 X2.0832 Y1.2680 
G01 X2.0804 Y1.2611 
G01 X2.0789 Y1.2538 
G01 X2.0789 Y1.2462 
G01 X2.0804 Y1.2389 
G01 X2.0832 Y1.2320 
G01 X2.0874 Y1.2257 
G01 X2.0927 Y1.2204 
G01 X2.0990 Y1.2162 
G01 X2.1059 Y1.2134 
G01 X2.1132 Y1.2119 
G01 X2.1868 Y1.2119 
G01 X2.1941 Y1.2134 
G01 X2.2010 Y1.2162 
G01 X2.2073 Y1.2204 
G01 X2.2126 Y1.2257 
G01 X2.2168 Y1.2320 
G01 X2.2196 Y1.2389 
G01 X2.2211 Y1.2462 
G01 X2.2211 Y1.2538 
G01 X2.2196 Y1.2611 
G01 X2.2168 Y1.2680 
G01 X2.2126 Y1.2743 
G01 X2.2073 Y1.2796 
G01 X2.2010 Y1.2838 
G01 X2.1941 Y1.2866 
G01 X2.1868 Y1.2881 
G00 Z0.0200 
G00 X2.1868 Y1.3881 
G01 Z-0.0100 F10.00 
G01 X2.1132 Y1.3881 
G01 X2.1059 Y1.3866 
G01 X2.0990 Y1.3838 
G01 X2.0927 Y1.3796 
G01 X2.0874 Y1.3743 
G01 X2.0832 Y1.3680 
G01 X2.0804 Y1.3611 
G01 X2.0789 Y1.3538 
G01 X2.0789 Y1.3462 
G01 X2.0804 Y1.3389 
G01 X2.0832 Y1.3320 
G01 X2.0874 Y1.3257 
G01 X2.0927 Y1.3204 
G01 X2.0990 Y1.3162 
G01 X2.1059 Y1.3134 
G01 X2.1132 Y1.3119 
G01 X2.1868 Y1.3119 
G01 X2.1941 Y1.3134 
G01 X2.2010 Y1.3162 
G01 X2.2073 Y1.3204 
G01 X2.2126 Y1.3257 
G01 X2.2168 Y1.3320 
G01 X2.2196 Y1.3389 
G01 X2.2211 Y1.3462 
G01 X2.2211 Y1.3538 
G01 X2.2196 Y1.3611 
G01 X2.2168 Y1.3680 
G01 X2.2126 Y1.3743 
G01 X2.2073 Y1.3796 
G01 X2.2010 Y1.3838 
G01 X2.1941 Y1.3866 
G01 X2.1868 Y1.3881 
G00 Z0.0200 
G00 X2.1868 Y1.4881 
G01 Z-0.0100 F10.00 
G01 X2.1132 Y1.4881 
G01 X2.1059 Y1.4866 
G01 X2.0990 Y1.4838 
G01 X2.0927 Y1.4796 
G01 X2.0874 Y1.4743 
G01 X2.0832 Y1.4680 
G01 X2.0804 Y1.4611 
G01 X2.0789 Y1.4538 
G01 X2.0789 Y1.4462 
G01 X2.0804 Y1.4389 
G01 X2.0832 Y1.4320 
G01 X2.0874 Y1.4257 
G01 X2.0927 Y1.4204 
G01 X2.0990 Y1.4162 
G01 X2.1059 Y1.4134 
G01 X2.1132 Y1.4119 
G01 X2.1868 Y1.4119 
G01 X2.1941 Y1.4134 
G01 X2.2010 Y1.4162 
G01 X2.2073 Y1.4204 
G01 X2.2126 Y1.4257 
G01 X2.2168 Y1.4320 
G01 X2.2196 Y1.4389 
G01 X2.2211 Y1.4462 
G01 X2.2211 Y1.4538 
G01 X2.2196 Y1.4611 
G01 X2.2168 Y1.4680 
G01 X2.2126 Y1.4743 
G01 X2.2073 Y1.4796 
G01 X2.2010 Y1.4838 
G01 X2.1941 Y1.4866 
G01 X2.1868 Y1.4881 
G00 Z0.0200 
G00 X2.1868 Y1.5881 
G01 Z-0.0100 F10.00 
G01 X2.1132 Y1.5881 
G01 X2.1059 Y1.5866 
G01 X2.0990 Y1.5838 
G01 X2.0927 Y1.5796 
G01 X2.0874 Y1.5743 
G01 X2.0832 Y1.5680 
G01 X2.0804 Y1.5611 
G01 X2.0789 Y1.5538 
G01 X2.0789 Y1.5462 
G01 X2.0804 Y1.5389 
G01 X2.0832 Y1.5320 
G01 X2.0874 Y1.5257 
G01 X2.0927 Y1.5204 
G01 X2.0990 Y1.5162 
G01 X2.1059 Y1.5134 
G01 X2.1132 Y1.5119 
G01 X2.1868 Y1.5119 
G01 X2.1941 Y1.5134 
G01 X2.2010 Y1.5162 
G01 X2.2073 Y1.5204 
G01 X2.2126 Y1.5257 
G01 X2.2168 Y1.5320 
G01 X2.2196 Y1.5389 
G01 X2.2211 Y1.5462 
G01 X2.2211 Y1.5538 
G01 X2.2196 Y1.5611 
G01 X2.2168 Y1.5680 
G01 X2.2126 Y1.5743 
G01 X2.2073 Y1.5796 
G01 X2.2010 Y1.5838 
G01 X2.1941 Y1.5866 
G01 X2.1868 Y1.5881 
G00 Z0.0200 
G00 X2.1868 Y1.6881 
G01 Z-0.0100 F10.00 
G01 X2.1132 Y1.6881 
G01 X2.1059 Y1.6866 
G01 X2.0990 Y1.6838 
G01 X2.0927 Y1.6796 
G01 X2.0874 Y1.6743 
G01 X2.0832 Y1.6680 
G01 X2.0804 Y1.6611 
G01 X2.0789 Y1.6538 
G01 X2.0789 Y1.6462 
G01 X2.0804 Y1.6389 
G01 X2.0832 Y1.6320 
G01 X2.0874 Y1.6257 
G01 X2.0927 Y1.6204 
G01 X2.0990 Y1.6162 
G01 X2.1059 Y1.6134 
G01 X2.1132 Y1.6119 
G01 X2.1868 Y1.6119 
G01 X2.1941 Y1.6134 
G01 X2.2010 Y1.6162 
G01 X2.2073 Y1.6204 
G01 X2.2126 Y1.6257 
G01 X2.2168 Y1.6320 
G01 X2.2196 Y1.6389 
G01 X2.2211 Y1.6462 
G01 X2.2211 Y1.6538 
G01 X2.2196 Y1.6611 
G01 X2.2168 Y1.6680 
G01 X2.2126 Y1.6743 
G01 X2.2073 Y1.6796 
G01 X2.2010 Y1.6838 
G01 X2.1941 Y1.6866 
G01 X2.1868 Y1.6881 
G00 Z0.0200 
G00 X2.1868 Y1.7881 
G01 Z-0.0100 F10.00 
G01 X2.1132 Y1.7881 
G01 X2.1059 Y1.7866 
G01 X2.0990 Y1.7838 
G01 X2.0927 Y1.7796 
G01 X2.0874 Y1.7743 
G01 X2.0832 Y1.7680 
G01 X2.0804 Y1.7611 
G01 X2.0789 Y1.7538 
G01 X2.0789 Y1.7462 
G01 X2.0804 Y1.7389 
G01 X2.0832 Y1.7320 
G01 X2.0874 Y1.7257 
G01 X2.0927 Y1.7204 
G01 X2.0990 Y1.7162 
G01 X2.1059 Y1.7134 
G01 X2.1132 Y1.7119 
G01 X2.1868 Y1.7119 
G01 X2.1941 Y1.7134 
G01 X2.2010 Y1.7162 
G01 X2.2073 Y1.7204 
G01 X2.2126 Y1.7257 
G01 X2.2168 Y1.7320 
G01 X2.2196 Y1.7389 
G01 X2.2211 Y1.7462 
G01 X2.2211 Y1.7538 
G01 X2.2196 Y1.7611 
G01 X2.2168 Y1.7680 
G01 X2.2126 Y1.7743 
G01 X2.2073 Y1.7796 
G01 X2.2010 Y1.7838 
G01 X2.1941 Y1.7866 
G01 X2.1868 Y1.7881 
G00 Z0.0200 
G00 X2.1868 Y1.8881 
G01 Z-0.0100 F10.00 
G01 X2.1132 Y1.8881 
G01 X2.1059 Y1.8866 
G01 X2.0990 Y1.8838 
G01 X2.0927 Y1.8796 
G01 X2.0874 Y1.8743 
G01 X2.0832 Y1.8680 
G01 X2.0804 Y1.8611 
G01 X2.0789 Y1.8538 
G01 X2.0789 Y1.8462 
G01 X2.0804 Y1.8389 
G01 X2.0832 Y1.8320 
G01 X2.0874 Y1.8257 
G01 X2.0927 Y1.8204 
G01 X2.0990 Y1.8162 
G01 X2.1059 Y1.8134 
G01 X2.1132 Y1.8119 
G01 X2.1868 Y1.8119 
G01 X2.1941 Y1.8134 
G01 X2.2010 Y1.8162 
G01 X2.2073 Y1.8204 
G01 X2.2126 Y1.8257 
G01 X2.2168 Y1.8320 
G01 X2.2196 Y1.8389 
G01 X2.2211 Y1.8462 
G01 X2.2211 Y1.8538 
G01 X2.2196 Y1.8611 
G01 X2.2168 Y1.8680 
G01 X2.2126 Y1.8743 
G01 X2.2073 Y1.8796 
G01 X2.2010 Y1.8838 
G01 X2.1941 Y1.8866 
G01 X2.1868 Y1.8881 
G00 Z0.0200 
G00 X2.1868 Y1.9881 
G01 Z-0.0100 F10.00 
G01 X2.1132 Y1.9881 
G01 X2.1059 Y1.9866 
G01 X2.0990 Y1.9838 
G01 X2.0927 Y1.9796 
G01 X2.0874 Y1.9743 
G01 X2.0832 Y1.9680 
G01 X2.0804 Y1.9611 
G01 X2.0789 Y1.9538 
G01 X2.0789 Y1.9462 
G01 X2.0804 Y1.9389 
G01 X2.0832 Y1.9320 
G01 X2.0874 Y1.9257 
G01 X2.0927 Y1.9204 
G01 X2.0990 Y1.9162 
G01 X2.1059 Y1.9134 
G01 X2.1132 Y1.9119 
G01 X2.1868 Y1.9119 
G01 X2.1941 Y1.9134 
G01 X2.2010 Y1.9162 
G01 X2.2073 Y1.9204 
G01 X2.2126 Y1.9257 
G01 X2.2168 Y1.9320 
G01 X2.2196 Y1.9389 
G01 X2.2211 Y1.9462 
G01 X2.2211 Y1.9538 
G01 X2.2196 Y1.9611 
G01 X2.2168 Y1.9680 
G01 X2.2126 Y1.9743 
G01 X2.2073 Y1.9796 
G01 X2.2010 Y1.9838 
G01 X2.1941 Y1.9866 
G01 X2.1868 Y1.9881 
G00 Z0.0200 
G00 X2.1868 Y2.0881 
G01 Z-0.0100 F10.00 
G01 X2.1132 Y2.0881 
G01 X2.1059 Y2.0866 
G01 X2.0990 Y2.0838 
G01 X2.0927 Y2.0796 
G01 X2.0874 Y2.0743 
G01 X2.0832 Y2.0680 
G01 X2.0804 Y2.0611 
G01 X2.0789 Y2.0538 
G01 X2.0789 Y2.0462 
G01 X2.0804 Y2.0389 
G01 X2.0832 Y2.0320 
G01 X2.0874 Y2.0257 
G01 X2.0927 Y2.0204 
G01 X2.0990 Y2.0162 
G01 X2.1059 Y2.0134 
G01 X2.1132 Y2.0119 
G01 X2.1868 Y2.0119 
G01 X2.1941 Y2.0134 
G01 X2.2010 Y2.0162 
G01 X2.2073 Y2.0204 
G01 X2.2126 Y2.0257 
G01 X2.2168 Y2.0320 
G01 X2.2196 Y2.0389 
G01 X2.2211 Y2.0462 
G01 X2.2211 Y2.0538 
G01 X2.2196 Y2.0611 
G01 X2.2168 Y2.0680 
G01 X2.2126 Y2.0743 
G01 X2.2073 Y2.0796 
G01 X2.2010 Y2.0838 
G01 X2.1941 Y2.0866 
G01 X2.1868 Y2.0881 
G00 Z0.0200 
G00 X2.1868 Y2.1881 
G01 Z-0.0100 F10.00 
G01 X2.1132 Y2.1881 
G01 X2.1059 Y2.1866 
G01 X2.0990 Y2.1838 
G01 X2.0927 Y2.1796 
G01 X2.0874 Y2.1743 
G01 X2.0832 Y2.1680 
G01 X2.0804 Y2.1611 
G01 X2.0789 Y2.1538 
G01 X2.0789 Y2.1462 
G01 X2.0804 Y2.1389 
G01 X2.0832 Y2.1320 
G01 X2.0874 Y2.1257 
G01 X2.0927 Y2.1204 
G01 X2.0990 Y2.1162 
G01 X2.1059 Y2.1134 
G01 X2.1132 Y2.1119 
G01 X2.1868 Y2.1119 
G01 X2.1941 Y2.1134 
G01 X2.2010 Y2.1162 
G01 X2.2073 Y2.1204 
G01 X2.2126 Y2.1257 
G01 X2.2168 Y2.1320 
G01 X2.2196 Y2.1389 
G01 X2.2211 Y2.1462 
G01 X2.2211 Y2.1538 
G01 X2.2196 Y2.1611 
G01 X2.2168 Y2.1680 
G01 X2.2126 Y2.1743 
G01 X2.2073 Y2.1796 
G01 X2.2010 Y2.1838 
G01 X2.1941 Y2.1866 
G01 X2.1868 Y2.1881 
G00 Z0.0200 
G00 X2.1868 Y2.2881 
G01 Z-0.0100 F10.00 
G01 X2.1132 Y2.2881 
G01 X2.1059 Y2.2866 
G01 X2.0990 Y2.2838 
G01 X2.0927 Y2.2796 
G01 X2.0874 Y2.2743 
G01 X2.0832 Y2.2680 
G01 X2.0804 Y2.2611 
G01 X2.0789 Y2.2538 
G01 X2.0789 Y2.2462 
G01 X2.0804 Y2.2389 
G01 X2.0832 Y2.2320 
G01 X2.0874 Y2.2257 
G01 X2.0927 Y2.2204 
G01 X2.0990 Y2.2162 
G01 X2.1059 Y2.2134 
G01 X2.1132 Y2.2119 
G01 X2.1868 Y2.2119 
G01 X2.1941 Y2.2134 
G01 X2.2010 Y2.2162 
G01 X2.2073 Y2.2204 
G01 X2.2126 Y2.2257 
G01 X2.2168 Y2.2320 
G01 X2.2196 Y2.2389 
G01 X2.2211 Y2.2462 
G01 X2.2211 Y2.2538 
G01 X2.2196 Y2.2611 
G01 X2.2168 Y2.2680 
G01 X2.2126 Y2.2743 
G01 X2.2073 Y2.2796 
G01 X2.2010 Y2.2838 
G01 X2.1941 Y2.2866 
G01 X2.1868 Y2.2881 
G00 Z0.0200 
G00 X2.1868 Y2.3881 
G01 Z-0.0100 F10.00 
G01 X2.1132 Y2.3881 
G01 X2.1059 Y2.3866 
G01 X2.0990 Y2.3838 
G01 X2.0927 Y2.3796 
G01 X2.0874 Y2.3743 
G01 X2.0832 Y2.3680 
G01 X2.0804 Y2.3611 
G01 X2.0789 Y2.3538 
G01 X2.0789 Y2.3462 
G01 X2.0804 Y2.3389 
G01 X2.0832 Y2.3320 
G01 X2.0874 Y2.3257 
G01 X2.0927 Y2.3204 
G01 X2.0990 Y2.3162 
G01 X2.1059 Y2.3134 
G01 X2.1132 Y2.3119 
G01 X2.1868 Y2.3119 
G01 X2.1941 Y2.3134 
G01 X2.2010 Y2.3162 
G01 X2.2073 Y2.3204 
G01 X2.2126 Y2.3257 
G01 X2.2168 Y2.3320 
G01 X2.2196 Y2.3389 
G01 X2.2211 Y2.3462 
G01 X2.2211 Y2.3538 
G01 X2.2196 Y2.3611 
G01 X2.2168 Y2.3680 
G01 X2.2126 Y2.3743 
G01 X2.2073 Y2.3796 
G01 X2.2010 Y2.3838 
G01 X2.1941 Y2.3866 
G01 X2.1868 Y2.3881 
G00 Z0.0200 
G00 X2.1868 Y2.4881 
G01 Z-0.0100 F10.00 
G01 X2.1132 Y2.4881 
G01 X2.1059 Y2.4866 
G01 X2.0990 Y2.4838 
G01 X2.0927 Y2.4796 
G01 X2.0874 Y2.4743 
G01 X2.0832 Y2.4680 
G01 X2.0804 Y2.4611 
G01 X2.0789 Y2.4538 
G01 X2.0789 Y2.4462 
G01 X2.0804 Y2.4389 
G01 X2.0832 Y2.4320 
G01 X2.0874 Y2.4257 
G01 X2.0927 Y2.4204 
G01 X2.0990 Y2.4162 
G01 X2.1059 Y2.4134 
G01 X2.1132 Y2.4119 
G01 X2.1868 Y2.4119 
G01 X2.1941 Y2.4134 
G01 X2.2010 Y2.4162 
G01 X2.2073 Y2.4204 
G01 X2.2126 Y2.4257 
G01 X2.2168 Y2.4320 
G01 X2.2196 Y2.4389 
G01 X2.2211 Y2.4462 
G01 X2.2211 Y2.4538 
G01 X2.2196 Y2.4611 
G01 X2.2168 Y2.4680 
G01 X2.2126 Y2.4743 
G01 X2.2073 Y2.4796 
G01 X2.2010 Y2.4838 
G01 X2.1941 Y2.4866 
G01 X2.1868 Y2.4881 
G00 Z0.0200 
G00 X2.1868 Y2.5881 
G01 Z-0.0100 F10.00 
G01 X2.1132 Y2.5881 
G01 X2.1059 Y2.5866 
G01 X2.0990 Y2.5838 
G01 X2.0927 Y2.5796 
G01 X2.0874 Y2.5743 
G01 X2.0832 Y2.5680 
G01 X2.0804 Y2.5611 
G01 X2.0789 Y2.5538 
G01 X2.0789 Y2.5462 
G01 X2.0804 Y2.5389 
G01 X2.0832 Y2.5320 
G01 X2.0874 Y2.5257 
G01 X2.0927 Y2.5204 
G01 X2.0990 Y2.5162 
G01 X2.1059 Y2.5134 
G01 X2.1132 Y2.5119 
G01 X2.1868 Y2.5119 
G01 X2.1941 Y2.5134 
G01 X2.2010 Y2.5162 
G01 X2.2073 Y2.5204 
G01 X2.2126 Y2.5257 
G01 X2.2168 Y2.5320 
G01 X2.2196 Y2.5389 
G01 X2.2211 Y2.5462 
G01 X2.2211 Y2.5538 
G01 X2.2196 Y2.5611 
G01 X2.2168 Y2.5680 
G01 X2.2126 Y2.5743 
G01 X2.2073 Y2.5796 
G01 X2.2010 Y2.5838 
G01 X2.1941 Y2.5866 
G01 X2.1868 Y2.5881 
G00 Z0.0200 
G00 X1.6551 Y1.3772 
G01 Z-0.0100 F10.00 
G01 X1.6551 Y1.4228 
G01 X1.6228 Y1.4551 
G01 X1.5772 Y1.4551 
G01 X1.5449 Y1.4228 
G01 X1.5449 Y1.3772 
G01 X1.5772 Y1.3449 
G01 X1.6228 Y1.3449 
G01 X1.6551 Y1.3772 
G00 Z0.0200 
G00 X1.6551 Y1.5772 
G01 Z-0.0100 F10.00 
G01 X1.6551 Y1.6228 
G01 X1.6228 Y1.6551 
G01 X1.5772 Y1.6551 
G01 X1.5449 Y1.6228 
G01 X1.5449 Y1.5772 
G01 X1.5772 Y1.5449 
G01 X1.6228 Y1.5449 
G01 X1.6551 Y1.5772 
G00 Z0.0200 
G00 X1.4551 Y1.4272 
G01 Z-0.0100 F10.00 
G01 X1.4551 Y1.4728 
G01 X1.4228 Y1.5051 
G01 X1.3772 Y1.5051 
G01 X1.3449 Y1.4728 
G01 X1.3449 Y1.4272 
G01 X1.3772 Y1.3949 
G01 X1.4228 Y1.3949 
G01 X1.4551 Y1.4272 
G00 Z0.0200 
G00 X1.2551 Y1.4272 
G01 Z-0.0100 F10.00 
G01 X1.2551 Y1.4728 
G01 X1.2228 Y1.5051 
G01 X1.1772 Y1.5051 
G01 X1.1449 Y1.4728 
G01 X1.1449 Y1.4272 
G01 X1.1772 Y1.3949 
G01 X1.2228 Y1.3949 
G01 X1.2551 Y1.4272 
G00 Z0.0200 
G00 X1.4551 Y1.5772 
G01 Z-0.0100 F10.00 
G01 X1.4551 Y1.6228 
G01 X1.4228 Y1.6551 
G01 X1.3772 Y1.6551 
G01 X1.3449 Y1.6228 
G01 X1.3449 Y1.5772 
G01 X1.3772 Y1.5449 
G01 X1.4228 Y1.5449 
G01 X1.4551 Y1.5772 
G00 Z0.0200 
G00 X1.2551 Y1.5772 
G01 Z-0.0100 F10.00 
G01 X1.2551 Y1.6228 
G01 X1.2228 Y1.6551 
G01 X1.1772 Y1.6551 
G01 X1.1449 Y1.6228 
G01 X1.1449 Y1.5772 
G01 X1.1772 Y1.5449 
G01 X1.2228 Y1.5449 
G01 X1.2551 Y1.5772 
G00 Z0.0200 
G00 X1.7551 Y2.0272 
G01 Z-0.0100 F10.00 
G01 X1.7551 Y2.0728 
G01 X1.7228 Y2.1051 
G01 X1.6772 Y2.1051 
G01 X1.6449 Y2.0728 
G01 X1.6449 Y2.0272 
G01 X1.6772 Y1.9949 
G01 X1.7228 Y1.9949 
G01 X1.7551 Y2.0272 
G00 Z0.0200 
G00 X1.7551 Y1.8272 
G01 Z-0.0100 F10.00 
G01 X1.7551 Y1.8728 
G01 X1.7228 Y1.9051 
G01 X1.6772 Y1.9051 
G01 X1.6449 Y1.8728 
G01 X1.6449 Y1.8272 
G01 X1.6772 Y1.7949 
G01 X1.7228 Y1.7949 
G01 X1.7551 Y1.8272 
G00 Z0.0200 
G00 X1.1981 Y1.2301 
G01 Z-0.0100 F10.00 
G01 X1.1981 Y1.2699 
G01 X1.1699 Y1.2981 
G01 X1.1301 Y1.2981 
G01 X1.1019 Y1.2699 
G01 X1.1019 Y1.2301 
G01 X1.1301 Y1.2019 
G01 X1.1699 Y1.2019 
G01 X1.1981 Y1.2301 
G00 Z0.0200 
G00 X1.0981 Y1.2301 
G01 Z-0.0100 F10.00 
G01 X1.0981 Y1.2699 
G01 X1.0699 Y1.2981 
G01 X1.0301 Y1.2981 
G01 X1.0019 Y1.2699 
G01 X1.0019 Y1.2301 
G01 X1.0301 Y1.2019 
G01 X1.0699 Y1.2019 
G01 X1.0981 Y1.2301 
G00 Z0.0200 
G00 X1.4051 Y1.1772 
G01 Z-0.0100 F10.00 
G01 X1.4051 Y1.2228 
G01 X1.3728 Y1.2551 
G01 X1.3272 Y1.2551 
G01 X1.2949 Y1.2228 
G01 X1.2949 Y1.1772 
G01 X1.3272 Y1.1449 
G01 X1.3728 Y1.1449 
G01 X1.4051 Y1.1772 
G00 Z0.0200 
G00 X1.7051 Y1.1772 
G01 Z-0.0100 F10.00 
G01 X1.7051 Y1.2228 
G01 X1.6728 Y1.2551 
G01 X1.6272 Y1.2551 
G01 X1.5949 Y1.2228 
G01 X1.5949 Y1.1772 
G01 X1.6272 Y1.1449 
G01 X1.6728 Y1.1449 
G01 X1.7051 Y1.1772 
G00 Z0.0200 
G00 X0.2889 Y2.2401 
G01 Z-0.0100 F10.00 
G01 X0.2110 Y2.2401 
G01 X0.2033 Y2.2386 
G01 X0.1960 Y2.2355 
G01 X0.1894 Y2.2311 
G01 X0.1839 Y2.2256 
G01 X0.1795 Y2.2190 
G01 X0.1764 Y2.2117 
G01 X0.1749 Y2.2039 
G01 X0.1749 Y2.1960 
G01 X0.1764 Y2.1883 
G01 X0.1795 Y2.1810 
G01 X0.1839 Y2.1744 
G01 X0.1894 Y2.1689 
G01 X0.1960 Y2.1645 
G01 X0.2033 Y2.1614 
G01 X0.2110 Y2.1599 
G01 X0.2889 Y2.1599 
G01 X0.2967 Y2.1614 
G01 X0.3040 Y2.1645 
G01 X0.3106 Y2.1689 
G01 X0.3161 Y2.1744 
G01 X0.3205 Y2.1810 
G01 X0.3236 Y2.1883 
G01 X0.3251 Y2.1960 
G01 X0.3251 Y2.2039 
G01 X0.3236 Y2.2117 
G01 X0.3205 Y2.2190 
G01 X0.3161 Y2.2256 
G01 X0.3106 Y2.2311 
G01 X0.3040 Y2.2355 
G01 X0.2967 Y2.2386 
G01 X0.2889 Y2.2401 
G00 Z0.0200 
G00 X0.2889 Y2.1401 
G01 Z-0.0100 F10.00 
G01 X0.2110 Y2.1401 
G01 X0.2033 Y2.1386 
G01 X0.1960 Y2.1355 
G01 X0.1894 Y2.1311 
G01 X0.1839 Y2.1256 
G01 X0.1795 Y2.1190 
G01 X0.1764 Y2.1117 
G01 X0.1749 Y2.1039 
G01 X0.1749 Y2.0960 
G01 X0.1764 Y2.0883 
G01 X0.1795 Y2.0810 
G01 X0.1839 Y2.0744 
G01 X0.1894 Y2.0689 
G01 X0.1960 Y2.0645 
G01 X0.2033 Y2.0614 
G01 X0.2110 Y2.0599 
G01 X0.2889 Y2.0599 
G01 X0.2967 Y2.0614 
G01 X0.3040 Y2.0645 
G01 X0.3106 Y2.0689 
G01 X0.3161 Y2.0744 
G01 X0.3205 Y2.0810 
G01 X0.3236 Y2.0883 
G01 X0.3251 Y2.0960 
G01 X0.3251 Y2.1039 
G01 X0.3236 Y2.1117 
G01 X0.3205 Y2.1190 
G01 X0.3161 Y2.1256 
G01 X0.3106 Y2.1311 
G01 X0.3040 Y2.1355 
G01 X0.2967 Y2.1386 
G01 X0.2889 Y2.1401 
G00 Z0.0200 
G00 X0.2889 Y2.0401 
G01 Z-0.0100 F10.00 
G01 X0.2110 Y2.0401 
G01 X0.2033 Y2.0386 
G01 X0.1960 Y2.0355 
G01 X0.1894 Y2.0311 
G01 X0.1839 Y2.0256 
G01 X0.1795 Y2.0190 
G01 X0.1764 Y2.0117 
G01 X0.1749 Y2.0039 
G01 X0.1749 Y1.9960 
G01 X0.1764 Y1.9883 
G01 X0.1795 Y1.9810 
G01 X0.1839 Y1.9744 
G01 X0.1894 Y1.9689 
G01 X0.1960 Y1.9645 
G01 X0.2033 Y1.9614 
G01 X0.2110 Y1.9599 
G01 X0.2889 Y1.9599 
G01 X0.2967 Y1.9614 
G01 X0.3040 Y1.9645 
G01 X0.3106 Y1.9689 
G01 X0.3161 Y1.9744 
G01 X0.3205 Y1.9810 
G01 X0.3236 Y1.9883 
G01 X0.3251 Y1.9960 
G01 X0.3251 Y2.0039 
G01 X0.3236 Y2.0117 
G01 X0.3205 Y2.0190 
G01 X0.3161 Y2.0256 
G01 X0.3106 Y2.0311 
G01 X0.3040 Y2.0355 
G01 X0.2967 Y2.0386 
G01 X0.2889 Y2.0401 
G00 Z0.0200 
G00 X0.2889 Y1.9401 
G01 Z-0.0100 F10.00 
G01 X0.2110 Y1.9401 
G01 X0.2033 Y1.9386 
G01 X0.1960 Y1.9355 
G01 X0.1894 Y1.9311 
G01 X0.1839 Y1.9256 
G01 X0.1795 Y1.9190 
G01 X0.1764 Y1.9117 
G01 X0.1749 Y1.9039 
G01 X0.1749 Y1.8960 
G01 X0.1764 Y1.8883 
G01 X0.1795 Y1.8810 
G01 X0.1839 Y1.8744 
G01 X0.1894 Y1.8689 
G01 X0.1960 Y1.8645 
G01 X0.2033 Y1.8614 
G01 X0.2110 Y1.8599 
G01 X0.2889 Y1.8599 
G01 X0.2967 Y1.8614 
G01 X0.3040 Y1.8645 
G01 X0.3106 Y1.8689 
G01 X0.3161 Y1.8744 
G01 X0.3205 Y1.8810 
G01 X0.3236 Y1.8883 
G01 X0.3251 Y1.8960 
G01 X0.3251 Y1.9039 
G01 X0.3236 Y1.9117 
G01 X0.3205 Y1.9190 
G01 X0.3161 Y1.9256 
G01 X0.3106 Y1.9311 
G01 X0.3040 Y1.9355 
G01 X0.2967 Y1.9386 
G01 X0.2889 Y1.9401 
G00 Z0.0200 
G00 X0.2889 Y1.8401 
G01 Z-0.0100 F10.00 
G01 X0.2110 Y1.8401 
G01 X0.2033 Y1.8386 
G01 X0.1960 Y1.8355 
G01 X0.1894 Y1.8311 
G01 X0.1839 Y1.8256 
G01 X0.1795 Y1.8190 
G01 X0.1764 Y1.8117 
G01 X0.1749 Y1.8039 
G01 X0.1749 Y1.7960 
G01 X0.1764 Y1.7883 
G01 X0.1795 Y1.7810 
G01 X0.1839 Y1.7744 
G01 X0.1894 Y1.7689 
G01 X0.1960 Y1.7645 
G01 X0.2033 Y1.7614 
G01 X0.2110 Y1.7599 
G01 X0.2889 Y1.7599 
G01 X0.2967 Y1.7614 
G01 X0.3040 Y1.7645 
G01 X0.3106 Y1.7689 
G01 X0.3161 Y1.7744 
G01 X0.3205 Y1.7810 
G01 X0.3236 Y1.7883 
G01 X0.3251 Y1.7960 
G01 X0.3251 Y1.8039 
G01 X0.3236 Y1.8117 
G01 X0.3205 Y1.8190 
G01 X0.3161 Y1.8256 
G01 X0.3106 Y1.8311 
G01 X0.3040 Y1.8355 
G01 X0.2967 Y1.8386 
G01 X0.2889 Y1.8401 
G00 Z0.0200 
G00 X0.2889 Y1.7401 
G01 Z-0.0100 F10.00 
G01 X0.2110 Y1.7401 
G01 X0.2033 Y1.7386 
G01 X0.1960 Y1.7355 
G01 X0.1894 Y1.7311 
G01 X0.1839 Y1.7256 
G01 X0.1795 Y1.7190 
G01 X0.1764 Y1.7117 
G01 X0.1749 Y1.7039 
G01 X0.1749 Y1.6960 
G01 X0.1764 Y1.6883 
G01 X0.1795 Y1.6810 
G01 X0.1839 Y1.6744 
G01 X0.1894 Y1.6689 
G01 X0.1960 Y1.6645 
G01 X0.2033 Y1.6614 
G01 X0.2110 Y1.6599 
G01 X0.2889 Y1.6599 
G01 X0.2967 Y1.6614 
G01 X0.3040 Y1.6645 
G01 X0.3106 Y1.6689 
G01 X0.3161 Y1.6744 
G01 X0.3205 Y1.6810 
G01 X0.3236 Y1.6883 
G01 X0.3251 Y1.6960 
G01 X0.3251 Y1.7039 
G01 X0.3236 Y1.7117 
G01 X0.3205 Y1.7190 
G01 X0.3161 Y1.7256 
G01 X0.3106 Y1.7311 
G01 X0.3040 Y1.7355 
G01 X0.2967 Y1.7386 
G01 X0.2889 Y1.7401 
G00 Z0.0200 
G00 X0.5051 Y1.9772 
G01 Z-0.0100 F10.00 
G01 X0.5051 Y2.0228 
G01 X0.4728 Y2.0551 
G01 X0.4272 Y2.0551 
G01 X0.3949 Y2.0228 
G01 X0.3949 Y1.9772 
G01 X0.4272 Y1.9449 
G01 X0.4728 Y1.9449 
G01 X0.5051 Y1.9772 
G00 Z0.0200 
G00 X0.5051 Y1.7772 
G01 Z-0.0100 F10.00 
G01 X0.5051 Y1.8228 
G01 X0.4728 Y1.8551 
G01 X0.4272 Y1.8551 
G01 X0.3949 Y1.8228 
G01 X0.3949 Y1.7772 
G01 X0.4272 Y1.7449 
G01 X0.4728 Y1.7449 
G01 X0.5051 Y1.7772 
G00 Z0.0200 
G00 X2.7791 Y2.7811 
G01 Z-0.0100 F10.00 
G01 X2.7209 Y2.7811 
G01 X2.7149 Y2.7799 
G01 X2.7093 Y2.7776 
G01 X2.7042 Y2.7741 
G01 X2.6998 Y2.7698 
G01 X2.6964 Y2.7647 
G01 X2.6941 Y2.7591 
G01 X2.6929 Y2.7531 
G01 X2.6929 Y2.7469 
G01 X2.6941 Y2.7409 
G01 X2.6964 Y2.7353 
G01 X2.6998 Y2.7302 
G01 X2.7042 Y2.7258 
G01 X2.7093 Y2.7224 
G01 X2.7149 Y2.7201 
G01 X2.7209 Y2.7189 
G01 X2.7791 Y2.7189 
G01 X2.7851 Y2.7201 
G01 X2.7907 Y2.7224 
G01 X2.7958 Y2.7258 
G01 X2.8001 Y2.7302 
G01 X2.8036 Y2.7353 
G01 X2.8059 Y2.7409 
G01 X2.8071 Y2.7469 
G01 X2.8071 Y2.7531 
G01 X2.8059 Y2.7591 
G01 X2.8036 Y2.7647 
G01 X2.8001 Y2.7698 
G01 X2.7958 Y2.7741 
G01 X2.7907 Y2.7776 
G01 X2.7851 Y2.7799 
G01 X2.7791 Y2.7811 
G00 Z0.0200 
G00 X2.7791 Y2.6811 
G01 Z-0.0100 F10.00 
G01 X2.7209 Y2.6811 
G01 X2.7149 Y2.6799 
G01 X2.7093 Y2.6776 
G01 X2.7042 Y2.6741 
G01 X2.6998 Y2.6698 
G01 X2.6964 Y2.6647 
G01 X2.6941 Y2.6591 
G01 X2.6929 Y2.6531 
G01 X2.6929 Y2.6469 
G01 X2.6941 Y2.6409 
G01 X2.6964 Y2.6353 
G01 X2.6998 Y2.6302 
G01 X2.7042 Y2.6258 
G01 X2.7093 Y2.6224 
G01 X2.7149 Y2.6201 
G01 X2.7209 Y2.6189 
G01 X2.7791 Y2.6189 
G01 X2.7851 Y2.6201 
G01 X2.7907 Y2.6224 
G01 X2.7958 Y2.6258 
G01 X2.8001 Y2.6302 
G01 X2.8036 Y2.6353 
G01 X2.8059 Y2.6409 
G01 X2.8071 Y2.6469 
G01 X2.8071 Y2.6531 
G01 X2.8059 Y2.6591 
G01 X2.8036 Y2.6647 
G01 X2.8001 Y2.6698 
G01 X2.7958 Y2.6741 
G01 X2.7907 Y2.6776 
G01 X2.7851 Y2.6799 
G01 X2.7791 Y2.6811 
G00 Z0.0200 
G00 X2.7791 Y2.1811 
G01 Z-0.0100 F10.00 
G01 X2.7209 Y2.1811 
G01 X2.7149 Y2.1799 
G01 X2.7093 Y2.1776 
G01 X2.7042 Y2.1741 
G01 X2.6998 Y2.1698 
G01 X2.6964 Y2.1647 
G01 X2.6941 Y2.1591 
G01 X2.6929 Y2.1531 
G01 X2.6929 Y2.1469 
G01 X2.6941 Y2.1409 
G01 X2.6964 Y2.1353 
G01 X2.6998 Y2.1302 
G01 X2.7042 Y2.1258 
G01 X2.7093 Y2.1224 
G01 X2.7149 Y2.1201 
G01 X2.7209 Y2.1189 
G01 X2.7791 Y2.1189 
G01 X2.7851 Y2.1201 
G01 X2.7907 Y2.1224 
G01 X2.7958 Y2.1258 
G01 X2.8001 Y2.1302 
G01 X2.8036 Y2.1353 
G01 X2.8059 Y2.1409 
G01 X2.8071 Y2.1469 
G01 X2.8071 Y2.1531 
G01 X2.8059 Y2.1591 
G01 X2.8036 Y2.1647 
G01 X2.8001 Y2.1698 
G01 X2.7958 Y2.1741 
G01 X2.7907 Y2.1776 
G01 X2.7851 Y2.1799 
G01 X2.7791 Y2.1811 
G00 Z0.0200 
G00 X2.7791 Y2.0811 
G01 Z-0.0100 F10.00 
G01 X2.7209 Y2.0811 
G01 X2.7149 Y2.0799 
G01 X2.7093 Y2.0776 
G01 X2.7042 Y2.0741 
G01 X2.6998 Y2.0698 
G01 X2.6964 Y2.0647 
G01 X2.6941 Y2.0591 
G01 X2.6929 Y2.0531 
G01 X2.6929 Y2.0469 
G01 X2.6941 Y2.0409 
G01 X2.6964 Y2.0353 
G01 X2.6998 Y2.0302 
G01 X2.7042 Y2.0258 
G01 X2.7093 Y2.0224 
G01 X2.7149 Y2.0201 
G01 X2.7209 Y2.0189 
G01 X2.7791 Y2.0189 
G01 X2.7851 Y2.0201 
G01 X2.7907 Y2.0224 
G01 X2.7958 Y2.0258 
G01 X2.8001 Y2.0302 
G01 X2.8036 Y2.0353 
G01 X2.8059 Y2.0409 
G01 X2.8071 Y2.0469 
G01 X2.8071 Y2.0531 
G01 X2.8059 Y2.0591 
G01 X2.8036 Y2.0647 
G01 X2.8001 Y2.0698 
G01 X2.7958 Y2.0741 
G01 X2.7907 Y2.0776 
G01 X2.7851 Y2.0799 
G01 X2.7791 Y2.0811 
G00 Z0.0200 
G00 X2.7791 Y2.5811 
G01 Z-0.0100 F10.00 
G01 X2.7209 Y2.5811 
G01 X2.7149 Y2.5799 
G01 X2.7093 Y2.5776 
G01 X2.7042 Y2.5741 
G01 X2.6998 Y2.5698 
G01 X2.6964 Y2.5647 
G01 X2.6941 Y2.5591 
G01 X2.6929 Y2.5531 
G01 X2.6929 Y2.5469 
G01 X2.6941 Y2.5409 
G01 X2.6964 Y2.5353 
G01 X2.6998 Y2.5302 
G01 X2.7042 Y2.5258 
G01 X2.7093 Y2.5224 
G01 X2.7149 Y2.5201 
G01 X2.7209 Y2.5189 
G01 X2.7791 Y2.5189 
G01 X2.7851 Y2.5201 
G01 X2.7907 Y2.5224 
G01 X2.7958 Y2.5258 
G01 X2.8001 Y2.5302 
G01 X2.8036 Y2.5353 
G01 X2.8059 Y2.5409 
G01 X2.8071 Y2.5469 
G01 X2.8071 Y2.5531 
G01 X2.8059 Y2.5591 
G01 X2.8036 Y2.5647 
G01 X2.8001 Y2.5698 
G01 X2.7958 Y2.5741 
G01 X2.7907 Y2.5776 
G01 X2.7851 Y2.5799 
G01 X2.7791 Y2.5811 
G00 Z0.0200 
G00 X2.7791 Y2.4811 
G01 Z-0.0100 F10.00 
G01 X2.7209 Y2.4811 
G01 X2.7149 Y2.4799 
G01 X2.7093 Y2.4776 
G01 X2.7042 Y2.4741 
G01 X2.6998 Y2.4698 
G01 X2.6964 Y2.4647 
G01 X2.6941 Y2.4591 
G01 X2.6929 Y2.4531 
G01 X2.6929 Y2.4469 
G01 X2.6941 Y2.4409 
G01 X2.6964 Y2.4353 
G01 X2.6998 Y2.4302 
G01 X2.7042 Y2.4258 
G01 X2.7093 Y2.4224 
G01 X2.7149 Y2.4201 
G01 X2.7209 Y2.4189 
G01 X2.7791 Y2.4189 
G01 X2.7851 Y2.4201 
G01 X2.7907 Y2.4224 
G01 X2.7958 Y2.4258 
G01 X2.8001 Y2.4302 
G01 X2.8036 Y2.4353 
G01 X2.8059 Y2.4409 
G01 X2.8071 Y2.4469 
G01 X2.8071 Y2.4531 
G01 X2.8059 Y2.4591 
G01 X2.8036 Y2.4647 
G01 X2.8001 Y2.4698 
G01 X2.7958 Y2.4741 
G01 X2.7907 Y2.4776 
G01 X2.7851 Y2.4799 
G01 X2.7791 Y2.4811 
G00 Z0.0200 
G00 X2.7791 Y2.2811 
G01 Z-0.0100 F10.00 
G01 X2.7209 Y2.2811 
G01 X2.7149 Y2.2799 
G01 X2.7093 Y2.2776 
G01 X2.7042 Y2.2741 
G01 X2.6998 Y2.2698 
G01 X2.6964 Y2.2647 
G01 X2.6941 Y2.2591 
G01 X2.6929 Y2.2531 
G01 X2.6929 Y2.2469 
G01 X2.6941 Y2.2409 
G01 X2.6964 Y2.2353 
G01 X2.6998 Y2.2302 
G01 X2.7042 Y2.2258 
G01 X2.7093 Y2.2224 
G01 X2.7149 Y2.2201 
G01 X2.7209 Y2.2189 
G01 X2.7791 Y2.2189 
G01 X2.7851 Y2.2201 
G01 X2.7907 Y2.2224 
G01 X2.7958 Y2.2258 
G01 X2.8001 Y2.2302 
G01 X2.8036 Y2.2353 
G01 X2.8059 Y2.2409 
G01 X2.8071 Y2.2469 
G01 X2.8071 Y2.2531 
G01 X2.8059 Y2.2591 
G01 X2.8036 Y2.2647 
G01 X2.8001 Y2.2698 
G01 X2.7958 Y2.2741 
G01 X2.7907 Y2.2776 
G01 X2.7851 Y2.2799 
G01 X2.7791 Y2.2811 
G00 Z0.0200 
G00 X2.7791 Y2.3811 
G01 Z-0.0100 F10.00 
G01 X2.7209 Y2.3811 
G01 X2.7149 Y2.3799 
G01 X2.7093 Y2.3776 
G01 X2.7042 Y2.3741 
G01 X2.6998 Y2.3698 
G01 X2.6964 Y2.3647 
G01 X2.6941 Y2.3591 
G01 X2.6929 Y2.3531 
G01 X2.6929 Y2.3469 
G01 X2.6941 Y2.3409 
G01 X2.6964 Y2.3353 
G01 X2.6998 Y2.3302 
G01 X2.7042 Y2.3258 
G01 X2.7093 Y2.3224 
G01 X2.7149 Y2.3201 
G01 X2.7209 Y2.3189 
G01 X2.7791 Y2.3189 
G01 X2.7851 Y2.3201 
G01 X2.7907 Y2.3224 
G01 X2.7958 Y2.3258 
G01 X2.8001 Y2.3302 
G01 X2.8036 Y2.3353 
G01 X2.8059 Y2.3409 
G01 X2.8071 Y2.3469 
G01 X2.8071 Y2.3531 
G01 X2.8059 Y2.3591 
G01 X2.8036 Y2.3647 
G01 X2.8001 Y2.3698 
G01 X2.7958 Y2.3741 
G01 X2.7907 Y2.3776 
G01 X2.7851 Y2.3799 
G01 X2.7791 Y2.3811 
G00 Z0.0200 
G00 X2.7791 Y1.9811 
G01 Z-0.0100 F10.00 
G01 X2.7209 Y1.9811 
G01 X2.7149 Y1.9799 
G01 X2.7093 Y1.9776 
G01 X2.7042 Y1.9741 
G01 X2.6998 Y1.9698 
G01 X2.6964 Y1.9647 
G01 X2.6941 Y1.9591 
G01 X2.6929 Y1.9531 
G01 X2.6929 Y1.9469 
G01 X2.6941 Y1.9409 
G01 X2.6964 Y1.9353 
G01 X2.6998 Y1.9302 
G01 X2.7042 Y1.9258 
G01 X2.7093 Y1.9224 
G01 X2.7149 Y1.9201 
G01 X2.7209 Y1.9189 
G01 X2.7791 Y1.9189 
G01 X2.7851 Y1.9201 
G01 X2.7907 Y1.9224 
G01 X2.7958 Y1.9258 
G01 X2.8001 Y1.9302 
G01 X2.8036 Y1.9353 
G01 X2.8059 Y1.9409 
G01 X2.8071 Y1.9469 
G01 X2.8071 Y1.9531 
G01 X2.8059 Y1.9591 
G01 X2.8036 Y1.9647 
G01 X2.8001 Y1.9698 
G01 X2.7958 Y1.9741 
G01 X2.7907 Y1.9776 
G01 X2.7851 Y1.9799 
G01 X2.7791 Y1.9811 
G00 Z0.0200 
G00 X3.0791 Y1.9811 
G01 Z-0.0100 F10.00 
G01 X3.0209 Y1.9811 
G01 X3.0149 Y1.9799 
G01 X3.0093 Y1.9776 
G01 X3.0042 Y1.9741 
G01 X2.9998 Y1.9698 
G01 X2.9964 Y1.9647 
G01 X2.9941 Y1.9591 
G01 X2.9929 Y1.9531 
G01 X2.9929 Y1.9469 
G01 X2.9941 Y1.9409 
G01 X2.9964 Y1.9353 
G01 X2.9998 Y1.9302 
G01 X3.0042 Y1.9258 
G01 X3.0093 Y1.9224 
G01 X3.0149 Y1.9201 
G01 X3.0209 Y1.9189 
G01 X3.0791 Y1.9189 
G01 X3.0851 Y1.9201 
G01 X3.0907 Y1.9224 
G01 X3.0958 Y1.9258 
G01 X3.1001 Y1.9302 
G01 X3.1036 Y1.9353 
G01 X3.1059 Y1.9409 
G01 X3.1071 Y1.9469 
G01 X3.1071 Y1.9531 
G01 X3.1059 Y1.9591 
G01 X3.1036 Y1.9647 
G01 X3.1001 Y1.9698 
G01 X3.0958 Y1.9741 
G01 X3.0907 Y1.9776 
G01 X3.0851 Y1.9799 
G01 X3.0791 Y1.9811 
G00 Z0.0200 
G00 X3.0791 Y2.0811 
G01 Z-0.0100 F10.00 
G01 X3.0209 Y2.0811 
G01 X3.0149 Y2.0799 
G01 X3.0093 Y2.0776 
G01 X3.0042 Y2.0741 
G01 X2.9998 Y2.0698 
G01 X2.9964 Y2.0647 
G01 X2.9941 Y2.0591 
G01 X2.9929 Y2.0531 
G01 X2.9929 Y2.0469 
G01 X2.9941 Y2.0409 
G01 X2.9964 Y2.0353 
G01 X2.9998 Y2.0302 
G01 X3.0042 Y2.0258 
G01 X3.0093 Y2.0224 
G01 X3.0149 Y2.0201 
G01 X3.0209 Y2.0189 
G01 X3.0791 Y2.0189 
G01 X3.0851 Y2.0201 
G01 X3.0907 Y2.0224 
G01 X3.0958 Y2.0258 
G01 X3.1001 Y2.0302 
G01 X3.1036 Y2.0353 
G01 X3.1059 Y2.0409 
G01 X3.1071 Y2.0469 
G01 X3.1071 Y2.0531 
G01 X3.1059 Y2.0591 
G01 X3.1036 Y2.0647 
G01 X3.1001 Y2.0698 
G01 X3.0958 Y2.0741 
G01 X3.0907 Y2.0776 
G01 X3.0851 Y2.0799 
G01 X3.0791 Y2.0811 
G00 Z0.0200 
G00 X3.0791 Y2.1811 
G01 Z-0.0100 F10.00 
G01 X3.0209 Y2.1811 
G01 X3.0149 Y2.1799 
G01 X3.0093 Y2.1776 
G01 X3.0042 Y2.1741 
G01 X2.9998 Y2.1698 
G01 X2.9964 Y2.1647 
G01 X2.9941 Y2.1591 
G01 X2.9929 Y2.1531 
G01 X2.9929 Y2.1469 
G01 X2.9941 Y2.1409 
G01 X2.9964 Y2.1353 
G01 X2.9998 Y2.1302 
G01 X3.0042 Y2.1258 
G01 X3.0093 Y2.1224 
G01 X3.0149 Y2.1201 
G01 X3.0209 Y2.1189 
G01 X3.0791 Y2.1189 
G01 X3.0851 Y2.1201 
G01 X3.0907 Y2.1224 
G01 X3.0958 Y2.1258 
G01 X3.1001 Y2.1302 
G01 X3.1036 Y2.1353 
G01 X3.1059 Y2.1409 
G01 X3.1071 Y2.1469 
G01 X3.1071 Y2.1531 
G01 X3.1059 Y2.1591 
G01 X3.1036 Y2.1647 
G01 X3.1001 Y2.1698 
G01 X3.0958 Y2.1741 
G01 X3.0907 Y2.1776 
G01 X3.0851 Y2.1799 
G01 X3.0791 Y2.1811 
G00 Z0.0200 
G00 X3.0791 Y2.2811 
G01 Z-0.0100 F10.00 
G01 X3.0209 Y2.2811 
G01 X3.0149 Y2.2799 
G01 X3.0093 Y2.2776 
G01 X3.0042 Y2.2741 
G01 X2.9998 Y2.2698 
G01 X2.9964 Y2.2647 
G01 X2.9941 Y2.2591 
G01 X2.9929 Y2.2531 
G01 X2.9929 Y2.2469 
G01 X2.9941 Y2.2409 
G01 X2.9964 Y2.2353 
G01 X2.9998 Y2.2302 
G01 X3.0042 Y2.2258 
G01 X3.0093 Y2.2224 
G01 X3.0149 Y2.2201 
G01 X3.0209 Y2.2189 
G01 X3.0791 Y2.2189 
G01 X3.0851 Y2.2201 
G01 X3.0907 Y2.2224 
G01 X3.0958 Y2.2258 
G01 X3.1001 Y2.2302 
G01 X3.1036 Y2.2353 
G01 X3.1059 Y2.2409 
G01 X3.1071 Y2.2469 
G01 X3.1071 Y2.2531 
G01 X3.1059 Y2.2591 
G01 X3.1036 Y2.2647 
G01 X3.1001 Y2.2698 
G01 X3.0958 Y2.2741 
G01 X3.0907 Y2.2776 
G01 X3.0851 Y2.2799 
G01 X3.0791 Y2.2811 
G00 Z0.0200 
G00 X3.0791 Y2.3811 
G01 Z-0.0100 F10.00 
G01 X3.0209 Y2.3811 
G01 X3.0149 Y2.3799 
G01 X3.0093 Y2.3776 
G01 X3.0042 Y2.3741 
G01 X2.9998 Y2.3698 
G01 X2.9964 Y2.3647 
G01 X2.9941 Y2.3591 
G01 X2.9929 Y2.3531 
G01 X2.9929 Y2.3469 
G01 X2.9941 Y2.3409 
G01 X2.9964 Y2.3353 
G01 X2.9998 Y2.3302 
G01 X3.0042 Y2.3258 
G01 X3.0093 Y2.3224 
G01 X3.0149 Y2.3201 
G01 X3.0209 Y2.3189 
G01 X3.0791 Y2.3189 
G01 X3.0851 Y2.3201 
G01 X3.0907 Y2.3224 
G01 X3.0958 Y2.3258 
G01 X3.1001 Y2.3302 
G01 X3.1036 Y2.3353 
G01 X3.1059 Y2.3409 
G01 X3.1071 Y2.3469 
G01 X3.1071 Y2.3531 
G01 X3.1059 Y2.3591 
G01 X3.1036 Y2.3647 
G01 X3.1001 Y2.3698 
G01 X3.0958 Y2.3741 
G01 X3.0907 Y2.3776 
G01 X3.0851 Y2.3799 
G01 X3.0791 Y2.3811 
G00 Z0.0200 
G00 X3.0791 Y2.4811 
G01 Z-0.0100 F10.00 
G01 X3.0209 Y2.4811 
G01 X3.0149 Y2.4799 
G01 X3.0093 Y2.4776 
G01 X3.0042 Y2.4741 
G01 X2.9998 Y2.4698 
G01 X2.9964 Y2.4647 
G01 X2.9941 Y2.4591 
G01 X2.9929 Y2.4531 
G01 X2.9929 Y2.4469 
G01 X2.9941 Y2.4409 
G01 X2.9964 Y2.4353 
G01 X2.9998 Y2.4302 
G01 X3.0042 Y2.4258 
G01 X3.0093 Y2.4224 
G01 X3.0149 Y2.4201 
G01 X3.0209 Y2.4189 
G01 X3.0791 Y2.4189 
G01 X3.0851 Y2.4201 
G01 X3.0907 Y2.4224 
G01 X3.0958 Y2.4258 
G01 X3.1001 Y2.4302 
G01 X3.1036 Y2.4353 
G01 X3.1059 Y2.4409 
G01 X3.1071 Y2.4469 
G01 X3.1071 Y2.4531 
G01 X3.1059 Y2.4591 
G01 X3.1036 Y2.4647 
G01 X3.1001 Y2.4698 
G01 X3.0958 Y2.4741 
G01 X3.0907 Y2.4776 
G01 X3.0851 Y2.4799 
G01 X3.0791 Y2.4811 
G00 Z0.0200 
G00 X3.0791 Y2.5811 
G01 Z-0.0100 F10.00 
G01 X3.0209 Y2.5811 
G01 X3.0149 Y2.5799 
G01 X3.0093 Y2.5776 
G01 X3.0042 Y2.5741 
G01 X2.9998 Y2.5698 
G01 X2.9964 Y2.5647 
G01 X2.9941 Y2.5591 
G01 X2.9929 Y2.5531 
G01 X2.9929 Y2.5469 
G01 X2.9941 Y2.5409 
G01 X2.9964 Y2.5353 
G01 X2.9998 Y2.5302 
G01 X3.0042 Y2.5258 
G01 X3.0093 Y2.5224 
G01 X3.0149 Y2.5201 
G01 X3.0209 Y2.5189 
G01 X3.0791 Y2.5189 
G01 X3.0851 Y2.5201 
G01 X3.0907 Y2.5224 
G01 X3.0958 Y2.5258 
G01 X3.1001 Y2.5302 
G01 X3.1036 Y2.5353 
G01 X3.1059 Y2.5409 
G01 X3.1071 Y2.5469 
G01 X3.1071 Y2.5531 
G01 X3.1059 Y2.5591 
G01 X3.1036 Y2.5647 
G01 X3.1001 Y2.5698 
G01 X3.0958 Y2.5741 
G01 X3.0907 Y2.5776 
G01 X3.0851 Y2.5799 
G01 X3.0791 Y2.5811 
G00 Z0.0200 
G00 X3.0791 Y2.6811 
G01 Z-0.0100 F10.00 
G01 X3.0209 Y2.6811 
G01 X3.0149 Y2.6799 
G01 X3.0093 Y2.6776 
G01 X3.0042 Y2.6741 
G01 X2.9998 Y2.6698 
G01 X2.9964 Y2.6647 
G01 X2.9941 Y2.6591 
G01 X2.9929 Y2.6531 
G01 X2.9929 Y2.6469 
G01 X2.9941 Y2.6409 
G01 X2.9964 Y2.6353 
G01 X2.9998 Y2.6302 
G01 X3.0042 Y2.6258 
G01 X3.0093 Y2.6224 
G01 X3.0149 Y2.6201 
G01 X3.0209 Y2.6189 
G01 X3.0791 Y2.6189 
G01 X3.0851 Y2.6201 
G01 X3.0907 Y2.6224 
G01 X3.0958 Y2.6258 
G01 X3.1001 Y2.6302 
G01 X3.1036 Y2.6353 
G01 X3.1059 Y2.6409 
G01 X3.1071 Y2.6469 
G01 X3.1071 Y2.6531 
G01 X3.1059 Y2.6591 
G01 X3.1036 Y2.6647 
G01 X3.1001 Y2.6698 
G01 X3.0958 Y2.6741 
G01 X3.0907 Y2.6776 
G01 X3.0851 Y2.6799 
G01 X3.0791 Y2.6811 
G00 Z0.0200 
G00 X3.0791 Y2.7811 
G01 Z-0.0100 F10.00 
G01 X3.0209 Y2.7811 
G01 X3.0149 Y2.7799 
G01 X3.0093 Y2.7776 
G01 X3.0042 Y2.7741 
G01 X2.9998 Y2.7698 
G01 X2.9964 Y2.7647 
G01 X2.9941 Y2.7591 
G01 X2.9929 Y2.7531 
G01 X2.9929 Y2.7469 
G01 X2.9941 Y2.7409 
G01 X2.9964 Y2.7353 
G01 X2.9998 Y2.7302 
G01 X3.0042 Y2.7258 
G01 X3.0093 Y2.7224 
G01 X3.0149 Y2.7201 
G01 X3.0209 Y2.7189 
G01 X3.0791 Y2.7189 
G01 X3.0851 Y2.7201 
G01 X3.0907 Y2.7224 
G01 X3.0958 Y2.7258 
G01 X3.1001 Y2.7302 
G01 X3.1036 Y2.7353 
G01 X3.1059 Y2.7409 
G01 X3.1071 Y2.7469 
G01 X3.1071 Y2.7531 
G01 X3.1059 Y2.7591 
G01 X3.1036 Y2.7647 
G01 X3.1001 Y2.7698 
G01 X3.0958 Y2.7741 
G01 X3.0907 Y2.7776 
G01 X3.0851 Y2.7799 
G01 X3.0791 Y2.7811 
G00 Z0.0200 
G00 X1.5149 Y2.8335 
G01 Z-0.0100 F10.00 
G01 X1.5149 Y2.7665 
G01 X1.5163 Y2.7598 
G01 X1.5189 Y2.7534 
G01 X1.5227 Y2.7476 
G01 X1.5276 Y2.7427 
G01 X1.5334 Y2.7389 
G01 X1.5398 Y2.7363 
G01 X1.5465 Y2.7349 
G01 X1.5535 Y2.7349 
G01 X1.5602 Y2.7363 
G01 X1.5666 Y2.7389 
G01 X1.5724 Y2.7427 
G01 X1.5773 Y2.7476 
G01 X1.5811 Y2.7534 
G01 X1.5837 Y2.7598 
G01 X1.5851 Y2.7665 
G01 X1.5851 Y2.8335 
G01 X1.5837 Y2.8402 
G01 X1.5811 Y2.8466 
G01 X1.5773 Y2.8524 
G01 X1.5724 Y2.8573 
G01 X1.5666 Y2.8611 
G01 X1.5602 Y2.8637 
G01 X1.5535 Y2.8651 
G01 X1.5465 Y2.8651 
G01 X1.5398 Y2.8637 
G01 X1.5334 Y2.8611 
G01 X1.5276 Y2.8573 
G01 X1.5227 Y2.8524 
G01 X1.5189 Y2.8466 
G01 X1.5163 Y2.8402 
G01 X1.5149 Y2.8335 
G00 Z0.0200 
G00 X1.6149 Y2.8335 
G01 Z-0.0100 F10.00 
G01 X1.6149 Y2.7665 
G01 X1.6163 Y2.7598 
G01 X1.6189 Y2.7534 
G01 X1.6227 Y2.7476 
G01 X1.6276 Y2.7427 
G01 X1.6334 Y2.7389 
G01 X1.6398 Y2.7363 
G01 X1.6465 Y2.7349 
G01 X1.6535 Y2.7349 
G01 X1.6602 Y2.7363 
G01 X1.6666 Y2.7389 
G01 X1.6724 Y2.7427 
G01 X1.6773 Y2.7476 
G01 X1.6811 Y2.7534 
G01 X1.6837 Y2.7598 
G01 X1.6851 Y2.7665 
G01 X1.6851 Y2.8335 
G01 X1.6837 Y2.8402 
G01 X1.6811 Y2.8466 
G01 X1.6773 Y2.8524 
G01 X1.6724 Y2.8573 
G01 X1.6666 Y2.8611 
G01 X1.6602 Y2.8637 
G01 X1.6535 Y2.8651 
G01 X1.6465 Y2.8651 
G01 X1.6398 Y2.8637 
G01 X1.6334 Y2.8611 
G01 X1.6276 Y2.8573 
G01 X1.6227 Y2.8524 
G01 X1.6189 Y2.8466 
G01 X1.6163 Y2.8402 
G01 X1.6149 Y2.8335 
G00 Z0.0200 
G00 X1.7149 Y2.8335 
G01 Z-0.0100 F10.00 
G01 X1.7149 Y2.7665 
G01 X1.7163 Y2.7598 
G01 X1.7189 Y2.7534 
G01 X1.7227 Y2.7476 
G01 X1.7276 Y2.7427 
G01 X1.7334 Y2.7389 
G01 X1.7398 Y2.7363 
G01 X1.7465 Y2.7349 
G01 X1.7535 Y2.7349 
G01 X1.7602 Y2.7363 
G01 X1.7666 Y2.7389 
G01 X1.7724 Y2.7427 
G01 X1.7773 Y2.7476 
G01 X1.7811 Y2.7534 
G01 X1.7837 Y2.7598 
G01 X1.7851 Y2.7665 
G01 X1.7851 Y2.8335 
G01 X1.7837 Y2.8402 
G01 X1.7811 Y2.8466 
G01 X1.7773 Y2.8524 
G01 X1.7724 Y2.8573 
G01 X1.7666 Y2.8611 
G01 X1.7602 Y2.8637 
G01 X1.7535 Y2.8651 
G01 X1.7465 Y2.8651 
G01 X1.7398 Y2.8637 
G01 X1.7334 Y2.8611 
G01 X1.7276 Y2.8573 
G01 X1.7227 Y2.8524 
G01 X1.7189 Y2.8466 
G01 X1.7163 Y2.8402 
G01 X1.7149 Y2.8335 
G00 Z0.0200 
G00 X3.6389 Y2.8401 
G01 Z-0.0100 F10.00 
G01 X3.5610 Y2.8401 
G01 X3.5533 Y2.8386 
G01 X3.5460 Y2.8355 
G01 X3.5394 Y2.8311 
G01 X3.5339 Y2.8256 
G01 X3.5295 Y2.8190 
G01 X3.5264 Y2.8117 
G01 X3.5249 Y2.8039 
G01 X3.5249 Y2.7960 
G01 X3.5264 Y2.7883 
G01 X3.5295 Y2.7810 
G01 X3.5339 Y2.7744 
G01 X3.5394 Y2.7689 
G01 X3.5460 Y2.7645 
G01 X3.5533 Y2.7614 
G01 X3.5610 Y2.7599 
G01 X3.6389 Y2.7599 
G01 X3.6467 Y2.7614 
G01 X3.6540 Y2.7645 
G01 X3.6606 Y2.7689 
G01 X3.6661 Y2.7744 
G01 X3.6705 Y2.7810 
G01 X3.6736 Y2.7883 
G01 X3.6751 Y2.7960 
G01 X3.6751 Y2.8039 
G01 X3.6736 Y2.8117 
G01 X3.6705 Y2.8190 
G01 X3.6661 Y2.8256 
G01 X3.6606 Y2.8311 
G01 X3.6540 Y2.8355 
G01 X3.6467 Y2.8386 
G01 X3.6389 Y2.8401 
G00 Z0.0200 
G00 X3.6389 Y2.7401 
G01 Z-0.0100 F10.00 
G01 X3.5610 Y2.7401 
G01 X3.5533 Y2.7386 
G01 X3.5460 Y2.7355 
G01 X3.5394 Y2.7311 
G01 X3.5339 Y2.7256 
G01 X3.5295 Y2.7190 
G01 X3.5264 Y2.7117 
G01 X3.5249 Y2.7039 
G01 X3.5249 Y2.6960 
G01 X3.5264 Y2.6883 
G01 X3.5295 Y2.6810 
G01 X3.5339 Y2.6744 
G01 X3.5394 Y2.6689 
G01 X3.5460 Y2.6645 
G01 X3.5533 Y2.6614 
G01 X3.5610 Y2.6599 
G01 X3.6389 Y2.6599 
G01 X3.6467 Y2.6614 
G01 X3.6540 Y2.6645 
G01 X3.6606 Y2.6689 
G01 X3.6661 Y2.6744 
G01 X3.6705 Y2.6810 
G01 X3.6736 Y2.6883 
G01 X3.6751 Y2.6960 
G01 X3.6751 Y2.7039 
G01 X3.6736 Y2.7117 
G01 X3.6705 Y2.7190 
G01 X3.6661 Y2.7256 
G01 X3.6606 Y2.7311 
G01 X3.6540 Y2.7355 
G01 X3.6467 Y2.7386 
G01 X3.6389 Y2.7401 
G00 Z0.0200 
G00 X3.6389 Y2.6401 
G01 Z-0.0100 F10.00 
G01 X3.5610 Y2.6401 
G01 X3.5533 Y2.6386 
G01 X3.5460 Y2.6355 
G01 X3.5394 Y2.6311 
G01 X3.5339 Y2.6256 
G01 X3.5295 Y2.6190 
G01 X3.5264 Y2.6117 
G01 X3.5249 Y2.6039 
G01 X3.5249 Y2.5960 
G01 X3.5264 Y2.5883 
G01 X3.5295 Y2.5810 
G01 X3.5339 Y2.5744 
G01 X3.5394 Y2.5689 
G01 X3.5460 Y2.5645 
G01 X3.5533 Y2.5614 
G01 X3.5610 Y2.5599 
G01 X3.6389 Y2.5599 
G01 X3.6467 Y2.5614 
G01 X3.6540 Y2.5645 
G01 X3.6606 Y2.5689 
G01 X3.6661 Y2.5744 
G01 X3.6705 Y2.5810 
G01 X3.6736 Y2.5883 
G01 X3.6751 Y2.5960 
G01 X3.6751 Y2.6039 
G01 X3.6736 Y2.6117 
G01 X3.6705 Y2.6190 
G01 X3.6661 Y2.6256 
G01 X3.6606 Y2.6311 
G01 X3.6540 Y2.6355 
G01 X3.6467 Y2.6386 
G01 X3.6389 Y2.6401 
G00 Z0.0200 
G00 X3.6389 Y2.5401 
G01 Z-0.0100 F10.00 
G01 X3.5610 Y2.5401 
G01 X3.5533 Y2.5386 
G01 X3.5460 Y2.5355 
G01 X3.5394 Y2.5311 
G01 X3.5339 Y2.5256 
G01 X3.5295 Y2.5190 
G01 X3.5264 Y2.5117 
G01 X3.5249 Y2.5039 
G01 X3.5249 Y2.4960 
G01 X3.5264 Y2.4883 
G01 X3.5295 Y2.4810 
G01 X3.5339 Y2.4744 
G01 X3.5394 Y2.4689 
G01 X3.5460 Y2.4645 
G01 X3.5533 Y2.4614 
G01 X3.5610 Y2.4599 
G01 X3.6389 Y2.4599 
G01 X3.6467 Y2.4614 
G01 X3.6540 Y2.4645 
G01 X3.6606 Y2.4689 
G01 X3.6661 Y2.4744 
G01 X3.6705 Y2.4810 
G01 X3.6736 Y2.4883 
G01 X3.6751 Y2.4960 
G01 X3.6751 Y2.5039 
G01 X3.6736 Y2.5117 
G01 X3.6705 Y2.5190 
G01 X3.6661 Y2.5256 
G01 X3.6606 Y2.5311 
G01 X3.6540 Y2.5355 
G01 X3.6467 Y2.5386 
G01 X3.6389 Y2.5401 
G00 Z0.0200 
G00 X3.6389 Y2.4401 
G01 Z-0.0100 F10.00 
G01 X3.5610 Y2.4401 
G01 X3.5533 Y2.4386 
G01 X3.5460 Y2.4355 
G01 X3.5394 Y2.4311 
G01 X3.5339 Y2.4256 
G01 X3.5295 Y2.4190 
G01 X3.5264 Y2.4117 
G01 X3.5249 Y2.4039 
G01 X3.5249 Y2.3960 
G01 X3.5264 Y2.3883 
G01 X3.5295 Y2.3810 
G01 X3.5339 Y2.3744 
G01 X3.5394 Y2.3689 
G01 X3.5460 Y2.3645 
G01 X3.5533 Y2.3614 
G01 X3.5610 Y2.3599 
G01 X3.6389 Y2.3599 
G01 X3.6467 Y2.3614 
G01 X3.6540 Y2.3645 
G01 X3.6606 Y2.3689 
G01 X3.6661 Y2.3744 
G01 X3.6705 Y2.3810 
G01 X3.6736 Y2.3883 
G01 X3.6751 Y2.3960 
G01 X3.6751 Y2.4039 
G01 X3.6736 Y2.4117 
G01 X3.6705 Y2.4190 
G01 X3.6661 Y2.4256 
G01 X3.6606 Y2.4311 
G01 X3.6540 Y2.4355 
G01 X3.6467 Y2.4386 
G01 X3.6389 Y2.4401 
G00 Z0.0200 
G00 X3.6389 Y2.3401 
G01 Z-0.0100 F10.00 
G01 X3.5610 Y2.3401 
G01 X3.5533 Y2.3386 
G01 X3.5460 Y2.3355 
G01 X3.5394 Y2.3311 
G01 X3.5339 Y2.3256 
G01 X3.5295 Y2.3190 
G01 X3.5264 Y2.3117 
G01 X3.5249 Y2.3039 
G01 X3.5249 Y2.2960 
G01 X3.5264 Y2.2883 
G01 X3.5295 Y2.2810 
G01 X3.5339 Y2.2744 
G01 X3.5394 Y2.2689 
G01 X3.5460 Y2.2645 
G01 X3.5533 Y2.2614 
G01 X3.5610 Y2.2599 
G01 X3.6389 Y2.2599 
G01 X3.6467 Y2.2614 
G01 X3.6540 Y2.2645 
G01 X3.6606 Y2.2689 
G01 X3.6661 Y2.2744 
G01 X3.6705 Y2.2810 
G01 X3.6736 Y2.2883 
G01 X3.6751 Y2.2960 
G01 X3.6751 Y2.3039 
G01 X3.6736 Y2.3117 
G01 X3.6705 Y2.3190 
G01 X3.6661 Y2.3256 
G01 X3.6606 Y2.3311 
G01 X3.6540 Y2.3355 
G01 X3.6467 Y2.3386 
G01 X3.6389 Y2.3401 
G00 Z0.0200 
G00 X3.6389 Y2.1901 
G01 Z-0.0100 F10.00 
G01 X3.5610 Y2.1901 
G01 X3.5533 Y2.1886 
G01 X3.5460 Y2.1855 
G01 X3.5394 Y2.1811 
G01 X3.5339 Y2.1756 
G01 X3.5295 Y2.1690 
G01 X3.5264 Y2.1617 
G01 X3.5249 Y2.1539 
G01 X3.5249 Y2.1460 
G01 X3.5264 Y2.1383 
G01 X3.5295 Y2.1310 
G01 X3.5339 Y2.1244 
G01 X3.5394 Y2.1189 
G01 X3.5460 Y2.1145 
G01 X3.5533 Y2.1114 
G01 X3.5610 Y2.1099 
G01 X3.6389 Y2.1099 
G01 X3.6467 Y2.1114 
G01 X3.6540 Y2.1145 
G01 X3.6606 Y2.1189 
G01 X3.6661 Y2.1244 
G01 X3.6705 Y2.1310 
G01 X3.6736 Y2.1383 
G01 X3.6751 Y2.1460 
G01 X3.6751 Y2.1539 
G01 X3.6736 Y2.1617 
G01 X3.6705 Y2.1690 
G01 X3.6661 Y2.1756 
G01 X3.6606 Y2.1811 
G01 X3.6540 Y2.1855 
G01 X3.6467 Y2.1886 
G01 X3.6389 Y2.1901 
G00 Z0.0200 
G00 X3.6389 Y2.0901 
G01 Z-0.0100 F10.00 
G01 X3.5610 Y2.0901 
G01 X3.5533 Y2.0886 
G01 X3.5460 Y2.0855 
G01 X3.5394 Y2.0811 
G01 X3.5339 Y2.0756 
G01 X3.5295 Y2.0690 
G01 X3.5264 Y2.0617 
G01 X3.5249 Y2.0539 
G01 X3.5249 Y2.0460 
G01 X3.5264 Y2.0383 
G01 X3.5295 Y2.0310 
G01 X3.5339 Y2.0244 
G01 X3.5394 Y2.0189 
G01 X3.5460 Y2.0145 
G01 X3.5533 Y2.0114 
G01 X3.5610 Y2.0099 
G01 X3.6389 Y2.0099 
G01 X3.6467 Y2.0114 
G01 X3.6540 Y2.0145 
G01 X3.6606 Y2.0189 
G01 X3.6661 Y2.0244 
G01 X3.6705 Y2.0310 
G01 X3.6736 Y2.0383 
G01 X3.6751 Y2.0460 
G01 X3.6751 Y2.0539 
G01 X3.6736 Y2.0617 
G01 X3.6705 Y2.0690 
G01 X3.6661 Y2.0756 
G01 X3.6606 Y2.0811 
G01 X3.6540 Y2.0855 
G01 X3.6467 Y2.0886 
G01 X3.6389 Y2.0901 
G00 Z0.0200 
G00 X3.6389 Y1.9901 
G01 Z-0.0100 F10.00 
G01 X3.5610 Y1.9901 
G01 X3.5533 Y1.9886 
G01 X3.5460 Y1.9855 
G01 X3.5394 Y1.9811 
G01 X3.5339 Y1.9756 
G01 X3.5295 Y1.9690 
G01 X3.5264 Y1.9617 
G01 X3.5249 Y1.9539 
G01 X3.5249 Y1.9460 
G01 X3.5264 Y1.9383 
G01 X3.5295 Y1.9310 
G01 X3.5339 Y1.9244 
G01 X3.5394 Y1.9189 
G01 X3.5460 Y1.9145 
G01 X3.5533 Y1.9114 
G01 X3.5610 Y1.9099 
G01 X3.6389 Y1.9099 
G01 X3.6467 Y1.9114 
G01 X3.6540 Y1.9145 
G01 X3.6606 Y1.9189 
G01 X3.6661 Y1.9244 
G01 X3.6705 Y1.9310 
G01 X3.6736 Y1.9383 
G01 X3.6751 Y1.9460 
G01 X3.6751 Y1.9539 
G01 X3.6736 Y1.9617 
G01 X3.6705 Y1.9690 
G01 X3.6661 Y1.9756 
G01 X3.6606 Y1.9811 
G01 X3.6540 Y1.9855 
G01 X3.6467 Y1.9886 
G01 X3.6389 Y1.9901 
G00 Z0.0200 
G00 X3.6389 Y1.8901 
G01 Z-0.0100 F10.00 
G01 X3.5610 Y1.8901 
G01 X3.5533 Y1.8886 
G01 X3.5460 Y1.8855 
G01 X3.5394 Y1.8811 
G01 X3.5339 Y1.8756 
G01 X3.5295 Y1.8690 
G01 X3.5264 Y1.8617 
G01 X3.5249 Y1.8539 
G01 X3.5249 Y1.8460 
G01 X3.5264 Y1.8383 
G01 X3.5295 Y1.8310 
G01 X3.5339 Y1.8244 
G01 X3.5394 Y1.8189 
G01 X3.5460 Y1.8145 
G01 X3.5533 Y1.8114 
G01 X3.5610 Y1.8099 
G01 X3.6389 Y1.8099 
G01 X3.6467 Y1.8114 
G01 X3.6540 Y1.8145 
G01 X3.6606 Y1.8189 
G01 X3.6661 Y1.8244 
G01 X3.6705 Y1.8310 
G01 X3.6736 Y1.8383 
G01 X3.6751 Y1.8460 
G01 X3.6751 Y1.8539 
G01 X3.6736 Y1.8617 
G01 X3.6705 Y1.8690 
G01 X3.6661 Y1.8756 
G01 X3.6606 Y1.8811 
G01 X3.6540 Y1.8855 
G01 X3.6467 Y1.8886 
G01 X3.6389 Y1.8901 
G00 Z0.0200 
G00 X3.6389 Y1.7901 
G01 Z-0.0100 F10.00 
G01 X3.5610 Y1.7901 
G01 X3.5533 Y1.7886 
G01 X3.5460 Y1.7855 
G01 X3.5394 Y1.7811 
G01 X3.5339 Y1.7756 
G01 X3.5295 Y1.7690 
G01 X3.5264 Y1.7617 
G01 X3.5249 Y1.7539 
G01 X3.5249 Y1.7460 
G01 X3.5264 Y1.7383 
G01 X3.5295 Y1.7310 
G01 X3.5339 Y1.7244 
G01 X3.5394 Y1.7189 
G01 X3.5460 Y1.7145 
G01 X3.5533 Y1.7114 
G01 X3.5610 Y1.7099 
G01 X3.6389 Y1.7099 
G01 X3.6467 Y1.7114 
G01 X3.6540 Y1.7145 
G01 X3.6606 Y1.7189 
G01 X3.6661 Y1.7244 
G01 X3.6705 Y1.7310 
G01 X3.6736 Y1.7383 
G01 X3.6751 Y1.7460 
G01 X3.6751 Y1.7539 
G01 X3.6736 Y1.7617 
G01 X3.6705 Y1.7690 
G01 X3.6661 Y1.7756 
G01 X3.6606 Y1.7811 
G01 X3.6540 Y1.7855 
G01 X3.6467 Y1.7886 
G01 X3.6389 Y1.7901 
G00 Z0.0200 
G00 X3.6389 Y1.6901 
G01 Z-0.0100 F10.00 
G01 X3.5610 Y1.6901 
G01 X3.5533 Y1.6886 
G01 X3.5460 Y1.6855 
G01 X3.5394 Y1.6811 
G01 X3.5339 Y1.6756 
G01 X3.5295 Y1.6690 
G01 X3.5264 Y1.6617 
G01 X3.5249 Y1.6539 
G01 X3.5249 Y1.6460 
G01 X3.5264 Y1.6383 
G01 X3.5295 Y1.6310 
G01 X3.5339 Y1.6244 
G01 X3.5394 Y1.6189 
G01 X3.5460 Y1.6145 
G01 X3.5533 Y1.6114 
G01 X3.5610 Y1.6099 
G01 X3.6389 Y1.6099 
G01 X3.6467 Y1.6114 
G01 X3.6540 Y1.6145 
G01 X3.6606 Y1.6189 
G01 X3.6661 Y1.6244 
G01 X3.6705 Y1.6310 
G01 X3.6736 Y1.6383 
G01 X3.6751 Y1.6460 
G01 X3.6751 Y1.6539 
G01 X3.6736 Y1.6617 
G01 X3.6705 Y1.6690 
G01 X3.6661 Y1.6756 
G01 X3.6606 Y1.6811 
G01 X3.6540 Y1.6855 
G01 X3.6467 Y1.6886 
G01 X3.6389 Y1.6901 
G00 Z0.0200 
G00 X1.3401 Y2.5734 
G01 Z-0.0100 F10.00 
G01 X1.3401 Y2.6066 
G01 X1.3166 Y2.6301 
G01 X1.2834 Y2.6301 
G01 X1.2599 Y2.6066 
G01 X1.2599 Y2.5734 
G01 X1.2834 Y2.5499 
G01 X1.2951 Y2.5499 
G01 X1.2883 Y2.5486 
G01 X1.2810 Y2.5455 
G01 X1.2744 Y2.5411 
G01 X1.2689 Y2.5356 
G01 X1.2645 Y2.5290 
G01 X1.2614 Y2.5217 
G01 X1.2599 Y2.5139 
G01 X1.2599 Y2.5060 
G01 X1.2614 Y2.4983 
G01 X1.2645 Y2.4910 
G01 X1.2689 Y2.4844 
G01 X1.2744 Y2.4789 
G01 X1.2810 Y2.4745 
G01 X1.2883 Y2.4714 
G01 X1.2960 Y2.4699 
G01 X1.3039 Y2.4699 
G01 X1.3117 Y2.4714 
G01 X1.3190 Y2.4745 
G01 X1.3256 Y2.4789 
G01 X1.3311 Y2.4844 
G01 X1.3355 Y2.4910 
G01 X1.3386 Y2.4983 
G01 X1.3401 Y2.5060 
G01 X1.3401 Y2.5139 
G01 X1.3386 Y2.5217 
G01 X1.3355 Y2.5290 
G01 X1.3311 Y2.5356 
G01 X1.3256 Y2.5411 
G01 X1.3190 Y2.5455 
G01 X1.3117 Y2.5486 
G01 X1.3049 Y2.5499 
G01 X1.3166 Y2.5499 
G01 X1.3401 Y2.5734 
G00 Z0.0200 
G00 X2.9051 Y1.1957 
G01 Z-0.0100 F10.00 
G01 X2.9051 Y1.2043 
G01 X2.9037 Y1.2129 
G01 X2.9011 Y1.2211 
G01 X2.8971 Y1.2289 
G01 X2.8920 Y1.2359 
G01 X2.8859 Y1.2420 
G01 X2.8789 Y1.2471 
G01 X2.8711 Y1.2511 
G01 X2.8629 Y1.2537 
G01 X2.8543 Y1.2551 
G01 X2.8457 Y1.2551 
G01 X2.8371 Y1.2537 
G01 X2.8289 Y1.2511 
G01 X2.8211 Y1.2471 
G01 X2.8141 Y1.2420 
G01 X2.8080 Y1.2359 
G01 X2.8029 Y1.2289 
G01 X2.7989 Y1.2211 
G01 X2.7963 Y1.2129 
G01 X2.7949 Y1.2043 
G01 X2.7949 Y1.1957 
G01 X2.7963 Y1.1871 
G01 X2.7989 Y1.1789 
G01 X2.8029 Y1.1711 
G01 X2.8080 Y1.1641 
G01 X2.8141 Y1.1580 
G01 X2.8211 Y1.1529 
G01 X2.8289 Y1.1489 
G01 X2.8371 Y1.1463 
G01 X2.8457 Y1.1449 
G01 X2.8543 Y1.1449 
G01 X2.8629 Y1.1463 
G01 X2.8711 Y1.1489 
G01 X2.8789 Y1.1529 
G01 X2.8859 Y1.1580 
G01 X2.8920 Y1.1641 
G01 X2.8971 Y1.1711 
G01 X2.9011 Y1.1789 
G01 X2.9037 Y1.1871 
G01 X2.9051 Y1.1957 
G00 Z0.0200 
G00 X3.3051 Y1.1957 
G01 Z-0.0100 F10.00 
G01 X3.3051 Y1.2043 
G01 X3.3037 Y1.2129 
G01 X3.3011 Y1.2211 
G01 X3.2971 Y1.2289 
G01 X3.2920 Y1.2359 
G01 X3.2859 Y1.2420 
G01 X3.2789 Y1.2471 
G01 X3.2711 Y1.2511 
G01 X3.2629 Y1.2537 
G01 X3.2543 Y1.2551 
G01 X3.2457 Y1.2551 
G01 X3.2371 Y1.2537 
G01 X3.2289 Y1.2511 
G01 X3.2211 Y1.2471 
G01 X3.2141 Y1.2420 
G01 X3.2080 Y1.2359 
G01 X3.2029 Y1.2289 
G01 X3.1989 Y1.2211 
G01 X3.1963 Y1.2129 
G01 X3.1949 Y1.2043 
G01 X3.1949 Y1.1957 
G01 X3.1963 Y1.1871 
G01 X3.1989 Y1.1789 
G01 X3.2029 Y1.1711 
G01 X3.2080 Y1.1641 
G01 X3.2141 Y1.1580 
G01 X3.2211 Y1.1529 
G01 X3.2289 Y1.1489 
G01 X3.2371 Y1.1463 
G01 X3.2457 Y1.1449 
G01 X3.2543 Y1.1449 
G01 X3.2629 Y1.1463 
G01 X3.2711 Y1.1489 
G01 X3.2789 Y1.1529 
G01 X3.2859 Y1.1580 
G01 X3.2920 Y1.1641 
G01 X3.2971 Y1.1711 
G01 X3.3011 Y1.1789 
G01 X3.3037 Y1.1871 
G01 X3.3051 Y1.1957 
G00 Z0.0200 
G00 X1.0901 Y2.5734 
G01 Z-0.0100 F10.00 
G01 X1.0901 Y2.6066 
G01 X1.0666 Y2.6301 
G01 X1.0334 Y2.6301 
G01 X1.0099 Y2.6066 
G01 X1.0099 Y2.5734 
G01 X1.0334 Y2.5499 
G01 X1.0451 Y2.5499 
G01 X1.0383 Y2.5486 
G01 X1.0310 Y2.5455 
G01 X1.0244 Y2.5411 
G01 X1.0189 Y2.5356 
G01 X1.0145 Y2.5290 
G01 X1.0114 Y2.5217 
G01 X1.0099 Y2.5139 
G01 X1.0099 Y2.5060 
G01 X1.0114 Y2.4983 
G01 X1.0145 Y2.4910 
G01 X1.0189 Y2.4844 
G01 X1.0244 Y2.4789 
G01 X1.0310 Y2.4745 
G01 X1.0383 Y2.4714 
G01 X1.0460 Y2.4699 
G01 X1.0539 Y2.4699 
G01 X1.0617 Y2.4714 
G01 X1.0690 Y2.4745 
G01 X1.0756 Y2.4789 
G01 X1.0811 Y2.4844 
G01 X1.0855 Y2.4910 
G01 X1.0886 Y2.4983 
G01 X1.0901 Y2.5060 
G01 X1.0901 Y2.5139 
G01 X1.0886 Y2.5217 
G01 X1.0855 Y2.5290 
G01 X1.0811 Y2.5356 
G01 X1.0756 Y2.5411 
G01 X1.0690 Y2.5455 
G01 X1.0617 Y2.5486 
G01 X1.0549 Y2.5499 
G01 X1.0666 Y2.5499 
G01 X1.0901 Y2.5734 
G00 Z0.0200 
G00 X0.7051 Y2.7957 
G01 Z-0.0100 F10.00 
G01 X0.7051 Y2.8043 
G01 X0.7037 Y2.8129 
G01 X0.7011 Y2.8211 
G01 X0.6971 Y2.8289 
G01 X0.6920 Y2.8359 
G01 X0.6859 Y2.8420 
G01 X0.6789 Y2.8471 
G01 X0.6711 Y2.8511 
G01 X0.6629 Y2.8537 
G01 X0.6543 Y2.8551 
G01 X0.6457 Y2.8551 
G01 X0.6371 Y2.8537 
G01 X0.6289 Y2.8511 
G01 X0.6211 Y2.8471 
G01 X0.6141 Y2.8420 
G01 X0.6080 Y2.8359 
G01 X0.6029 Y2.8289 
G01 X0.5989 Y2.8211 
G01 X0.5963 Y2.8129 
G01 X0.5949 Y2.8043 
G01 X0.5949 Y2.7957 
G01 X0.5963 Y2.7871 
G01 X0.5989 Y2.7789 
G01 X0.6029 Y2.7711 
G01 X0.6080 Y2.7641 
G01 X0.6141 Y2.7580 
G01 X0.6211 Y2.7529 
G01 X0.6289 Y2.7489 
G01 X0.6371 Y2.7463 
G01 X0.6457 Y2.7449 
G01 X0.6543 Y2.7449 
G01 X0.6629 Y2.7463 
G01 X0.6711 Y2.7489 
G01 X0.6789 Y2.7529 
G01 X0.6859 Y2.7580 
G01 X0.6920 Y2.7641 
G01 X0.6971 Y2.7711 
G01 X0.7011 Y2.7789 
G01 X0.7037 Y2.7871 
G01 X0.7051 Y2.7957 
G00 Z0.0200 
G00 X1.1051 Y2.7957 
G01 Z-0.0100 F10.00 
G01 X1.1051 Y2.8043 
G01 X1.1037 Y2.8129 
G01 X1.1011 Y2.8211 
G01 X1.0971 Y2.8289 
G01 X1.0920 Y2.8359 
G01 X1.0859 Y2.8420 
G01 X1.0789 Y2.8471 
G01 X1.0711 Y2.8511 
G01 X1.0629 Y2.8537 
G01 X1.0543 Y2.8551 
G01 X1.0457 Y2.8551 
G01 X1.0371 Y2.8537 
G01 X1.0289 Y2.8511 
G01 X1.0211 Y2.8471 
G01 X1.0141 Y2.8420 
G01 X1.0080 Y2.8359 
G01 X1.0029 Y2.8289 
G01 X0.9989 Y2.8211 
G01 X0.9963 Y2.8129 
G01 X0.9949 Y2.8043 
G01 X0.9949 Y2.7957 
G01 X0.9963 Y2.7871 
G01 X0.9989 Y2.7789 
G01 X1.0029 Y2.7711 
G01 X1.0080 Y2.7641 
G01 X1.0141 Y2.7580 
G01 X1.0211 Y2.7529 
G01 X1.0289 Y2.7489 
G01 X1.0371 Y2.7463 
G01 X1.0457 Y2.7449 
G01 X1.0543 Y2.7449 
G01 X1.0629 Y2.7463 
G01 X1.0711 Y2.7489 
G01 X1.0789 Y2.7529 
G01 X1.0859 Y2.7580 
G01 X1.0920 Y2.7641 
G01 X1.0971 Y2.7711 
G01 X1.1011 Y2.7789 
G01 X1.1037 Y2.7871 
G01 X1.1051 Y2.7957 
G00 Z0.0200 
G00 X1.7551 Y2.6272 
G01 Z-0.0100 F10.00 
G01 X1.7551 Y2.6728 
G01 X1.7228 Y2.7051 
G01 X1.6772 Y2.7051 
G01 X1.6449 Y2.6728 
G01 X1.6449 Y2.6272 
G01 X1.6772 Y2.5949 
G01 X1.7228 Y2.5949 
G01 X1.7551 Y2.6272 
G00 Z0.0200 
G00 X1.5551 Y2.6272 
G01 Z-0.0100 F10.00 
G01 X1.5551 Y2.6728 
G01 X1.5228 Y2.7051 
G01 X1.4772 Y2.7051 
G01 X1.4449 Y2.6728 
G01 X1.4449 Y2.6272 
G01 X1.4772 Y2.5949 
G01 X1.5228 Y2.5949 
G01 X1.5551 Y2.6272 
G00 Z0.0200 
G00 X0.6055 Y2.2241 
G01 Z-0.0100 F10.00 
G01 X0.5385 Y2.2241 
G01 X0.5318 Y2.2227 
G01 X0.5254 Y2.2201 
G01 X0.5196 Y2.2163 
G01 X0.5147 Y2.2114 
G01 X0.5109 Y2.2056 
G01 X0.5083 Y2.1992 
G01 X0.5069 Y2.1925 
G01 X0.5069 Y2.1855 
G01 X0.5083 Y2.1788 
G01 X0.5109 Y2.1724 
G01 X0.5147 Y2.1666 
G01 X0.5196 Y2.1617 
G01 X0.5254 Y2.1579 
G01 X0.5318 Y2.1553 
G01 X0.5385 Y2.1539 
G01 X0.6055 Y2.1539 
G01 X0.6122 Y2.1553 
G01 X0.6186 Y2.1579 
G01 X0.6244 Y2.1617 
G01 X0.6293 Y2.1666 
G01 X0.6331 Y2.1724 
G01 X0.6357 Y2.1788 
G01 X0.6371 Y2.1855 
G01 X0.6371 Y2.1925 
G01 X0.6357 Y2.1992 
G01 X0.6331 Y2.2056 
G01 X0.6293 Y2.2114 
G01 X0.6244 Y2.2163 
G01 X0.6186 Y2.2201 
G01 X0.6122 Y2.2227 
G01 X0.6055 Y2.2241 
G00 Z0.0200 
G00 X0.6055 Y2.0461 
G01 Z-0.0100 F10.00 
G01 X0.5385 Y2.0461 
G01 X0.5318 Y2.0447 
G01 X0.5254 Y2.0421 
G01 X0.5196 Y2.0383 
G01 X0.5147 Y2.0334 
G01 X0.5109 Y2.0276 
G01 X0.5083 Y2.0212 
G01 X0.5069 Y2.0145 
G01 X0.5069 Y2.0075 
G01 X0.5083 Y2.0008 
G01 X0.5109 Y1.9944 
G01 X0.5147 Y1.9886 
G01 X0.5196 Y1.9837 
G01 X0.5254 Y1.9799 
G01 X0.5318 Y1.9773 
G01 X0.5385 Y1.9759 
G01 X0.6055 Y1.9759 
G01 X0.6122 Y1.9773 
G01 X0.6186 Y1.9799 
G01 X0.6244 Y1.9837 
G01 X0.6293 Y1.9886 
G01 X0.6331 Y1.9944 
G01 X0.6357 Y2.0008 
G01 X0.6371 Y2.0075 
G01 X0.6371 Y2.0145 
G01 X0.6357 Y2.0212 
G01 X0.6331 Y2.0276 
G01 X0.6293 Y2.0334 
G01 X0.6244 Y2.0383 
G01 X0.6186 Y2.0421 
G01 X0.6122 Y2.0447 
G01 X0.6055 Y2.0461 
G00 Z0.0200 
G00 X0.8615 Y2.2241 
G01 Z-0.0100 F10.00 
G01 X0.7945 Y2.2241 
G01 X0.7878 Y2.2227 
G01 X0.7814 Y2.2201 
G01 X0.7756 Y2.2163 
G01 X0.7707 Y2.2114 
G01 X0.7669 Y2.2056 
G01 X0.7643 Y2.1992 
G01 X0.7629 Y2.1925 
G01 X0.7629 Y2.1855 
G01 X0.7643 Y2.1788 
G01 X0.7669 Y2.1724 
G01 X0.7707 Y2.1666 
G01 X0.7756 Y2.1617 
G01 X0.7814 Y2.1579 
G01 X0.7878 Y2.1553 
G01 X0.7945 Y2.1539 
G01 X0.8615 Y2.1539 
G01 X0.8682 Y2.1553 
G01 X0.8746 Y2.1579 
G01 X0.8804 Y2.1617 
G01 X0.8853 Y2.1666 
G01 X0.8891 Y2.1724 
G01 X0.8917 Y2.1788 
G01 X0.8931 Y2.1855 
G01 X0.8931 Y2.1925 
G01 X0.8917 Y2.1992 
G01 X0.8891 Y2.2056 
G01 X0.8853 Y2.2114 
G01 X0.8804 Y2.2163 
G01 X0.8746 Y2.2201 
G01 X0.8682 Y2.2227 
G01 X0.8615 Y2.2241 
G00 Z0.0200 
G00 X0.8615 Y2.0461 
G01 Z-0.0100 F10.00 
G01 X0.7945 Y2.0461 
G01 X0.7878 Y2.0447 
G01 X0.7814 Y2.0421 
G01 X0.7756 Y2.0383 
G01 X0.7707 Y2.0334 
G01 X0.7669 Y2.0276 
G01 X0.7643 Y2.0212 
G01 X0.7629 Y2.0145 
G01 X0.7629 Y2.0075 
G01 X0.7643 Y2.0008 
G01 X0.7669 Y1.9944 
G01 X0.7707 Y1.9886 
G01 X0.7756 Y1.9837 
G01 X0.7814 Y1.9799 
G01 X0.7878 Y1.9773 
G01 X0.7945 Y1.9759 
G01 X0.8615 Y1.9759 
G01 X0.8682 Y1.9773 
G01 X0.8746 Y1.9799 
G01 X0.8804 Y1.9837 
G01 X0.8853 Y1.9886 
G01 X0.8891 Y1.9944 
G01 X0.8917 Y2.0008 
G01 X0.8931 Y2.0075 
G01 X0.8931 Y2.0145 
G01 X0.8917 Y2.0212 
G01 X0.8891 Y2.0276 
G01 X0.8853 Y2.0334 
G01 X0.8804 Y2.0383 
G01 X0.8746 Y2.0421 
G01 X0.8682 Y2.0447 
G01 X0.8615 Y2.0461 
G00 Z0.0200 
G00 X3.5468 Y1.3965 
G01 Z-0.0100 F10.00 
G01 X3.4532 Y1.3965 
G01 X3.4457 Y1.3953 
G01 X3.4385 Y1.3930 
G01 X3.4318 Y1.3896 
G01 X3.4257 Y1.3851 
G01 X3.4203 Y1.3798 
G01 X3.4159 Y1.3736 
G01 X3.4124 Y1.3669 
G01 X3.4101 Y1.3597 
G01 X3.4089 Y1.3522 
G01 X3.4089 Y1.3446 
G01 X3.4101 Y1.3372 
G01 X3.4124 Y1.3300 
G01 X3.4159 Y1.3232 
G01 X3.4203 Y1.3171 
G01 X3.4257 Y1.3117 
G01 X3.4318 Y1.3073 
G01 X3.4385 Y1.3039 
G01 X3.4457 Y1.3015 
G01 X3.4532 Y1.3003 
G01 X3.5468 Y1.3003 
G01 X3.5543 Y1.3015 
G01 X3.5615 Y1.3039 
G01 X3.5682 Y1.3073 
G01 X3.5743 Y1.3117 
G01 X3.5797 Y1.3171 
G01 X3.5841 Y1.3232 
G01 X3.5876 Y1.3300 
G01 X3.5899 Y1.3372 
G01 X3.5911 Y1.3446 
G01 X3.5911 Y1.3522 
G01 X3.5899 Y1.3597 
G01 X3.5876 Y1.3669 
G01 X3.5841 Y1.3736 
G01 X3.5797 Y1.3798 
G01 X3.5743 Y1.3851 
G01 X3.5682 Y1.3896 
G01 X3.5615 Y1.3930 
G01 X3.5543 Y1.3953 
G01 X3.5468 Y1.3965 
G00 Z0.0200 
G00 X3.5468 Y1.1997 
G01 Z-0.0100 F10.00 
G01 X3.4532 Y1.1997 
G01 X3.4457 Y1.1985 
G01 X3.4385 Y1.1961 
G01 X3.4318 Y1.1927 
G01 X3.4257 Y1.1883 
G01 X3.4203 Y1.1829 
G01 X3.4159 Y1.1768 
G01 X3.4124 Y1.1700 
G01 X3.4101 Y1.1628 
G01 X3.4089 Y1.1554 
G01 X3.4089 Y1.1478 
G01 X3.4101 Y1.1403 
G01 X3.4124 Y1.1331 
G01 X3.4159 Y1.1264 
G01 X3.4203 Y1.1202 
G01 X3.4257 Y1.1149 
G01 X3.4318 Y1.1104 
G01 X3.4385 Y1.1070 
G01 X3.4457 Y1.1047 
G01 X3.4532 Y1.1035 
G01 X3.5468 Y1.1035 
G01 X3.5543 Y1.1047 
G01 X3.5615 Y1.1070 
G01 X3.5682 Y1.1104 
G01 X3.5743 Y1.1149 
G01 X3.5797 Y1.1202 
G01 X3.5841 Y1.1264 
G01 X3.5876 Y1.1331 
G01 X3.5899 Y1.1403 
G01 X3.5911 Y1.1478 
G01 X3.5911 Y1.1554 
G01 X3.5899 Y1.1628 
G01 X3.5876 Y1.1700 
G01 X3.5841 Y1.1768 
G01 X3.5797 Y1.1829 
G01 X3.5743 Y1.1883 
G01 X3.5682 Y1.1927 
G01 X3.5615 Y1.1961 
G01 X3.5543 Y1.1985 
G01 X3.5468 Y1.1997 
G00 Z0.0200 
G00 X3.4851 Y1.5165 
G01 Z-0.0100 F10.00 
G01 X3.4851 Y1.5835 
G01 X3.4837 Y1.5902 
G01 X3.4811 Y1.5966 
G01 X3.4773 Y1.6024 
G01 X3.4724 Y1.6073 
G01 X3.4666 Y1.6111 
G01 X3.4602 Y1.6137 
G01 X3.4535 Y1.6151 
G01 X3.4465 Y1.6151 
G01 X3.4398 Y1.6137 
G01 X3.4334 Y1.6111 
G01 X3.4276 Y1.6073 
G01 X3.4227 Y1.6024 
G01 X3.4189 Y1.5966 
G01 X3.4163 Y1.5902 
G01 X3.4149 Y1.5835 
G01 X3.4149 Y1.5165 
G01 X3.4163 Y1.5098 
G01 X3.4189 Y1.5034 
G01 X3.4227 Y1.4976 
G01 X3.4276 Y1.4927 
G01 X3.4334 Y1.4889 
G01 X3.4398 Y1.4863 
G01 X3.4465 Y1.4849 
G01 X3.4535 Y1.4849 
G01 X3.4602 Y1.4863 
G01 X3.4666 Y1.4889 
G01 X3.4724 Y1.4927 
G01 X3.4773 Y1.4976 
G01 X3.4811 Y1.5034 
G01 X3.4837 Y1.5098 
G01 X3.4851 Y1.5165 
G00 Z0.0200 
G00 X3.3851 Y1.5165 
G01 Z-0.0100 F10.00 
G01 X3.3851 Y1.5835 
G01 X3.3837 Y1.5902 
G01 X3.3811 Y1.5966 
G01 X3.3773 Y1.6024 
G01 X3.3724 Y1.6073 
G01 X3.3666 Y1.6111 
G01 X3.3602 Y1.6137 
G01 X3.3535 Y1.6151 
G01 X3.3465 Y1.6151 
G01 X3.3398 Y1.6137 
G01 X3.3334 Y1.6111 
G01 X3.3276 Y1.6073 
G01 X3.3227 Y1.6024 
G01 X3.3189 Y1.5966 
G01 X3.3163 Y1.5902 
G01 X3.3149 Y1.5835 
G01 X3.3149 Y1.5165 
G01 X3.3163 Y1.5098 
G01 X3.3189 Y1.5034 
G01 X3.3227 Y1.4976 
G01 X3.3276 Y1.4927 
G01 X3.3334 Y1.4889 
G01 X3.3398 Y1.4863 
G01 X3.3465 Y1.4849 
G01 X3.3535 Y1.4849 
G01 X3.3602 Y1.4863 
G01 X3.3666 Y1.4889 
G01 X3.3724 Y1.4927 
G01 X3.3773 Y1.4976 
G01 X3.3811 Y1.5034 
G01 X3.3837 Y1.5098 
G01 X3.3851 Y1.5165 
G00 Z0.0200 
G00 X0.6059 Y2.2291 
G01 Z-0.0100 F10.00 
G01 X0.5380 Y2.2291 
G01 X0.5303 Y2.2276 
G01 X0.5230 Y2.2245 
G01 X0.5164 Y2.2201 
G01 X0.5109 Y2.2146 
G01 X0.5065 Y2.2080 
G01 X0.5034 Y2.2007 
G01 X0.5019 Y2.1929 
G01 X0.5019 Y2.1850 
G01 X0.5034 Y2.1773 
G01 X0.5065 Y2.1700 
G01 X0.5109 Y2.1634 
G01 X0.5164 Y2.1579 
G01 X0.5230 Y2.1535 
G01 X0.5303 Y2.1504 
G01 X0.5380 Y2.1489 
G01 X0.6059 Y2.1489 
G01 X0.6137 Y2.1504 
G01 X0.6210 Y2.1535 
G01 X0.6276 Y2.1579 
G01 X0.6331 Y2.1634 
G01 X0.6375 Y2.1700 
G01 X0.6406 Y2.1773 
G01 X0.6421 Y2.1850 
G01 X0.6421 Y2.1929 
G01 X0.6406 Y2.2007 
G01 X0.6375 Y2.2080 
G01 X0.6331 Y2.2146 
G01 X0.6276 Y2.2201 
G01 X0.6210 Y2.2245 
G01 X0.6137 Y2.2276 
G01 X0.6059 Y2.2291 
G00 Z0.0200 
G00 X1.5601 Y2.6251 
G01 Z-0.0100 F10.00 
G01 X1.5601 Y2.6749 
G01 X1.5249 Y2.7101 
G01 X1.4751 Y2.7101 
G01 X1.4399 Y2.6749 
G01 X1.4399 Y2.6251 
G01 X1.4751 Y2.5899 
G01 X1.5249 Y2.5899 
G01 X1.5601 Y2.6251 
G00 Z0.0200 
G00 X1.7601 Y2.6251 
G01 Z-0.0100 F10.00 
G01 X1.7601 Y2.6749 
G01 X1.7249 Y2.7101 
G01 X1.6751 Y2.7101 
G01 X1.6399 Y2.6749 
G01 X1.6399 Y2.6251 
G01 X1.6751 Y2.5899 
G01 X1.7249 Y2.5899 
G01 X1.7601 Y2.6251 
G00 Z0.0200 
G00 X1.1101 Y2.7953 
G01 Z-0.0100 F10.00 
G01 X1.1101 Y2.8047 
G01 X1.1086 Y2.8141 
G01 X1.1057 Y2.8231 
G01 X1.1014 Y2.8315 
G01 X1.0958 Y2.8391 
G01 X1.0891 Y2.8458 
G01 X1.0815 Y2.8514 
G01 X1.0731 Y2.8557 
G01 X1.0641 Y2.8586 
G01 X1.0547 Y2.8601 
G01 X1.0453 Y2.8601 
G01 X1.0359 Y2.8586 
G01 X1.0269 Y2.8557 
G01 X1.0185 Y2.8514 
G01 X1.0109 Y2.8458 
G01 X1.0042 Y2.8391 
G01 X0.9986 Y2.8315 
G01 X0.9943 Y2.8231 
G01 X0.9914 Y2.8141 
G01 X0.9899 Y2.8047 
G01 X0.9899 Y2.7953 
G01 X0.9914 Y2.7859 
G01 X0.9943 Y2.7769 
G01 X0.9986 Y2.7685 
G01 X1.0042 Y2.7609 
G01 X1.0109 Y2.7542 
G01 X1.0185 Y2.7486 
G01 X1.0269 Y2.7443 
G01 X1.0359 Y2.7414 
G01 X1.0453 Y2.7399 
G01 X1.0547 Y2.7399 
G01 X1.0641 Y2.7414 
G01 X1.0731 Y2.7443 
G01 X1.0815 Y2.7486 
G01 X1.0891 Y2.7542 
G01 X1.0958 Y2.7609 
G01 X1.1014 Y2.7685 
G01 X1.1057 Y2.7769 
G01 X1.1086 Y2.7859 
G01 X1.1101 Y2.7953 
G00 Z0.0200 
G00 X0.7101 Y2.7953 
G01 Z-0.0100 F10.00 
G01 X0.7101 Y2.8047 
G01 X0.7086 Y2.8141 
G01 X0.7057 Y2.8231 
G01 X0.7014 Y2.8315 
G01 X0.6958 Y2.8391 
G01 X0.6891 Y2.8458 
G01 X0.6815 Y2.8514 
G01 X0.6731 Y2.8557 
G01 X0.6641 Y2.8586 
G01 X0.6547 Y2.8601 
G01 X0.6453 Y2.8601 
G01 X0.6359 Y2.8586 
G01 X0.6269 Y2.8557 
G01 X0.6185 Y2.8514 
G01 X0.6109 Y2.8458 
G01 X0.6042 Y2.8391 
G01 X0.5986 Y2.8315 
G01 X0.5943 Y2.8231 
G01 X0.5914 Y2.8141 
G01 X0.5899 Y2.8047 
G01 X0.5899 Y2.7953 
G01 X0.5914 Y2.7859 
G01 X0.5943 Y2.7769 
G01 X0.5986 Y2.7685 
G01 X0.6042 Y2.7609 
G01 X0.6109 Y2.7542 
G01 X0.6185 Y2.7486 
G01 X0.6269 Y2.7443 
G01 X0.6359 Y2.7414 
G01 X0.6453 Y2.7399 
G01 X0.6547 Y2.7399 
G01 X0.6641 Y2.7414 
G01 X0.6731 Y2.7443 
G01 X0.6815 Y2.7486 
G01 X0.6891 Y2.7542 
G01 X0.6958 Y2.7609 
G01 X0.7014 Y2.7685 
G01 X0.7057 Y2.7769 
G01 X0.7086 Y2.7859 
G01 X0.7101 Y2.7953 
G00 Z0.0200 
G00 X1.0951 Y2.5713 
G01 Z-0.0100 F10.00 
G01 X1.0951 Y2.6087 
G01 X1.0687 Y2.6351 
G01 X1.0313 Y2.6351 
G01 X1.0049 Y2.6087 
G01 X1.0049 Y2.5713 
G01 X1.0272 Y2.5490 
G01 X1.0264 Y2.5486 
G01 X1.0206 Y2.5444 
G01 X1.0156 Y2.5394 
G01 X1.0114 Y2.5336 
G01 X1.0082 Y2.5273 
G01 X1.0060 Y2.5206 
G01 X1.0049 Y2.5135 
G01 X1.0049 Y2.5064 
G01 X1.0060 Y2.4994 
G01 X1.0082 Y2.4927 
G01 X1.0114 Y2.4864 
G01 X1.0156 Y2.4806 
G01 X1.0206 Y2.4756 
G01 X1.0264 Y2.4714 
G01 X1.0327 Y2.4682 
G01 X1.0394 Y2.4660 
G01 X1.0464 Y2.4649 
G01 X1.0535 Y2.4649 
G01 X1.0606 Y2.4660 
G01 X1.0673 Y2.4682 
G01 X1.0736 Y2.4714 
G01 X1.0794 Y2.4756 
G01 X1.0844 Y2.4806 
G01 X1.0886 Y2.4864 
G01 X1.0918 Y2.4927 
G01 X1.0940 Y2.4994 
G01 X1.0951 Y2.5064 
G01 X1.0951 Y2.5135 
G01 X1.0940 Y2.5206 
G01 X1.0918 Y2.5273 
G01 X1.0886 Y2.5336 
G01 X1.0844 Y2.5394 
G01 X1.0794 Y2.5444 
G01 X1.0736 Y2.5486 
G01 X1.0728 Y2.5490 
G01 X1.0951 Y2.5713 
G00 Z0.0200 
G00 X3.3101 Y1.1953 
G01 Z-0.0100 F10.00 
G01 X3.3101 Y1.2047 
G01 X3.3086 Y1.2141 
G01 X3.3057 Y1.2231 
G01 X3.3014 Y1.2315 
G01 X3.2958 Y1.2391 
G01 X3.2891 Y1.2458 
G01 X3.2815 Y1.2514 
G01 X3.2731 Y1.2557 
G01 X3.2641 Y1.2586 
G01 X3.2547 Y1.2601 
G01 X3.2453 Y1.2601 
G01 X3.2359 Y1.2586 
G01 X3.2269 Y1.2557 
G01 X3.2185 Y1.2514 
G01 X3.2109 Y1.2458 
G01 X3.2042 Y1.2391 
G01 X3.1986 Y1.2315 
G01 X3.1943 Y1.2231 
G01 X3.1914 Y1.2141 
G01 X3.1899 Y1.2047 
G01 X3.1899 Y1.1953 
G01 X3.1914 Y1.1859 
G01 X3.1943 Y1.1769 
G01 X3.1986 Y1.1685 
G01 X3.2042 Y1.1609 
G01 X3.2109 Y1.1542 
G01 X3.2185 Y1.1486 
G01 X3.2269 Y1.1443 
G01 X3.2359 Y1.1414 
G01 X3.2453 Y1.1399 
G01 X3.2547 Y1.1399 
G01 X3.2641 Y1.1414 
G01 X3.2731 Y1.1443 
G01 X3.2815 Y1.1486 
G01 X3.2891 Y1.1542 
G01 X3.2958 Y1.1609 
G01 X3.3014 Y1.1685 
G01 X3.3057 Y1.1769 
G01 X3.3086 Y1.1859 
G01 X3.3101 Y1.1953 
G00 Z0.0200 
G00 X2.9101 Y1.1953 
G01 Z-0.0100 F10.00 
G01 X2.9101 Y1.2047 
G01 X2.9086 Y1.2141 
G01 X2.9057 Y1.2231 
G01 X2.9014 Y1.2315 
G01 X2.8958 Y1.2391 
G01 X2.8891 Y1.2458 
G01 X2.8815 Y1.2514 
G01 X2.8731 Y1.2557 
G01 X2.8641 Y1.2586 
G01 X2.8547 Y1.2601 
G01 X2.8453 Y1.2601 
G01 X2.8359 Y1.2586 
G01 X2.8269 Y1.2557 
G01 X2.8185 Y1.2514 
G01 X2.8109 Y1.2458 
G01 X2.8042 Y1.2391 
G01 X2.7986 Y1.2315 
G01 X2.7943 Y1.2231 
G01 X2.7914 Y1.2141 
G01 X2.7899 Y1.2047 
G01 X2.7899 Y1.1953 
G01 X2.7914 Y1.1859 
G01 X2.7943 Y1.1769 
G01 X2.7986 Y1.1685 
G01 X2.8042 Y1.1609 
G01 X2.8109 Y1.1542 
G01 X2.8185 Y1.1486 
G01 X2.8269 Y1.1443 
G01 X2.8359 Y1.1414 
G01 X2.8453 Y1.1399 
G01 X2.8547 Y1.1399 
G01 X2.8641 Y1.1414 
G01 X2.8731 Y1.1443 
G01 X2.8815 Y1.1486 
G01 X2.8891 Y1.1542 
G01 X2.8958 Y1.1609 
G01 X2.9014 Y1.1685 
G01 X2.9057 Y1.1769 
G01 X2.9086 Y1.1859 
G01 X2.9101 Y1.1953 
G00 Z0.0200 
G00 X1.3451 Y2.5713 
G01 Z-0.0100 F10.00 
G01 X1.3451 Y2.6087 
G01 X1.3187 Y2.6351 
G01 X1.2813 Y2.6351 
G01 X1.2549 Y2.6087 
G01 X1.2549 Y2.5713 
G01 X1.2772 Y2.5490 
G01 X1.2764 Y2.5486 
G01 X1.2706 Y2.5444 
G01 X1.2656 Y2.5394 
G01 X1.2614 Y2.5336 
G01 X1.2582 Y2.5273 
G01 X1.2560 Y2.5206 
G01 X1.2549 Y2.5135 
G01 X1.2549 Y2.5064 
G01 X1.2560 Y2.4994 
G01 X1.2582 Y2.4927 
G01 X1.2614 Y2.4864 
G01 X1.2656 Y2.4806 
G01 X1.2706 Y2.4756 
G01 X1.2764 Y2.4714 
G01 X1.2827 Y2.4682 
G01 X1.2894 Y2.4660 
G01 X1.2964 Y2.4649 
G01 X1.3035 Y2.4649 
G01 X1.3106 Y2.4660 
G01 X1.3173 Y2.4682 
G01 X1.3236 Y2.4714 
G01 X1.3294 Y2.4756 
G01 X1.3344 Y2.4806 
G01 X1.3386 Y2.4864 
G01 X1.3418 Y2.4927 
G01 X1.3440 Y2.4994 
G01 X1.3451 Y2.5064 
G01 X1.3451 Y2.5135 
G01 X1.3440 Y2.5206 
G01 X1.3418 Y2.5273 
G01 X1.3386 Y2.5336 
G01 X1.3344 Y2.5394 
G01 X1.3294 Y2.5444 
G01 X1.3236 Y2.5486 
G01 X1.3228 Y2.5490 
G01 X1.3451 Y2.5713 
G00 Z0.0200 
G00 X3.6385 Y1.6951 
G01 Z-0.0100 F10.00 
G01 X3.5614 Y1.6951 
G01 X3.5544 Y1.6940 
G01 X3.5477 Y1.6918 
G01 X3.5414 Y1.6886 
G01 X3.5356 Y1.6844 
G01 X3.5306 Y1.6794 
G01 X3.5264 Y1.6736 
G01 X3.5232 Y1.6673 
G01 X3.5210 Y1.6606 
G01 X3.5199 Y1.6535 
G01 X3.5199 Y1.6464 
G01 X3.5210 Y1.6394 
G01 X3.5232 Y1.6327 
G01 X3.5264 Y1.6264 
G01 X3.5306 Y1.6206 
G01 X3.5356 Y1.6156 
G01 X3.5414 Y1.6114 
G01 X3.5477 Y1.6082 
G01 X3.5544 Y1.6060 
G01 X3.5614 Y1.6049 
G01 X3.6385 Y1.6049 
G01 X3.6456 Y1.6060 
G01 X3.6523 Y1.6082 
G01 X3.6586 Y1.6114 
G01 X3.6644 Y1.6156 
G01 X3.6694 Y1.6206 
G01 X3.6736 Y1.6264 
G01 X3.6768 Y1.6327 
G01 X3.6790 Y1.6394 
G01 X3.6801 Y1.6464 
G01 X3.6801 Y1.6535 
G01 X3.6790 Y1.6606 
G01 X3.6768 Y1.6673 
G01 X3.6736 Y1.6736 
G01 X3.6694 Y1.6794 
G01 X3.6644 Y1.6844 
G01 X3.6586 Y1.6886 
G01 X3.6523 Y1.6918 
G01 X3.6456 Y1.6940 
G01 X3.6385 Y1.6951 
G00 Z0.0200 
G00 X3.6385 Y1.7951 
G01 Z-0.0100 F10.00 
G01 X3.5614 Y1.7951 
G01 X3.5544 Y1.7940 
G01 X3.5477 Y1.7918 
G01 X3.5414 Y1.7886 
G01 X3.5356 Y1.7844 
G01 X3.5306 Y1.7794 
G01 X3.5264 Y1.7736 
G01 X3.5232 Y1.7673 
G01 X3.5210 Y1.7606 
G01 X3.5199 Y1.7535 
G01 X3.5199 Y1.7464 
G01 X3.5210 Y1.7394 
G01 X3.5232 Y1.7327 
G01 X3.5264 Y1.7264 
G01 X3.5306 Y1.7206 
G01 X3.5356 Y1.7156 
G01 X3.5414 Y1.7114 
G01 X3.5477 Y1.7082 
G01 X3.5544 Y1.7060 
G01 X3.5614 Y1.7049 
G01 X3.6385 Y1.7049 
G01 X3.6456 Y1.7060 
G01 X3.6523 Y1.7082 
G01 X3.6586 Y1.7114 
G01 X3.6644 Y1.7156 
G01 X3.6694 Y1.7206 
G01 X3.6736 Y1.7264 
G01 X3.6768 Y1.7327 
G01 X3.6790 Y1.7394 
G01 X3.6801 Y1.7464 
G01 X3.6801 Y1.7535 
G01 X3.6790 Y1.7606 
G01 X3.6768 Y1.7673 
G01 X3.6736 Y1.7736 
G01 X3.6694 Y1.7794 
G01 X3.6644 Y1.7844 
G01 X3.6586 Y1.7886 
G01 X3.6523 Y1.7918 
G01 X3.6456 Y1.7940 
G01 X3.6385 Y1.7951 
G00 Z0.0200 
G00 X3.6385 Y1.8951 
G01 Z-0.0100 F10.00 
G01 X3.5614 Y1.8951 
G01 X3.5544 Y1.8940 
G01 X3.5477 Y1.8918 
G01 X3.5414 Y1.8886 
G01 X3.5356 Y1.8844 
G01 X3.5306 Y1.8794 
G01 X3.5264 Y1.8736 
G01 X3.5232 Y1.8673 
G01 X3.5210 Y1.8606 
G01 X3.5199 Y1.8535 
G01 X3.5199 Y1.8464 
G01 X3.5210 Y1.8394 
G01 X3.5232 Y1.8327 
G01 X3.5264 Y1.8264 
G01 X3.5306 Y1.8206 
G01 X3.5356 Y1.8156 
G01 X3.5414 Y1.8114 
G01 X3.5477 Y1.8082 
G01 X3.5544 Y1.8060 
G01 X3.5614 Y1.8049 
G01 X3.6385 Y1.8049 
G01 X3.6456 Y1.8060 
G01 X3.6523 Y1.8082 
G01 X3.6586 Y1.8114 
G01 X3.6644 Y1.8156 
G01 X3.6694 Y1.8206 
G01 X3.6736 Y1.8264 
G01 X3.6768 Y1.8327 
G01 X3.6790 Y1.8394 
G01 X3.6801 Y1.8464 
G01 X3.6801 Y1.8535 
G01 X3.6790 Y1.8606 
G01 X3.6768 Y1.8673 
G01 X3.6736 Y1.8736 
G01 X3.6694 Y1.8794 
G01 X3.6644 Y1.8844 
G01 X3.6586 Y1.8886 
G01 X3.6523 Y1.8918 
G01 X3.6456 Y1.8940 
G01 X3.6385 Y1.8951 
G00 Z0.0200 
G00 X3.6385 Y1.9951 
G01 Z-0.0100 F10.00 
G01 X3.5614 Y1.9951 
G01 X3.5544 Y1.9940 
G01 X3.5477 Y1.9918 
G01 X3.5414 Y1.9886 
G01 X3.5356 Y1.9844 
G01 X3.5306 Y1.9794 
G01 X3.5264 Y1.9736 
G01 X3.5232 Y1.9673 
G01 X3.5210 Y1.9606 
G01 X3.5199 Y1.9535 
G01 X3.5199 Y1.9464 
G01 X3.5210 Y1.9394 
G01 X3.5232 Y1.9327 
G01 X3.5264 Y1.9264 
G01 X3.5306 Y1.9206 
G01 X3.5356 Y1.9156 
G01 X3.5414 Y1.9114 
G01 X3.5477 Y1.9082 
G01 X3.5544 Y1.9060 
G01 X3.5614 Y1.9049 
G01 X3.6385 Y1.9049 
G01 X3.6456 Y1.9060 
G01 X3.6523 Y1.9082 
G01 X3.6586 Y1.9114 
G01 X3.6644 Y1.9156 
G01 X3.6694 Y1.9206 
G01 X3.6736 Y1.9264 
G01 X3.6768 Y1.9327 
G01 X3.6790 Y1.9394 
G01 X3.6801 Y1.9464 
G01 X3.6801 Y1.9535 
G01 X3.6790 Y1.9606 
G01 X3.6768 Y1.9673 
G01 X3.6736 Y1.9736 
G01 X3.6694 Y1.9794 
G01 X3.6644 Y1.9844 
G01 X3.6586 Y1.9886 
G01 X3.6523 Y1.9918 
G01 X3.6456 Y1.9940 
G01 X3.6385 Y1.9951 
G00 Z0.0200 
G00 X3.6385 Y2.0951 
G01 Z-0.0100 F10.00 
G01 X3.5614 Y2.0951 
G01 X3.5544 Y2.0940 
G01 X3.5477 Y2.0918 
G01 X3.5414 Y2.0886 
G01 X3.5356 Y2.0844 
G01 X3.5306 Y2.0794 
G01 X3.5264 Y2.0736 
G01 X3.5232 Y2.0673 
G01 X3.5210 Y2.0606 
G01 X3.5199 Y2.0535 
G01 X3.5199 Y2.0464 
G01 X3.5210 Y2.0394 
G01 X3.5232 Y2.0327 
G01 X3.5264 Y2.0264 
G01 X3.5306 Y2.0206 
G01 X3.5356 Y2.0156 
G01 X3.5414 Y2.0114 
G01 X3.5477 Y2.0082 
G01 X3.5544 Y2.0060 
G01 X3.5614 Y2.0049 
G01 X3.6385 Y2.0049 
G01 X3.6456 Y2.0060 
G01 X3.6523 Y2.0082 
G01 X3.6586 Y2.0114 
G01 X3.6644 Y2.0156 
G01 X3.6694 Y2.0206 
G01 X3.6736 Y2.0264 
G01 X3.6768 Y2.0327 
G01 X3.6790 Y2.0394 
G01 X3.6801 Y2.0464 
G01 X3.6801 Y2.0535 
G01 X3.6790 Y2.0606 
G01 X3.6768 Y2.0673 
G01 X3.6736 Y2.0736 
G01 X3.6694 Y2.0794 
G01 X3.6644 Y2.0844 
G01 X3.6586 Y2.0886 
G01 X3.6523 Y2.0918 
G01 X3.6456 Y2.0940 
G01 X3.6385 Y2.0951 
G00 Z0.0200 
G00 X3.6385 Y2.1951 
G01 Z-0.0100 F10.00 
G01 X3.5614 Y2.1951 
G01 X3.5544 Y2.1940 
G01 X3.5477 Y2.1918 
G01 X3.5414 Y2.1886 
G01 X3.5356 Y2.1844 
G01 X3.5306 Y2.1794 
G01 X3.5264 Y2.1736 
G01 X3.5232 Y2.1673 
G01 X3.5210 Y2.1606 
G01 X3.5199 Y2.1535 
G01 X3.5199 Y2.1464 
G01 X3.5210 Y2.1394 
G01 X3.5232 Y2.1327 
G01 X3.5264 Y2.1264 
G01 X3.5306 Y2.1206 
G01 X3.5356 Y2.1156 
G01 X3.5414 Y2.1114 
G01 X3.5477 Y2.1082 
G01 X3.5544 Y2.1060 
G01 X3.5614 Y2.1049 
G01 X3.6385 Y2.1049 
G01 X3.6456 Y2.1060 
G01 X3.6523 Y2.1082 
G01 X3.6586 Y2.1114 
G01 X3.6644 Y2.1156 
G01 X3.6694 Y2.1206 
G01 X3.6736 Y2.1264 
G01 X3.6768 Y2.1327 
G01 X3.6790 Y2.1394 
G01 X3.6801 Y2.1464 
G01 X3.6801 Y2.1535 
G01 X3.6790 Y2.1606 
G01 X3.6768 Y2.1673 
G01 X3.6736 Y2.1736 
G01 X3.6694 Y2.1794 
G01 X3.6644 Y2.1844 
G01 X3.6586 Y2.1886 
G01 X3.6523 Y2.1918 
G01 X3.6456 Y2.1940 
G01 X3.6385 Y2.1951 
G00 Z0.0200 
G00 X3.6385 Y2.3451 
G01 Z-0.0100 F10.00 
G01 X3.5614 Y2.3451 
G01 X3.5544 Y2.3440 
G01 X3.5477 Y2.3418 
G01 X3.5414 Y2.3386 
G01 X3.5356 Y2.3344 
G01 X3.5306 Y2.3294 
G01 X3.5264 Y2.3236 
G01 X3.5232 Y2.3173 
G01 X3.5210 Y2.3106 
G01 X3.5199 Y2.3035 
G01 X3.5199 Y2.2964 
G01 X3.5210 Y2.2894 
G01 X3.5232 Y2.2827 
G01 X3.5264 Y2.2764 
G01 X3.5306 Y2.2706 
G01 X3.5356 Y2.2656 
G01 X3.5414 Y2.2614 
G01 X3.5477 Y2.2582 
G01 X3.5544 Y2.2560 
G01 X3.5614 Y2.2549 
G01 X3.6385 Y2.2549 
G01 X3.6456 Y2.2560 
G01 X3.6523 Y2.2582 
G01 X3.6586 Y2.2614 
G01 X3.6644 Y2.2656 
G01 X3.6694 Y2.2706 
G01 X3.6736 Y2.2764 
G01 X3.6768 Y2.2827 
G01 X3.6790 Y2.2894 
G01 X3.6801 Y2.2964 
G01 X3.6801 Y2.3035 
G01 X3.6790 Y2.3106 
G01 X3.6768 Y2.3173 
G01 X3.6736 Y2.3236 
G01 X3.6694 Y2.3294 
G01 X3.6644 Y2.3344 
G01 X3.6586 Y2.3386 
G01 X3.6523 Y2.3418 
G01 X3.6456 Y2.3440 
G01 X3.6385 Y2.3451 
G00 Z0.0200 
G00 X3.6385 Y2.4451 
G01 Z-0.0100 F10.00 
G01 X3.5614 Y2.4451 
G01 X3.5544 Y2.4440 
G01 X3.5477 Y2.4418 
G01 X3.5414 Y2.4386 
G01 X3.5356 Y2.4344 
G01 X3.5306 Y2.4294 
G01 X3.5264 Y2.4236 
G01 X3.5232 Y2.4173 
G01 X3.5210 Y2.4106 
G01 X3.5199 Y2.4035 
G01 X3.5199 Y2.3964 
G01 X3.5210 Y2.3894 
G01 X3.5232 Y2.3827 
G01 X3.5264 Y2.3764 
G01 X3.5306 Y2.3706 
G01 X3.5356 Y2.3656 
G01 X3.5414 Y2.3614 
G01 X3.5477 Y2.3582 
G01 X3.5544 Y2.3560 
G01 X3.5614 Y2.3549 
G01 X3.6385 Y2.3549 
G01 X3.6456 Y2.3560 
G01 X3.6523 Y2.3582 
G01 X3.6586 Y2.3614 
G01 X3.6644 Y2.3656 
G01 X3.6694 Y2.3706 
G01 X3.6736 Y2.3764 
G01 X3.6768 Y2.3827 
G01 X3.6790 Y2.3894 
G01 X3.6801 Y2.3964 
G01 X3.6801 Y2.4035 
G01 X3.6790 Y2.4106 
G01 X3.6768 Y2.4173 
G01 X3.6736 Y2.4236 
G01 X3.6694 Y2.4294 
G01 X3.6644 Y2.4344 
G01 X3.6586 Y2.4386 
G01 X3.6523 Y2.4418 
G01 X3.6456 Y2.4440 
G01 X3.6385 Y2.4451 
G00 Z0.0200 
G00 X3.6385 Y2.5451 
G01 Z-0.0100 F10.00 
G01 X3.5614 Y2.5451 
G01 X3.5544 Y2.5440 
G01 X3.5477 Y2.5418 
G01 X3.5414 Y2.5386 
G01 X3.5356 Y2.5344 
G01 X3.5306 Y2.5294 
G01 X3.5264 Y2.5236 
G01 X3.5232 Y2.5173 
G01 X3.5210 Y2.5106 
G01 X3.5199 Y2.5035 
G01 X3.5199 Y2.4964 
G01 X3.5210 Y2.4894 
G01 X3.5232 Y2.4827 
G01 X3.5264 Y2.4764 
G01 X3.5306 Y2.4706 
G01 X3.5356 Y2.4656 
G01 X3.5414 Y2.4614 
G01 X3.5477 Y2.4582 
G01 X3.5544 Y2.4560 
G01 X3.5614 Y2.4549 
G01 X3.6385 Y2.4549 
G01 X3.6456 Y2.4560 
G01 X3.6523 Y2.4582 
G01 X3.6586 Y2.4614 
G01 X3.6644 Y2.4656 
G01 X3.6694 Y2.4706 
G01 X3.6736 Y2.4764 
G01 X3.6768 Y2.4827 
G01 X3.6790 Y2.4894 
G01 X3.6801 Y2.4964 
G01 X3.6801 Y2.5035 
G01 X3.6790 Y2.5106 
G01 X3.6768 Y2.5173 
G01 X3.6736 Y2.5236 
G01 X3.6694 Y2.5294 
G01 X3.6644 Y2.5344 
G01 X3.6586 Y2.5386 
G01 X3.6523 Y2.5418 
G01 X3.6456 Y2.5440 
G01 X3.6385 Y2.5451 
G00 Z0.0200 
G00 X3.6385 Y2.6451 
G01 Z-0.0100 F10.00 
G01 X3.5614 Y2.6451 
G01 X3.5544 Y2.6440 
G01 X3.5477 Y2.6418 
G01 X3.5414 Y2.6386 
G01 X3.5356 Y2.6344 
G01 X3.5306 Y2.6294 
G01 X3.5264 Y2.6236 
G01 X3.5232 Y2.6173 
G01 X3.5210 Y2.6106 
G01 X3.5199 Y2.6035 
G01 X3.5199 Y2.5964 
G01 X3.5210 Y2.5894 
G01 X3.5232 Y2.5827 
G01 X3.5264 Y2.5764 
G01 X3.5306 Y2.5706 
G01 X3.5356 Y2.5656 
G01 X3.5414 Y2.5614 
G01 X3.5477 Y2.5582 
G01 X3.5544 Y2.5560 
G01 X3.5614 Y2.5549 
G01 X3.6385 Y2.5549 
G01 X3.6456 Y2.5560 
G01 X3.6523 Y2.5582 
G01 X3.6586 Y2.5614 
G01 X3.6644 Y2.5656 
G01 X3.6694 Y2.5706 
G01 X3.6736 Y2.5764 
G01 X3.6768 Y2.5827 
G01 X3.6790 Y2.5894 
G01 X3.6801 Y2.5964 
G01 X3.6801 Y2.6035 
G01 X3.6790 Y2.6106 
G01 X3.6768 Y2.6173 
G01 X3.6736 Y2.6236 
G01 X3.6694 Y2.6294 
G01 X3.6644 Y2.6344 
G01 X3.6586 Y2.6386 
G01 X3.6523 Y2.6418 
G01 X3.6456 Y2.6440 
G01 X3.6385 Y2.6451 
G00 Z0.0200 
G00 X3.6385 Y2.7451 
G01 Z-0.0100 F10.00 
G01 X3.5614 Y2.7451 
G01 X3.5544 Y2.7440 
G01 X3.5477 Y2.7418 
G01 X3.5414 Y2.7386 
G01 X3.5356 Y2.7344 
G01 X3.5306 Y2.7294 
G01 X3.5264 Y2.7236 
G01 X3.5232 Y2.7173 
G01 X3.5210 Y2.7106 
G01 X3.5199 Y2.7035 
G01 X3.5199 Y2.6964 
G01 X3.5210 Y2.6894 
G01 X3.5232 Y2.6827 
G01 X3.5264 Y2.6764 
G01 X3.5306 Y2.6706 
G01 X3.5356 Y2.6656 
G01 X3.5414 Y2.6614 
G01 X3.5477 Y2.6582 
G01 X3.5544 Y2.6560 
G01 X3.5614 Y2.6549 
G01 X3.6385 Y2.6549 
G01 X3.6456 Y2.6560 
G01 X3.6523 Y2.6582 
G01 X3.6586 Y2.6614 
G01 X3.6644 Y2.6656 
G01 X3.6694 Y2.6706 
G01 X3.6736 Y2.6764 
G01 X3.6768 Y2.6827 
G01 X3.6790 Y2.6894 
G01 X3.6801 Y2.6964 
G01 X3.6801 Y2.7035 
G01 X3.6790 Y2.7106 
G01 X3.6768 Y2.7173 
G01 X3.6736 Y2.7236 
G01 X3.6694 Y2.7294 
G01 X3.6644 Y2.7344 
G01 X3.6586 Y2.7386 
G01 X3.6523 Y2.7418 
G01 X3.6456 Y2.7440 
G01 X3.6385 Y2.7451 
G00 Z0.0200 
G00 X3.6385 Y2.8451 
G01 Z-0.0100 F10.00 
G01 X3.5614 Y2.8451 
G01 X3.5544 Y2.8440 
G01 X3.5477 Y2.8418 
G01 X3.5414 Y2.8386 
G01 X3.5356 Y2.8344 
G01 X3.5306 Y2.8294 
G01 X3.5264 Y2.8236 
G01 X3.5232 Y2.8173 
G01 X3.5210 Y2.8106 
G01 X3.5199 Y2.8035 
G01 X3.5199 Y2.7964 
G01 X3.5210 Y2.7894 
G01 X3.5232 Y2.7827 
G01 X3.5264 Y2.7764 
G01 X3.5306 Y2.7706 
G01 X3.5356 Y2.7656 
G01 X3.5414 Y2.7614 
G01 X3.5477 Y2.7582 
G01 X3.5544 Y2.7560 
G01 X3.5614 Y2.7549 
G01 X3.6385 Y2.7549 
G01 X3.6456 Y2.7560 
G01 X3.6523 Y2.7582 
G01 X3.6586 Y2.7614 
G01 X3.6644 Y2.7656 
G01 X3.6694 Y2.7706 
G01 X3.6736 Y2.7764 
G01 X3.6768 Y2.7827 
G01 X3.6790 Y2.7894 
G01 X3.6801 Y2.7964 
G01 X3.6801 Y2.8035 
G01 X3.6790 Y2.8106 
G01 X3.6768 Y2.8173 
G01 X3.6736 Y2.8236 
G01 X3.6694 Y2.8294 
G01 X3.6644 Y2.8344 
G01 X3.6586 Y2.8386 
G01 X3.6523 Y2.8418 
G01 X3.6456 Y2.8440 
G01 X3.6385 Y2.8451 
G00 Z0.0200 
G00 X1.7099 Y2.8339 
G01 Z-0.0100 F10.00 
G01 X1.7099 Y2.7660 
G01 X1.7114 Y2.7583 
G01 X1.7145 Y2.7510 
G01 X1.7189 Y2.7444 
G01 X1.7244 Y2.7389 
G01 X1.7310 Y2.7345 
G01 X1.7383 Y2.7314 
G01 X1.7460 Y2.7299 
G01 X1.7539 Y2.7299 
G01 X1.7617 Y2.7314 
G01 X1.7690 Y2.7345 
G01 X1.7756 Y2.7389 
G01 X1.7811 Y2.7444 
G01 X1.7855 Y2.7510 
G01 X1.7886 Y2.7583 
G01 X1.7901 Y2.7660 
G01 X1.7901 Y2.8339 
G01 X1.7886 Y2.8417 
G01 X1.7855 Y2.8490 
G01 X1.7811 Y2.8556 
G01 X1.7756 Y2.8611 
G01 X1.7690 Y2.8655 
G01 X1.7617 Y2.8686 
G01 X1.7539 Y2.8701 
G01 X1.7460 Y2.8701 
G01 X1.7383 Y2.8686 
G01 X1.7310 Y2.8655 
G01 X1.7244 Y2.8611 
G01 X1.7189 Y2.8556 
G01 X1.7145 Y2.8490 
G01 X1.7114 Y2.8417 
G01 X1.7099 Y2.8339 
G00 Z0.0200 
G00 X1.6099 Y2.8339 
G01 Z-0.0100 F10.00 
G01 X1.6099 Y2.7660 
G01 X1.6114 Y2.7583 
G01 X1.6145 Y2.7510 
G01 X1.6189 Y2.7444 
G01 X1.6244 Y2.7389 
G01 X1.6310 Y2.7345 
G01 X1.6383 Y2.7314 
G01 X1.6460 Y2.7299 
G01 X1.6539 Y2.7299 
G01 X1.6617 Y2.7314 
G01 X1.6690 Y2.7345 
G01 X1.6756 Y2.7389 
G01 X1.6811 Y2.7444 
G01 X1.6855 Y2.7510 
G01 X1.6886 Y2.7583 
G01 X1.6901 Y2.7660 
G01 X1.6901 Y2.8339 
G01 X1.6886 Y2.8417 
G01 X1.6855 Y2.8490 
G01 X1.6811 Y2.8556 
G01 X1.6756 Y2.8611 
G01 X1.6690 Y2.8655 
G01 X1.6617 Y2.8686 
G01 X1.6539 Y2.8701 
G01 X1.6460 Y2.8701 
G01 X1.6383 Y2.8686 
G01 X1.6310 Y2.8655 
G01 X1.6244 Y2.8611 
G01 X1.6189 Y2.8556 
G01 X1.6145 Y2.8490 
G01 X1.6114 Y2.8417 
G01 X1.6099 Y2.8339 
G00 Z0.0200 
G00 X1.5099 Y2.8339 
G01 Z-0.0100 F10.00 
G01 X1.5099 Y2.7660 
G01 X1.5114 Y2.7583 
G01 X1.5145 Y2.7510 
G01 X1.5189 Y2.7444 
G01 X1.5244 Y2.7389 
G01 X1.5310 Y2.7345 
G01 X1.5383 Y2.7314 
G01 X1.5460 Y2.7299 
G01 X1.5539 Y2.7299 
G01 X1.5617 Y2.7314 
G01 X1.5690 Y2.7345 
G01 X1.5756 Y2.7389 
G01 X1.5811 Y2.7444 
G01 X1.5855 Y2.7510 
G01 X1.5886 Y2.7583 
G01 X1.5901 Y2.7660 
G01 X1.5901 Y2.8339 
G01 X1.5886 Y2.8417 
G01 X1.5855 Y2.8490 
G01 X1.5811 Y2.8556 
G01 X1.5756 Y2.8611 
G01 X1.5690 Y2.8655 
G01 X1.5617 Y2.8686 
G01 X1.5539 Y2.8701 
G01 X1.5460 Y2.8701 
G01 X1.5383 Y2.8686 
G01 X1.5310 Y2.8655 
G01 X1.5244 Y2.8611 
G01 X1.5189 Y2.8556 
G01 X1.5145 Y2.8490 
G01 X1.5114 Y2.8417 
G01 X1.5099 Y2.8339 
G00 Z0.0200 
G00 X3.0796 Y2.7861 
G01 Z-0.0100 F10.00 
G01 X3.0204 Y2.7861 
G01 X3.0135 Y2.7847 
G01 X3.0069 Y2.7820 
G01 X3.0010 Y2.7780 
G01 X2.9960 Y2.7730 
G01 X2.9920 Y2.7671 
G01 X2.9893 Y2.7605 
G01 X2.9879 Y2.7536 
G01 X2.9879 Y2.7464 
G01 X2.9893 Y2.7395 
G01 X2.9920 Y2.7329 
G01 X2.9960 Y2.7270 
G01 X3.0010 Y2.7220 
G01 X3.0069 Y2.7180 
G01 X3.0135 Y2.7153 
G01 X3.0204 Y2.7139 
G01 X3.0796 Y2.7139 
G01 X3.0865 Y2.7153 
G01 X3.0931 Y2.7180 
G01 X3.0990 Y2.7220 
G01 X3.1040 Y2.7270 
G01 X3.1080 Y2.7329 
G01 X3.1107 Y2.7395 
G01 X3.1121 Y2.7464 
G01 X3.1121 Y2.7536 
G01 X3.1107 Y2.7605 
G01 X3.1080 Y2.7671 
G01 X3.1040 Y2.7730 
G01 X3.0990 Y2.7780 
G01 X3.0931 Y2.7820 
G01 X3.0865 Y2.7847 
G01 X3.0796 Y2.7861 
G00 Z0.0200 
G00 X3.0796 Y2.6861 
G01 Z-0.0100 F10.00 
G01 X3.0204 Y2.6861 
G01 X3.0135 Y2.6847 
G01 X3.0069 Y2.6820 
G01 X3.0010 Y2.6780 
G01 X2.9960 Y2.6730 
G01 X2.9920 Y2.6671 
G01 X2.9893 Y2.6605 
G01 X2.9879 Y2.6536 
G01 X2.9879 Y2.6464 
G01 X2.9893 Y2.6395 
G01 X2.9920 Y2.6329 
G01 X2.9960 Y2.6270 
G01 X3.0010 Y2.6220 
G01 X3.0069 Y2.6180 
G01 X3.0135 Y2.6153 
G01 X3.0204 Y2.6139 
G01 X3.0796 Y2.6139 
G01 X3.0865 Y2.6153 
G01 X3.0931 Y2.6180 
G01 X3.0990 Y2.6220 
G01 X3.1040 Y2.6270 
G01 X3.1080 Y2.6329 
G01 X3.1107 Y2.6395 
G01 X3.1121 Y2.6464 
G01 X3.1121 Y2.6536 
G01 X3.1107 Y2.6605 
G01 X3.1080 Y2.6671 
G01 X3.1040 Y2.6730 
G01 X3.0990 Y2.6780 
G01 X3.0931 Y2.6820 
G01 X3.0865 Y2.6847 
G01 X3.0796 Y2.6861 
G00 Z0.0200 
G00 X3.0796 Y2.5861 
G01 Z-0.0100 F10.00 
G01 X3.0204 Y2.5861 
G01 X3.0135 Y2.5847 
G01 X3.0069 Y2.5820 
G01 X3.0010 Y2.5780 
G01 X2.9960 Y2.5730 
G01 X2.9920 Y2.5671 
G01 X2.9893 Y2.5605 
G01 X2.9879 Y2.5536 
G01 X2.9879 Y2.5464 
G01 X2.9893 Y2.5395 
