( This gcode generated by /home/mattvenn/.eagle/ulp/pcb-gcode.ulp )
( Copyright 2005 by John Johnson. See readme.txt for licensing terms. )

( This file generated from the board /home/mattvenn/eagle-circuit-designs/energy plotter/polarplotter.brd )
( This file generated 06/12/2011 12:40 )

( T01 0.024000 )
( T02 0.032000 )
( T03 0.040000 )
( T04 0.044000 )
( T05 0.047000 )
( T06 0.125984 )
G20

G90
M05
G00 X5.5000 Y3.4000 Z7.6000 
M06 T01  ; 0.0240 
G00 Z0.0200 
M03
G04 P3.000000
G82 X1.6000 Y1.4000 Z-0.1200 F5.00  R0.0200 P10.000000
G82 X1.6000 Y1.6000 
M05
G00 X5.5000 Y3.4000 Z7.6000 
M06 T02  ; 0.0320 
G00 Z0.0200 
M03
G04 P3.000000
G82 X0.4500 Y1.8000 Z-0.1200 F5.00  R0.0200 P10.000000
G82 X0.4500 Y2.0000 
G82 X0.7000 Y1.2000 
G82 X0.7000 Y1.3000 
G82 X0.7000 Y1.4000 
G82 X0.7500 Y2.4300 
G82 X0.7500 Y2.5700 
G82 X0.9500 Y2.3000 
G82 X1.0500 Y1.2500 
G82 X1.0500 Y2.5100 
G82 X1.0500 Y2.5900 
G82 X1.1500 Y1.2500 
G82 X1.2000 Y1.4500 
G82 X1.2000 Y1.6000 
G82 X1.2500 Y2.3000 
G82 X1.3000 Y2.5100 
G82 X1.3000 Y2.5900 
G82 X1.3000 Y2.7100 
G82 X1.3000 Y2.7900 
G82 X1.3500 Y1.2000 
G82 X1.4000 Y1.4500 
G82 X1.4000 Y1.6000 
G82 X1.5000 Y2.6500 
G82 X1.6500 Y1.2000 
G82 X1.7000 Y1.8500 
G82 X1.7000 Y2.0500 
G82 X1.7000 Y2.6500 
G82 X1.8500 Y1.2500 
G82 X1.8500 Y1.3500 
G82 X1.8500 Y1.4500 
G82 X1.8500 Y1.5500 
G82 X1.8500 Y1.6500 
G82 X1.8500 Y1.7500 
G82 X1.8500 Y1.8500 
G82 X1.8500 Y1.9500 
G82 X1.8500 Y2.0500 
G82 X1.8500 Y2.1500 
G82 X1.8500 Y2.2500 
G82 X1.8500 Y2.3500 
G82 X1.8500 Y2.4500 
G82 X1.8500 Y2.5500 
G82 X2.1500 Y1.2500 
G82 X2.1500 Y1.3500 
G82 X2.1500 Y1.4500 
G82 X2.1500 Y1.5500 
G82 X2.1500 Y1.6500 
G82 X2.1500 Y1.7500 
G82 X2.1500 Y1.8500 
G82 X2.1500 Y1.9500 
G82 X2.1500 Y2.0500 
G82 X2.1500 Y2.1500 
G82 X2.1500 Y2.2500 
G82 X2.1500 Y2.3500 
G82 X2.1500 Y2.4500 
G82 X2.1500 Y2.5500 
G82 X2.4500 Y1.3000 
G82 X2.5500 Y1.4500 
G82 X2.6500 Y1.4500 
G82 X2.7500 Y1.3000 
G82 X2.7500 Y1.4500 
G82 X2.7500 Y1.9500 
G82 X2.7500 Y2.0500 
G82 X2.7500 Y2.1500 
G82 X2.7500 Y2.2500 
G82 X2.7500 Y2.3500 
G82 X2.7500 Y2.4500 
G82 X2.7500 Y2.5500 
G82 X2.7500 Y2.6500 
G82 X2.7500 Y2.7500 
G82 X2.9000 Y1.6000 
G82 X3.0500 Y1.9500 
G82 X3.0500 Y2.0500 
G82 X3.0500 Y2.1500 
G82 X3.0500 Y2.2500 
G82 X3.0500 Y2.3500 
G82 X3.0500 Y2.4500 
G82 X3.0500 Y2.5500 
G82 X3.0500 Y2.6500 
G82 X3.0500 Y2.7500 
G82 X3.2000 Y1.6000 
M05
G00 X5.5000 Y3.4000 Z7.6000 
M06 T03  ; 0.0400 
G00 Z0.0200 
M03
G04 P3.000000
G82 X0.2500 Y1.2000 Z-0.1200 F5.00  R0.0200 P10.000000
G82 X0.2500 Y1.3000 
G82 X0.2500 Y1.4000 
G82 X0.2500 Y1.5000 
G82 X0.2500 Y1.7000 
G82 X0.2500 Y1.8000 
G82 X0.2500 Y1.9000 
G82 X0.2500 Y2.0000 
G82 X0.2500 Y2.1000 
G82 X0.2500 Y2.2000 
G82 X0.5720 Y2.0110 
G82 X0.5720 Y2.1890 
G82 X0.8280 Y2.0110 
G82 X0.8280 Y2.1890 
G82 X1.5500 Y2.8000 
G82 X1.6500 Y2.8000 
G82 X1.7500 Y2.8000 
G82 X2.9500 Y1.4000 
G82 X3.0500 Y1.4000 
G82 X3.1500 Y1.4000 
G82 X3.3500 Y1.5500 
G82 X3.4500 Y1.5500 
G82 X3.6000 Y1.6500 
G82 X3.6000 Y1.7500 
G82 X3.6000 Y1.8500 
G82 X3.6000 Y1.9500 
G82 X3.6000 Y2.0500 
G82 X3.6000 Y2.1500 
G82 X3.6000 Y2.3000 
G82 X3.6000 Y2.4000 
G82 X3.6000 Y2.5000 
G82 X3.6000 Y2.6000 
G82 X3.6000 Y2.7000 
G82 X3.6000 Y2.8000 
M05
G00 X5.5000 Y3.4000 Z7.6000 
M06 T04  ; 0.0440 
G00 Z0.0200 
M03
G04 P3.000000
G82 X0.6500 Y2.8000 Z-0.1200 F5.00  R0.0200 P10.000000
G82 X1.0500 Y2.8000 
G82 X2.8500 Y1.2000 
G82 X3.2500 Y1.2000 
M05
G00 X5.5000 Y3.4000 Z7.6000 
M06 T05  ; 0.0470 
G00 Z0.0200 
M03
G04 P3.000000
G82 X0.3000 Y2.5516 Z-0.1200 F5.00  R0.0200 P10.000000
G82 X0.3000 Y2.7484 
G82 X3.5000 Y1.1516 
G82 X3.5000 Y1.3484 
M05
G00 X5.5000 Y3.4000 Z7.6000 
M06 T06  ; 0.1260 
G00 Z0.0200 
M03
G04 P3.000000
G82 X-0.1500 Y1.0500 Z-0.1200 F5.00  R0.0200 P10.000000
G82 X-0.1500 Y2.8500 
G82 X3.8500 Y1.0500 
G82 X3.8500 Y2.8500 
(File Footer)
T01 
G00 Z0.5000 
M05
M02
