( This gcode generated by /home/mattvenn/.eagle/ulp/pcb-gcode.ulp )
( Copyright 2005 by John Johnson. See readme.txt for licensing terms. )

( This file generated from the board /home/mattvenn/eagle-circuit-designs/energy plotter/polarplotter.brd )
( This file generated 06/12/2011 12:40 )

G20

G90
G00 Z0.5000 
G00 X0 Y0
M03
G04 P3.000000
G00 Z0.0200 
G00 X-0.1960 Y2.1645 
G01 Z-0.0100 F10.00 
G01 X-0.2033 Y2.1614 
G01 X-0.2110 Y2.1599 
G01 X-0.2199 Y2.1599 
G01 X-0.2199 Y2.1401 
G01 X-0.2110 Y2.1401 
G01 X-0.2033 Y2.1386 
G01 X-0.1960 Y2.1355 
G01 X-0.1897 Y2.1313 
G01 X-0.1927 Y2.1357 
G01 X-0.1927 Y2.1357 
G01 X-0.1927 Y2.1358 
G01 X-0.1944 Y2.1398 
G01 X-0.1949 Y2.1412 
G01 X-0.1949 Y2.1412 
G01 X-0.1949 Y2.1412 
G01 X-0.1953 Y2.1431 
G01 X-0.1961 Y2.1470 
G01 X-0.1961 Y2.1530 
G01 X-0.1961 Y2.1530 
G01 X-0.1952 Y2.1575 
G01 X-0.1949 Y2.1588 
G01 X-0.1949 Y2.1588 
G01 X-0.1949 Y2.1588 
G01 X-0.1935 Y2.1623 
G01 X-0.1927 Y2.1643 
G01 X-0.1927 Y2.1643 
G01 X-0.1927 Y2.1643 
G01 X-0.1914 Y2.1662 
G01 X-0.1897 Y2.1687 
G01 X-0.1960 Y2.1645 
G00 Z0.0200 
G00 X-1.6157 Y1.2716 
G01 Z-0.0100 F10.00 
G01 X-1.6157 Y1.2716 
G01 X-1.6190 Y1.2749 
G01 X-1.6199 Y1.2758 
G01 X-1.6232 Y1.2807 
G01 X-1.6254 Y1.2862 
G01 X-1.6266 Y1.2920 
G01 X-1.6266 Y1.2980 
G01 X-1.6266 Y1.2980 
G01 X-1.6255 Y1.3034 
G01 X-1.6254 Y1.3038 
G01 X-1.6232 Y1.3093 
G01 X-1.6199 Y1.3142 
G01 X-1.6157 Y1.3184 
G01 X-1.6108 Y1.3217 
G01 X-1.6053 Y1.3239 
G01 X-1.5995 Y1.3251 
G01 X-1.5936 Y1.3251 
G01 X-1.5690 Y1.3251 
G01 X-1.5251 Y1.3690 
G01 X-1.5251 Y1.3721 
G01 X-1.5252 Y1.3739 
G01 X-1.5251 Y1.3750 
G01 X-1.5251 Y1.3761 
G01 X-1.5247 Y1.3779 
G01 X-1.5245 Y1.3798 
G01 X-1.5241 Y1.3809 
G01 X-1.5239 Y1.3819 
G01 X-1.5232 Y1.3836 
G01 X-1.5226 Y1.3855 
G01 X-1.5221 Y1.3864 
G01 X-1.5217 Y1.3874 
G01 X-1.5206 Y1.3889 
G01 X-1.5197 Y1.3906 
G01 X-1.5190 Y1.3914 
G01 X-1.5184 Y1.3923 
G01 X-1.5170 Y1.3936 
G01 X-1.5158 Y1.3951 
G01 X-1.5149 Y1.3957 
G01 X-1.5142 Y1.3965 
G01 X-1.5126 Y1.3976 
G01 X-1.5111 Y1.3987 
G01 X-1.5101 Y1.3992 
G01 X-1.5093 Y1.3998 
G01 X-1.5075 Y1.4005 
G01 X-1.4984 Y1.4051 
G01 X-1.4975 Y1.4057 
G01 X-1.4958 Y1.4064 
G01 X-1.4940 Y1.4072 
G01 X-1.4930 Y1.4075 
G01 X-1.4920 Y1.4079 
G01 X-1.4902 Y1.4083 
G01 X-1.4883 Y1.4088 
G01 X-1.4872 Y1.4089 
G01 X-1.4862 Y1.4091 
G01 X-1.4843 Y1.4091 
G01 X-1.4824 Y1.4092 
G01 X-1.4813 Y1.4091 
G01 X-1.4745 Y1.4091 
G01 X-1.4687 Y1.4079 
G01 X-1.4632 Y1.4057 
G01 X-1.4583 Y1.4024 
G01 X-1.4541 Y1.3982 
G01 X-1.4310 Y1.3751 
G01 X-1.3690 Y1.3751 
G01 X-1.3251 Y1.4190 
G01 X-1.3251 Y1.4810 
G01 X-1.3457 Y1.5016 
G01 X-1.3457 Y1.5016 
G01 X-1.3499 Y1.5058 
G01 X-1.3518 Y1.5087 
G01 X-1.3532 Y1.5107 
G01 X-1.3554 Y1.5162 
G01 X-1.3566 Y1.5220 
G01 X-1.3566 Y1.5280 
G01 X-1.3566 Y1.5280 
G01 X-1.3555 Y1.5334 
G01 X-1.3554 Y1.5338 
G01 X-1.3532 Y1.5392 
G01 X-1.3499 Y1.5442 
G01 X-1.3498 Y1.5442 
G01 X-1.3251 Y1.5690 
G01 X-1.3251 Y1.6310 
G01 X-1.3690 Y1.6749 
G01 X-1.4310 Y1.6749 
G01 X-1.4583 Y1.6476 
G01 X-1.4632 Y1.6443 
G01 X-1.4687 Y1.6421 
G01 X-1.4745 Y1.6409 
G01 X-1.4805 Y1.6409 
G01 X-1.5255 Y1.6409 
G01 X-1.5313 Y1.6421 
G01 X-1.5368 Y1.6443 
G01 X-1.5417 Y1.6476 
G01 X-1.5459 Y1.6518 
G01 X-1.5524 Y1.6583 
G01 X-1.5557 Y1.6632 
G01 X-1.5579 Y1.6687 
G01 X-1.5591 Y1.6745 
G01 X-1.5591 Y1.6805 
G01 X-1.5591 Y1.7388 
G01 X-1.5591 Y1.7581 
G01 X-1.5653 Y1.7732 
G01 X-1.5768 Y1.7847 
G01 X-1.5919 Y1.7909 
G01 X-1.6180 Y1.7909 
G01 X-1.6238 Y1.7921 
G01 X-1.6293 Y1.7943 
G01 X-1.6342 Y1.7976 
G01 X-1.6384 Y1.8018 
G01 X-1.6417 Y1.8067 
G01 X-1.6439 Y1.8122 
G01 X-1.6444 Y1.8143 
G01 X-1.6551 Y1.8170 
G01 X-1.6772 Y1.7949 
G01 X-1.7228 Y1.7949 
G01 X-1.7478 Y1.8199 
G01 X-1.7880 Y1.8199 
G01 X-1.7935 Y1.8199 
G01 X-1.7990 Y1.8162 
G01 X-1.8059 Y1.8134 
G01 X-1.8132 Y1.8119 
G01 X-1.8868 Y1.8119 
G01 X-1.8941 Y1.8134 
G01 X-1.9010 Y1.8162 
G01 X-1.9065 Y1.8199 
G01 X-1.9119 Y1.8199 
G01 X-1.9116 Y1.8187 
G01 X-1.9116 Y1.8177 
G01 X-1.9115 Y1.8167 
G01 X-1.9116 Y1.8147 
G01 X-1.9116 Y1.8128 
G01 X-1.9118 Y1.8118 
G01 X-1.9119 Y1.8108 
G01 X-1.9124 Y1.8089 
G01 X-1.9128 Y1.8069 
G01 X-1.9132 Y1.8060 
G01 X-1.9134 Y1.8051 
G01 X-1.9143 Y1.8033 
G01 X-1.9151 Y1.8015 
G01 X-1.9156 Y1.8006 
G01 X-1.9160 Y1.7998 
G01 X-1.9172 Y1.7982 
G01 X-1.9183 Y1.7965 
G01 X-1.9191 Y1.7958 
G01 X-1.9196 Y1.7951 
G01 X-1.9211 Y1.7938 
G01 X-1.9321 Y1.7828 
G01 X-1.9409 Y1.7615 
G01 X-1.9409 Y1.7385 
G01 X-1.9311 Y1.7148 
G01 X-1.9310 Y1.7146 
G01 X-1.9309 Y1.7144 
G01 X-1.9308 Y1.7143 
G01 X-1.9298 Y1.7119 
G01 X-1.9286 Y1.7092 
G01 X-1.9286 Y1.7089 
G01 X-1.9285 Y1.7088 
G01 X-1.9280 Y1.7062 
G01 X-1.9274 Y1.7034 
G01 X-1.9274 Y1.7031 
G01 X-1.9274 Y1.7030 
G01 X-1.9274 Y1.7002 
G01 X-1.9273 Y1.6974 
G01 X-1.9274 Y1.6972 
G01 X-1.9274 Y1.6970 
G01 X-1.9279 Y1.6944 
G01 X-1.9284 Y1.6916 
G01 X-1.9285 Y1.6914 
G01 X-1.9285 Y1.6912 
G01 X-1.9295 Y1.6889 
G01 X-1.9306 Y1.6861 
G01 X-1.9307 Y1.6859 
G01 X-1.9308 Y1.6857 
G01 X-1.9310 Y1.6854 
G01 X-1.9409 Y1.6615 
G01 X-1.9409 Y1.6385 
G01 X-1.9311 Y1.6148 
G01 X-1.9310 Y1.6146 
G01 X-1.9309 Y1.6144 
G01 X-1.9308 Y1.6143 
G01 X-1.9298 Y1.6119 
G01 X-1.9286 Y1.6092 
G01 X-1.9286 Y1.6089 
G01 X-1.9285 Y1.6088 
G01 X-1.9280 Y1.6062 
G01 X-1.9274 Y1.6034 
G01 X-1.9274 Y1.6031 
G01 X-1.9274 Y1.6030 
G01 X-1.9274 Y1.6002 
G01 X-1.9273 Y1.5974 
G01 X-1.9274 Y1.5972 
G01 X-1.9274 Y1.5970 
G01 X-1.9279 Y1.5944 
G01 X-1.9284 Y1.5916 
G01 X-1.9285 Y1.5914 
G01 X-1.9285 Y1.5912 
G01 X-1.9295 Y1.5889 
G01 X-1.9306 Y1.5861 
G01 X-1.9307 Y1.5859 
G01 X-1.9308 Y1.5857 
G01 X-1.9310 Y1.5854 
G01 X-1.9409 Y1.5615 
G01 X-1.9409 Y1.5385 
G01 X-1.9311 Y1.5148 
G01 X-1.9310 Y1.5146 
G01 X-1.9309 Y1.5144 
G01 X-1.9308 Y1.5143 
G01 X-1.9298 Y1.5119 
G01 X-1.9286 Y1.5092 
G01 X-1.9286 Y1.5089 
G01 X-1.9285 Y1.5088 
G01 X-1.9280 Y1.5062 
G01 X-1.9274 Y1.5034 
G01 X-1.9274 Y1.5031 
G01 X-1.9274 Y1.5030 
G01 X-1.9274 Y1.5002 
G01 X-1.9273 Y1.4974 
G01 X-1.9274 Y1.4972 
G01 X-1.9274 Y1.4970 
G01 X-1.9279 Y1.4944 
G01 X-1.9284 Y1.4916 
G01 X-1.9285 Y1.4914 
G01 X-1.9285 Y1.4912 
G01 X-1.9295 Y1.4889 
G01 X-1.9306 Y1.4861 
G01 X-1.9307 Y1.4859 
G01 X-1.9308 Y1.4857 
G01 X-1.9310 Y1.4854 
G01 X-1.9409 Y1.4615 
G01 X-1.9409 Y1.4385 
G01 X-1.9311 Y1.4148 
G01 X-1.9310 Y1.4146 
G01 X-1.9309 Y1.4144 
G01 X-1.9308 Y1.4143 
G01 X-1.9298 Y1.4119 
G01 X-1.9286 Y1.4092 
G01 X-1.9286 Y1.4089 
G01 X-1.9285 Y1.4088 
G01 X-1.9280 Y1.4062 
G01 X-1.9274 Y1.4034 
G01 X-1.9274 Y1.4031 
G01 X-1.9274 Y1.4030 
G01 X-1.9274 Y1.4002 
G01 X-1.9273 Y1.3974 
G01 X-1.9274 Y1.3972 
G01 X-1.9274 Y1.3970 
G01 X-1.9279 Y1.3944 
G01 X-1.9284 Y1.3916 
G01 X-1.9285 Y1.3914 
G01 X-1.9285 Y1.3912 
G01 X-1.9295 Y1.3889 
G01 X-1.9306 Y1.3861 
G01 X-1.9307 Y1.3859 
G01 X-1.9308 Y1.3857 
G01 X-1.9310 Y1.3854 
G01 X-1.9409 Y1.3615 
G01 X-1.9409 Y1.3385 
G01 X-1.9311 Y1.3148 
G01 X-1.9310 Y1.3146 
G01 X-1.9309 Y1.3144 
G01 X-1.9308 Y1.3143 
G01 X-1.9298 Y1.3119 
G01 X-1.9286 Y1.3092 
G01 X-1.9286 Y1.3089 
G01 X-1.9285 Y1.3088 
G01 X-1.9280 Y1.3062 
G01 X-1.9274 Y1.3034 
G01 X-1.9274 Y1.3031 
G01 X-1.9274 Y1.3030 
G01 X-1.9274 Y1.3002 
G01 X-1.9273 Y1.2974 
G01 X-1.9274 Y1.2972 
G01 X-1.9274 Y1.2970 
G01 X-1.9279 Y1.2944 
G01 X-1.9284 Y1.2916 
G01 X-1.9285 Y1.2914 
G01 X-1.9285 Y1.2912 
G01 X-1.9295 Y1.2889 
G01 X-1.9306 Y1.2861 
G01 X-1.9307 Y1.2859 
G01 X-1.9308 Y1.2857 
G01 X-1.9310 Y1.2854 
G01 X-1.9409 Y1.2615 
G01 X-1.9409 Y1.2385 
G01 X-1.9321 Y1.2172 
G01 X-1.9158 Y1.2009 
G01 X-1.8945 Y1.1921 
G01 X-1.8055 Y1.1921 
G01 X-1.8050 Y1.1923 
G01 X-1.8043 Y1.1924 
G01 X-1.8036 Y1.1927 
G01 X-1.8013 Y1.1930 
G01 X-1.7992 Y1.1935 
G01 X-1.7985 Y1.1935 
G01 X-1.7977 Y1.1936 
G01 X-1.7955 Y1.1935 
G01 X-1.7933 Y1.1935 
G01 X-1.7925 Y1.1933 
G01 X-1.7918 Y1.1933 
G01 X-1.7897 Y1.1927 
G01 X-1.7874 Y1.1923 
G01 X-1.7867 Y1.1920 
G01 X-1.7438 Y1.1813 
G01 X-1.7416 Y1.1808 
G01 X-1.7409 Y1.1806 
G01 X-1.7402 Y1.1804 
G01 X-1.7382 Y1.1794 
G01 X-1.7361 Y1.1786 
G01 X-1.7355 Y1.1782 
G01 X-1.7349 Y1.1779 
G01 X-1.7331 Y1.1765 
G01 X-1.7312 Y1.1753 
G01 X-1.7307 Y1.1748 
G01 X-1.7301 Y1.1743 
G01 X-1.7286 Y1.1727 
G01 X-1.6860 Y1.1301 
G01 X-1.6140 Y1.1301 
G01 X-1.5751 Y1.1690 
G01 X-1.5751 Y1.2310 
G01 X-1.6157 Y1.2716 
G00 Z0.0200 
G00 X-1.7051 Y1.1772 
G01 Z-0.0100 F10.00 
G01 X-1.7051 Y1.1920 
G01 X-1.8001 Y1.2158 
G01 X-1.8059 Y1.2134 
G01 X-1.8132 Y1.2119 
G01 X-1.8868 Y1.2119 
G01 X-1.8941 Y1.2134 
G01 X-1.9010 Y1.2162 
G01 X-1.9073 Y1.2204 
G01 X-1.9126 Y1.2257 
G01 X-1.9168 Y1.2320 
G01 X-1.9196 Y1.2389 
G01 X-1.9211 Y1.2462 
G01 X-1.9211 Y1.2538 
G01 X-1.9196 Y1.2611 
G01 X-1.9168 Y1.2680 
G01 X-1.9126 Y1.2743 
G01 X-1.9073 Y1.2796 
G01 X-1.9010 Y1.2838 
G01 X-1.8941 Y1.2866 
G01 X-1.8868 Y1.2881 
G01 X-1.8132 Y1.2881 
G01 X-1.8059 Y1.2866 
G01 X-1.7990 Y1.2838 
G01 X-1.7927 Y1.2796 
G01 X-1.7874 Y1.2743 
G01 X-1.7832 Y1.2680 
G01 X-1.7804 Y1.2611 
G01 X-1.7790 Y1.2540 
G01 X-1.6949 Y1.2330 
G01 X-1.6728 Y1.2551 
G01 X-1.6272 Y1.2551 
G01 X-1.5949 Y1.2228 
G01 X-1.5949 Y1.1772 
G01 X-1.6272 Y1.1449 
G01 X-1.6728 Y1.1449 
G01 X-1.7051 Y1.1772 
G00 Z0.0200 
G00 X-1.4551 Y1.4272 
G01 Z-0.0100 F10.00 
G01 X-1.4551 Y1.4289 
G01 X-1.4950 Y1.4289 
G01 X-1.5449 Y1.4040 
G01 X-1.5449 Y1.3772 
G01 X-1.5772 Y1.3449 
G01 X-1.6228 Y1.3449 
G01 X-1.6551 Y1.3772 
G01 X-1.6551 Y1.3789 
G01 X-1.7028 Y1.3789 
G01 X-1.7081 Y1.3803 
G01 X-1.7129 Y1.3831 
G01 X-1.7169 Y1.3870 
G01 X-1.7197 Y1.3919 
G01 X-1.7211 Y1.3972 
G01 X-1.7211 Y1.4028 
G01 X-1.7211 Y1.6289 
G01 X-1.7853 Y1.6289 
G01 X-1.7874 Y1.6257 
G01 X-1.7927 Y1.6204 
G01 X-1.7990 Y1.6162 
G01 X-1.8059 Y1.6134 
G01 X-1.8132 Y1.6119 
G01 X-1.8868 Y1.6119 
G01 X-1.8941 Y1.6134 
G01 X-1.9010 Y1.6162 
G01 X-1.9073 Y1.6204 
G01 X-1.9126 Y1.6257 
G01 X-1.9168 Y1.6320 
G01 X-1.9196 Y1.6389 
G01 X-1.9211 Y1.6462 
G01 X-1.9211 Y1.6538 
G01 X-1.9196 Y1.6611 
G01 X-1.9168 Y1.6680 
G01 X-1.9126 Y1.6743 
G01 X-1.9073 Y1.6796 
G01 X-1.9010 Y1.6838 
G01 X-1.8941 Y1.6866 
G01 X-1.8868 Y1.6881 
G01 X-1.8132 Y1.6881 
G01 X-1.8059 Y1.6866 
G01 X-1.7990 Y1.6838 
G01 X-1.7927 Y1.6796 
G01 X-1.7874 Y1.6743 
G01 X-1.7853 Y1.6711 
G01 X-1.7028 Y1.6711 
G01 X-1.6972 Y1.6711 
G01 X-1.6919 Y1.6697 
G01 X-1.6870 Y1.6669 
G01 X-1.6831 Y1.6629 
G01 X-1.6803 Y1.6581 
G01 X-1.6789 Y1.6528 
G01 X-1.6789 Y1.4211 
G01 X-1.6551 Y1.4211 
G01 X-1.6551 Y1.4228 
G01 X-1.6228 Y1.4551 
G01 X-1.5772 Y1.4551 
G01 X-1.5638 Y1.4417 
G01 X-1.5100 Y1.4686 
G01 X-1.5081 Y1.4697 
G01 X-1.5075 Y1.4698 
G01 X-1.5069 Y1.4701 
G01 X-1.5048 Y1.4705 
G01 X-1.5028 Y1.4711 
G01 X-1.5021 Y1.4711 
G01 X-1.5015 Y1.4712 
G01 X-1.4994 Y1.4711 
G01 X-1.4551 Y1.4711 
G01 X-1.4551 Y1.4728 
G01 X-1.4228 Y1.5051 
G01 X-1.3772 Y1.5051 
G01 X-1.3449 Y1.4728 
G01 X-1.3449 Y1.4272 
G01 X-1.3772 Y1.3949 
G01 X-1.4228 Y1.3949 
G01 X-1.4551 Y1.4272 
G00 Z0.0200 
G00 X-1.6551 Y1.5772 
G01 Z-0.0100 F10.00 
G01 X-1.6551 Y1.6228 
G01 X-1.6228 Y1.6551 
G01 X-1.6211 Y1.6551 
G01 X-1.6211 Y1.7289 
G01 X-1.7853 Y1.7289 
G01 X-1.7874 Y1.7257 
G01 X-1.7927 Y1.7204 
G01 X-1.7990 Y1.7162 
G01 X-1.8059 Y1.7134 
G01 X-1.8132 Y1.7119 
G01 X-1.8868 Y1.7119 
G01 X-1.8941 Y1.7134 
G01 X-1.9010 Y1.7162 
G01 X-1.9073 Y1.7204 
G01 X-1.9126 Y1.7257 
G01 X-1.9168 Y1.7320 
G01 X-1.9196 Y1.7389 
G01 X-1.9211 Y1.7462 
G01 X-1.9211 Y1.7538 
G01 X-1.9196 Y1.7611 
G01 X-1.9168 Y1.7680 
G01 X-1.9126 Y1.7743 
G01 X-1.9073 Y1.7796 
G01 X-1.9010 Y1.7838 
G01 X-1.8941 Y1.7866 
G01 X-1.8868 Y1.7881 
G01 X-1.8132 Y1.7881 
G01 X-1.8059 Y1.7866 
G01 X-1.7990 Y1.7838 
G01 X-1.7927 Y1.7796 
G01 X-1.7874 Y1.7743 
G01 X-1.7853 Y1.7711 
G01 X-1.5972 Y1.7711 
G01 X-1.5919 Y1.7697 
G01 X-1.5870 Y1.7669 
G01 X-1.5831 Y1.7629 
G01 X-1.5803 Y1.7581 
G01 X-1.5789 Y1.7528 
G01 X-1.5789 Y1.7472 
G01 X-1.5789 Y1.6551 
G01 X-1.5772 Y1.6551 
G01 X-1.5449 Y1.6228 
G01 X-1.5449 Y1.6211 
G01 X-1.4551 Y1.6211 
G01 X-1.4551 Y1.6228 
G01 X-1.4228 Y1.6551 
G01 X-1.3772 Y1.6551 
G01 X-1.3449 Y1.6228 
G01 X-1.3449 Y1.5772 
G01 X-1.3772 Y1.5449 
G01 X-1.4228 Y1.5449 
G01 X-1.4551 Y1.5772 
G01 X-1.4551 Y1.5789 
G01 X-1.5449 Y1.5789 
G01 X-1.5449 Y1.5772 
G01 X-1.5772 Y1.5449 
G01 X-1.6228 Y1.5449 
G01 X-1.6551 Y1.5772 
G00 Z0.0200 
G00 X-1.8868 Y1.3881 
G01 Z-0.0100 F10.00 
G01 X-1.8132 Y1.3881 
G01 X-1.8059 Y1.3866 
G01 X-1.7990 Y1.3838 
G01 X-1.7927 Y1.3796 
G01 X-1.7874 Y1.3743 
G01 X-1.7832 Y1.3680 
G01 X-1.7804 Y1.3611 
G01 X-1.7789 Y1.3538 
G01 X-1.7789 Y1.3462 
G01 X-1.7804 Y1.3389 
G01 X-1.7832 Y1.3320 
G01 X-1.7874 Y1.3257 
G01 X-1.7927 Y1.3204 
G01 X-1.7990 Y1.3162 
G01 X-1.8059 Y1.3134 
G01 X-1.8132 Y1.3119 
G01 X-1.8868 Y1.3119 
G01 X-1.8941 Y1.3134 
G01 X-1.9010 Y1.3162 
G01 X-1.9073 Y1.3204 
G01 X-1.9126 Y1.3257 
G01 X-1.9168 Y1.3320 
G01 X-1.9196 Y1.3389 
G01 X-1.9211 Y1.3462 
G01 X-1.9211 Y1.3538 
G01 X-1.9196 Y1.3611 
G01 X-1.9168 Y1.3680 
G01 X-1.9126 Y1.3743 
G01 X-1.9073 Y1.3796 
G01 X-1.9010 Y1.3838 
G01 X-1.8941 Y1.3866 
G01 X-1.8868 Y1.3881 
G00 Z0.0200 
G00 X-1.8868 Y1.4881 
G01 Z-0.0100 F10.00 
G01 X-1.8132 Y1.4881 
G01 X-1.8059 Y1.4866 
G01 X-1.7990 Y1.4838 
G01 X-1.7927 Y1.4796 
G01 X-1.7874 Y1.4743 
G01 X-1.7832 Y1.4680 
G01 X-1.7804 Y1.4611 
G01 X-1.7789 Y1.4538 
G01 X-1.7789 Y1.4462 
G01 X-1.7804 Y1.4389 
G01 X-1.7832 Y1.4320 
G01 X-1.7874 Y1.4257 
G01 X-1.7927 Y1.4204 
G01 X-1.7990 Y1.4162 
G01 X-1.8059 Y1.4134 
G01 X-1.8132 Y1.4119 
G01 X-1.8868 Y1.4119 
G01 X-1.8941 Y1.4134 
G01 X-1.9010 Y1.4162 
G01 X-1.9073 Y1.4204 
G01 X-1.9126 Y1.4257 
G01 X-1.9168 Y1.4320 
G01 X-1.9196 Y1.4389 
G01 X-1.9211 Y1.4462 
G01 X-1.9211 Y1.4538 
G01 X-1.9196 Y1.4611 
G01 X-1.9168 Y1.4680 
G01 X-1.9126 Y1.4743 
G01 X-1.9073 Y1.4796 
G01 X-1.9010 Y1.4838 
G01 X-1.8941 Y1.4866 
G01 X-1.8868 Y1.4881 
G00 Z0.0200 
G00 X-1.8868 Y1.5881 
G01 Z-0.0100 F10.00 
G01 X-1.8132 Y1.5881 
G01 X-1.8059 Y1.5866 
G01 X-1.7990 Y1.5838 
G01 X-1.7927 Y1.5796 
G01 X-1.7874 Y1.5743 
G01 X-1.7832 Y1.5680 
G01 X-1.7804 Y1.5611 
G01 X-1.7789 Y1.5538 
G01 X-1.7789 Y1.5462 
G01 X-1.7804 Y1.5389 
G01 X-1.7832 Y1.5320 
G01 X-1.7874 Y1.5257 
G01 X-1.7927 Y1.5204 
G01 X-1.7990 Y1.5162 
G01 X-1.8059 Y1.5134 
G01 X-1.8132 Y1.5119 
G01 X-1.8868 Y1.5119 
G01 X-1.8941 Y1.5134 
G01 X-1.9010 Y1.5162 
G01 X-1.9073 Y1.5204 
G01 X-1.9126 Y1.5257 
G01 X-1.9168 Y1.5320 
G01 X-1.9196 Y1.5389 
G01 X-1.9211 Y1.5462 
G01 X-1.9211 Y1.5538 
G01 X-1.9196 Y1.5611 
G01 X-1.9168 Y1.5680 
G01 X-1.9126 Y1.5743 
G01 X-1.9073 Y1.5796 
G01 X-1.9010 Y1.5838 
G01 X-1.8941 Y1.5866 
G01 X-1.8868 Y1.5881 
G00 Z0.0200 
G00 X-1.0981 Y1.2301 
G01 Z-0.0100 F10.00 
G01 X-1.0981 Y1.2699 
G01 X-1.0801 Y1.2879 
G01 X-1.0801 Y1.2949 
G01 X-1.0829 Y1.2943 
G01 X-1.0888 Y1.2943 
G01 X-1.0888 Y1.2943 
G01 X-1.0913 Y1.2949 
G01 X-1.0946 Y1.2955 
G01 X-1.0946 Y1.2955 
G01 X-1.0946 Y1.2955 
G01 X-1.0954 Y1.2958 
G01 X-1.1001 Y1.2978 
G01 X-1.1001 Y1.2978 
G01 X-1.1001 Y1.2978 
G01 X-1.1034 Y1.2999 
G01 X-1.1050 Y1.3011 
G01 X-1.1050 Y1.3011 
G01 X-1.1050 Y1.3011 
G01 X-1.1086 Y1.3046 
G01 X-1.1092 Y1.3052 
G01 X-1.1092 Y1.3052 
G01 X-1.1219 Y1.3179 
G01 X-1.1781 Y1.3179 
G01 X-1.2154 Y1.2806 
G01 X-1.2169 Y1.2790 
G01 X-1.2175 Y1.2785 
G01 X-1.2180 Y1.2780 
G01 X-1.2199 Y1.2768 
G01 X-1.2217 Y1.2754 
G01 X-1.2223 Y1.2751 
G01 X-1.2229 Y1.2747 
G01 X-1.2250 Y1.2739 
G01 X-1.2270 Y1.2729 
G01 X-1.2277 Y1.2727 
G01 X-1.2284 Y1.2724 
G01 X-1.2306 Y1.2720 
G01 X-1.2803 Y1.2596 
G01 X-1.2810 Y1.2593 
G01 X-1.2832 Y1.2589 
G01 X-1.2853 Y1.2583 
G01 X-1.2861 Y1.2583 
G01 X-1.2868 Y1.2581 
G01 X-1.2890 Y1.2581 
G01 X-1.2913 Y1.2580 
G01 X-1.2920 Y1.2581 
G01 X-1.2927 Y1.2581 
G01 X-1.2949 Y1.2586 
G01 X-1.2971 Y1.2589 
G01 X-1.2978 Y1.2592 
G01 X-1.2985 Y1.2593 
G01 X-1.3006 Y1.2602 
G01 X-1.3027 Y1.2609 
G01 X-1.3033 Y1.2613 
G01 X-1.3040 Y1.2616 
G01 X-1.3058 Y1.2628 
G01 X-1.3078 Y1.2640 
G01 X-1.3083 Y1.2645 
G01 X-1.3089 Y1.2649 
G01 X-1.3105 Y1.2664 
G01 X-1.3122 Y1.2679 
G01 X-1.3126 Y1.2685 
G01 X-1.3190 Y1.2749 
G01 X-1.3810 Y1.2749 
G01 X-1.4249 Y1.2310 
G01 X-1.4249 Y1.1690 
G01 X-1.3860 Y1.1301 
G01 X-1.3140 Y1.1301 
G01 X-1.2714 Y1.1727 
G01 X-1.2699 Y1.1743 
G01 X-1.2693 Y1.1748 
G01 X-1.2688 Y1.1753 
G01 X-1.2669 Y1.1765 
G01 X-1.2651 Y1.1779 
G01 X-1.2645 Y1.1782 
G01 X-1.2639 Y1.1786 
G01 X-1.2618 Y1.1794 
G01 X-1.2598 Y1.1804 
G01 X-1.2591 Y1.1806 
G01 X-1.2584 Y1.1808 
G01 X-1.2562 Y1.1813 
G01 X-1.2118 Y1.1924 
G01 X-1.2111 Y1.1927 
G01 X-1.2089 Y1.1931 
G01 X-1.2067 Y1.1936 
G01 X-1.2060 Y1.1937 
G01 X-1.2053 Y1.1938 
G01 X-1.2031 Y1.1938 
G01 X-1.2008 Y1.1939 
G01 X-1.2001 Y1.1938 
G01 X-1.1994 Y1.1938 
G01 X-1.1972 Y1.1934 
G01 X-1.1950 Y1.1931 
G01 X-1.1943 Y1.1928 
G01 X-1.1935 Y1.1927 
G01 X-1.1915 Y1.1918 
G01 X-1.1894 Y1.1911 
G01 X-1.1887 Y1.1907 
G01 X-1.1881 Y1.1904 
G01 X-1.1862 Y1.1892 
G01 X-1.1843 Y1.1880 
G01 X-1.1837 Y1.1875 
G01 X-1.1831 Y1.1871 
G01 X-1.1816 Y1.1855 
G01 X-1.1799 Y1.1840 
G01 X-1.1795 Y1.1834 
G01 X-1.1781 Y1.1821 
G01 X-1.1219 Y1.1821 
G01 X-1.1092 Y1.1947 
G01 X-1.1092 Y1.1947 
G01 X-1.1087 Y1.1952 
G01 X-1.1050 Y1.1989 
G01 X-1.1050 Y1.1989 
G01 X-1.1050 Y1.1989 
G01 X-1.1035 Y1.2000 
G01 X-1.1001 Y1.2022 
G01 X-1.1001 Y1.2022 
G01 X-1.1001 Y1.2022 
G01 X-1.0957 Y1.2040 
G01 X-1.0946 Y1.2045 
G01 X-1.0946 Y1.2045 
G01 X-1.0946 Y1.2045 
G01 X-1.0914 Y1.2051 
G01 X-1.0888 Y1.2056 
G01 X-1.0829 Y1.2056 
G01 X-1.0829 Y1.2056 
G01 X-1.0801 Y1.2051 
G01 X-1.0801 Y1.2121 
G01 X-1.0981 Y1.2301 
G00 Z0.0200 
G00 X-1.4051 Y1.1772 
G01 Z-0.0100 F10.00 
G01 X-1.4051 Y1.2228 
G01 X-1.3728 Y1.2551 
G01 X-1.3272 Y1.2551 
G01 X-1.3051 Y1.2330 
G01 X-1.1981 Y1.2597 
G01 X-1.1981 Y1.2699 
G01 X-1.1699 Y1.2981 
G01 X-1.1301 Y1.2981 
G01 X-1.1019 Y1.2699 
G01 X-1.1019 Y1.2301 
G01 X-1.1301 Y1.2019 
G01 X-1.1699 Y1.2019 
G01 X-1.1870 Y1.2190 
G01 X-1.2949 Y1.1920 
G01 X-1.2949 Y1.1772 
G01 X-1.3272 Y1.1449 
G01 X-1.3728 Y1.1449 
G01 X-1.4051 Y1.1772 
G00 Z0.0200 
G00 X-0.2889 Y2.0401 
G01 Z-0.0100 F10.00 
G01 X-0.2110 Y2.0401 
G01 X-0.2033 Y2.0386 
G01 X-0.1960 Y2.0355 
G01 X-0.1894 Y2.0311 
G01 X-0.1839 Y2.0256 
G01 X-0.1795 Y2.0190 
G01 X-0.1764 Y2.0117 
G01 X-0.1749 Y2.0039 
G01 X-0.1749 Y1.9960 
G01 X-0.1764 Y1.9883 
G01 X-0.1795 Y1.9810 
G01 X-0.1839 Y1.9744 
G01 X-0.1894 Y1.9689 
G01 X-0.1960 Y1.9645 
G01 X-0.2033 Y1.9614 
G01 X-0.2110 Y1.9599 
G01 X-0.2889 Y1.9599 
G01 X-0.2967 Y1.9614 
G01 X-0.3040 Y1.9645 
G01 X-0.3106 Y1.9689 
G01 X-0.3161 Y1.9744 
G01 X-0.3191 Y1.9789 
G01 X-0.3528 Y1.9789 
G01 X-0.3581 Y1.9803 
G01 X-0.3629 Y1.9831 
G01 X-0.3669 Y1.9870 
G01 X-0.3697 Y1.9919 
G01 X-0.3711 Y1.9972 
G01 X-0.3711 Y2.0028 
G01 X-0.3711 Y2.0789 
G01 X-0.7028 Y2.0789 
G01 X-0.7081 Y2.0803 
G01 X-0.7129 Y2.0831 
G01 X-0.7169 Y2.0870 
G01 X-0.7197 Y2.0919 
G01 X-0.7211 Y2.0972 
G01 X-0.7211 Y2.1028 
G01 X-0.7211 Y2.2789 
G01 X-0.8949 Y2.2789 
G01 X-0.8949 Y2.2772 
G01 X-0.9272 Y2.2449 
G01 X-0.9728 Y2.2449 
G01 X-0.9978 Y2.2699 
G01 X-1.0530 Y2.2699 
G01 X-1.0588 Y2.2711 
G01 X-1.0643 Y2.2733 
G01 X-1.0692 Y2.2766 
G01 X-1.0734 Y2.2808 
G01 X-1.0767 Y2.2857 
G01 X-1.0789 Y2.2912 
G01 X-1.0801 Y2.2970 
G01 X-1.0801 Y2.3030 
G01 X-1.0801 Y2.4799 
G01 X-1.2734 Y2.4799 
G01 X-1.2744 Y2.4789 
G01 X-1.2810 Y2.4745 
G01 X-1.2883 Y2.4714 
G01 X-1.2960 Y2.4699 
G01 X-1.2970 Y2.4699 
G01 X-1.4030 Y2.4699 
G01 X-1.4088 Y2.4711 
G01 X-1.4143 Y2.4733 
G01 X-1.4192 Y2.4766 
G01 X-1.4234 Y2.4808 
G01 X-1.4267 Y2.4857 
G01 X-1.4289 Y2.4912 
G01 X-1.4301 Y2.4970 
G01 X-1.4301 Y2.5030 
G01 X-1.4301 Y2.5199 
G01 X-1.5501 Y2.5199 
G01 X-1.5529 Y2.5199 
G01 X-1.5529 Y2.5199 
G01 X-1.5530 Y2.5199 
G01 X-1.5546 Y2.5202 
G01 X-1.5587 Y2.5211 
G01 X-1.5642 Y2.5233 
G01 X-1.5642 Y2.5233 
G01 X-1.5643 Y2.5233 
G01 X-1.5668 Y2.5251 
G01 X-1.6750 Y2.5971 
G01 X-1.6772 Y2.5949 
G01 X-1.7228 Y2.5949 
G01 X-1.7478 Y2.6199 
G01 X-1.9199 Y2.6199 
G01 X-1.9199 Y2.5597 
G01 X-1.9196 Y2.5611 
G01 X-1.9168 Y2.5680 
G01 X-1.9126 Y2.5743 
G01 X-1.9073 Y2.5796 
G01 X-1.9010 Y2.5838 
G01 X-1.8941 Y2.5866 
G01 X-1.8868 Y2.5881 
G01 X-1.8132 Y2.5881 
G01 X-1.8059 Y2.5866 
G01 X-1.7990 Y2.5838 
G01 X-1.7927 Y2.5796 
G01 X-1.7874 Y2.5743 
G01 X-1.7853 Y2.5711 
G01 X-1.7021 Y2.5711 
G01 X-1.7014 Y2.5712 
G01 X-1.6993 Y2.5711 
G01 X-1.6972 Y2.5711 
G01 X-1.6966 Y2.5709 
G01 X-1.6959 Y2.5709 
G01 X-1.6939 Y2.5702 
G01 X-1.6919 Y2.5697 
G01 X-1.6913 Y2.5693 
G01 X-1.6906 Y2.5691 
G01 X-1.6888 Y2.5679 
G01 X-1.6870 Y2.5669 
G01 X-1.6866 Y2.5664 
G01 X-1.3906 Y2.3691 
G01 X-1.2918 Y2.3361 
G01 X-1.2728 Y2.3551 
G01 X-1.2272 Y2.3551 
G01 X-1.1949 Y2.3228 
G01 X-1.1949 Y2.2886 
G01 X-0.9436 Y2.1211 
G01 X-0.8523 Y2.1211 
G01 X-0.8518 Y2.1212 
G01 X-0.8495 Y2.1211 
G01 X-0.8472 Y2.1211 
G01 X-0.8467 Y2.1210 
G01 X-0.8462 Y2.1209 
G01 X-0.8440 Y2.1202 
G01 X-0.8419 Y2.1197 
G01 X-0.8414 Y2.1194 
G01 X-0.6098 Y2.0452 
G01 X-0.6055 Y2.0461 
G01 X-0.5385 Y2.0461 
G01 X-0.5318 Y2.0447 
G01 X-0.5254 Y2.0421 
G01 X-0.5196 Y2.0383 
G01 X-0.5147 Y2.0334 
G01 X-0.5109 Y2.0276 
G01 X-0.5083 Y2.0212 
G01 X-0.5082 Y2.0211 
G01 X-0.5051 Y2.0211 
G01 X-0.5051 Y2.0228 
G01 X-0.4728 Y2.0551 
G01 X-0.4272 Y2.0551 
G01 X-0.3949 Y2.0228 
G01 X-0.3949 Y1.9772 
G01 X-0.4272 Y1.9449 
G01 X-0.4728 Y1.9449 
G01 X-0.5051 Y1.9772 
G01 X-0.5051 Y1.9789 
G01 X-0.5278 Y1.9789 
G01 X-0.5318 Y1.9773 
G01 X-0.5385 Y1.9759 
G01 X-0.6055 Y1.9759 
G01 X-0.6122 Y1.9773 
G01 X-0.6186 Y1.9799 
G01 X-0.6244 Y1.9837 
G01 X-0.6293 Y1.9886 
G01 X-0.6331 Y1.9944 
G01 X-0.6357 Y2.0008 
G01 X-0.6371 Y2.0075 
G01 X-0.6371 Y2.0097 
G01 X-0.8533 Y2.0789 
G01 X-0.9479 Y2.0789 
G01 X-0.9486 Y2.0788 
G01 X-0.9507 Y2.0789 
G01 X-0.9528 Y2.0789 
G01 X-0.9534 Y2.0791 
G01 X-0.9541 Y2.0791 
G01 X-0.9561 Y2.0798 
G01 X-0.9581 Y2.0803 
G01 X-0.9587 Y2.0807 
G01 X-0.9594 Y2.0809 
G01 X-0.9612 Y2.0821 
G01 X-0.9629 Y2.0831 
G01 X-0.9634 Y2.0836 
G01 X-1.2185 Y2.2536 
G01 X-1.2272 Y2.2449 
G01 X-1.2728 Y2.2449 
G01 X-1.3051 Y2.2772 
G01 X-1.3051 Y2.2961 
G01 X-1.4041 Y2.3291 
G01 X-1.4041 Y2.3291 
G01 X-1.4073 Y2.3302 
G01 X-1.4093 Y2.3309 
G01 X-1.4093 Y2.3309 
G01 X-1.4094 Y2.3309 
G01 X-1.4121 Y2.3327 
G01 X-1.4139 Y2.3339 
G01 X-1.4140 Y2.3340 
G01 X-1.7064 Y2.5289 
G01 X-1.7853 Y2.5289 
G01 X-1.7874 Y2.5257 
G01 X-1.7927 Y2.5204 
G01 X-1.7990 Y2.5162 
G01 X-1.8059 Y2.5134 
G01 X-1.8132 Y2.5119 
G01 X-1.8868 Y2.5119 
G01 X-1.8941 Y2.5134 
G01 X-1.9010 Y2.5162 
G01 X-1.9073 Y2.5204 
G01 X-1.9126 Y2.5257 
G01 X-1.9168 Y2.5320 
G01 X-1.9196 Y2.5389 
G01 X-1.9199 Y2.5403 
G01 X-1.9199 Y2.4597 
G01 X-1.9196 Y2.4611 
G01 X-1.9168 Y2.4680 
G01 X-1.9126 Y2.4743 
G01 X-1.9073 Y2.4796 
G01 X-1.9010 Y2.4838 
G01 X-1.8941 Y2.4866 
G01 X-1.8868 Y2.4881 
G01 X-1.8132 Y2.4881 
G01 X-1.8059 Y2.4866 
G01 X-1.7990 Y2.4838 
G01 X-1.7927 Y2.4796 
G01 X-1.7874 Y2.4743 
G01 X-1.7853 Y2.4711 
G01 X-1.7019 Y2.4711 
G01 X-1.7011 Y2.4712 
G01 X-1.6992 Y2.4711 
G01 X-1.6972 Y2.4711 
G01 X-1.6964 Y2.4709 
G01 X-1.6956 Y2.4708 
G01 X-1.6937 Y2.4702 
G01 X-1.6919 Y2.4697 
G01 X-1.6911 Y2.4692 
G01 X-1.6903 Y2.4690 
G01 X-1.6887 Y2.4678 
G01 X-1.6870 Y2.4669 
G01 X-1.6865 Y2.4663 
G01 X-0.8934 Y1.9211 
G01 X-0.3191 Y1.9211 
G01 X-0.3161 Y1.9256 
G01 X-0.3106 Y1.9311 
G01 X-0.3040 Y1.9355 
G01 X-0.2967 Y1.9386 
G01 X-0.2889 Y1.9401 
G01 X-0.2110 Y1.9401 
G01 X-0.2033 Y1.9386 
G01 X-0.1960 Y1.9355 
G01 X-0.1894 Y1.9311 
G01 X-0.1839 Y1.9256 
G01 X-0.1795 Y1.9190 
G01 X-0.1764 Y1.9117 
G01 X-0.1749 Y1.9039 
G01 X-0.1749 Y1.8960 
G01 X-0.1764 Y1.8883 
G01 X-0.1795 Y1.8810 
G01 X-0.1839 Y1.8744 
G01 X-0.1894 Y1.8689 
G01 X-0.1960 Y1.8645 
G01 X-0.2033 Y1.8614 
G01 X-0.2110 Y1.8599 
G01 X-0.2889 Y1.8599 
G01 X-0.2967 Y1.8614 
G01 X-0.3040 Y1.8645 
G01 X-0.3106 Y1.8689 
G01 X-0.3161 Y1.8744 
G01 X-0.3191 Y1.8789 
G01 X-0.8981 Y1.8789 
G01 X-0.8989 Y1.8788 
G01 X-0.9008 Y1.8789 
G01 X-0.9028 Y1.8789 
G01 X-0.9036 Y1.8791 
G01 X-0.9044 Y1.8792 
G01 X-0.9063 Y1.8798 
G01 X-0.9081 Y1.8803 
G01 X-0.9089 Y1.8808 
G01 X-0.9097 Y1.8810 
G01 X-0.9113 Y1.8821 
G01 X-0.9129 Y1.8831 
G01 X-0.9135 Y1.8837 
G01 X-1.7066 Y2.4289 
G01 X-1.7853 Y2.4289 
G01 X-1.7874 Y2.4257 
G01 X-1.7927 Y2.4204 
G01 X-1.7990 Y2.4162 
G01 X-1.8059 Y2.4134 
G01 X-1.8132 Y2.4119 
G01 X-1.8868 Y2.4119 
G01 X-1.8941 Y2.4134 
G01 X-1.9010 Y2.4162 
G01 X-1.9073 Y2.4204 
G01 X-1.9126 Y2.4257 
G01 X-1.9168 Y2.4320 
G01 X-1.9196 Y2.4389 
G01 X-1.9199 Y2.4403 
G01 X-1.9199 Y2.3597 
G01 X-1.9196 Y2.3611 
G01 X-1.9168 Y2.3680 
G01 X-1.9126 Y2.3743 
G01 X-1.9073 Y2.3796 
G01 X-1.9010 Y2.3838 
G01 X-1.8941 Y2.3866 
G01 X-1.8868 Y2.3881 
G01 X-1.8132 Y2.3881 
G01 X-1.8059 Y2.3866 
G01 X-1.7990 Y2.3838 
G01 X-1.7927 Y2.3796 
G01 X-1.7874 Y2.3743 
G01 X-1.7853 Y2.3711 
G01 X-1.7019 Y2.3711 
G01 X-1.7011 Y2.3712 
G01 X-1.6992 Y2.3711 
G01 X-1.6972 Y2.3711 
G01 X-1.6964 Y2.3709 
G01 X-1.6956 Y2.3708 
G01 X-1.6937 Y2.3702 
G01 X-1.6919 Y2.3697 
G01 X-1.6911 Y2.3692 
G01 X-1.6903 Y2.3690 
G01 X-1.6887 Y2.3679 
G01 X-1.6870 Y2.3669 
G01 X-1.6865 Y2.3663 
G01 X-0.8934 Y1.8211 
G01 X-0.7006 Y1.8211 
G01 X-0.6985 Y1.8212 
G01 X-0.6979 Y1.8211 
G01 X-0.6972 Y1.8211 
G01 X-0.6952 Y1.8205 
G01 X-0.6930 Y1.8201 
G01 X-0.6925 Y1.8198 
G01 X-0.6919 Y1.8197 
G01 X-0.6900 Y1.8186 
G01 X-0.2950 Y1.6211 
G01 X-0.1711 Y1.6211 
G01 X-0.1711 Y1.7789 
G01 X-0.1809 Y1.7789 
G01 X-0.1839 Y1.7744 
G01 X-0.1894 Y1.7689 
G01 X-0.1960 Y1.7645 
G01 X-0.2033 Y1.7614 
G01 X-0.2110 Y1.7599 
G01 X-0.2889 Y1.7599 
G01 X-0.2967 Y1.7614 
G01 X-0.3040 Y1.7645 
G01 X-0.3106 Y1.7689 
G01 X-0.3161 Y1.7744 
G01 X-0.3205 Y1.7810 
G01 X-0.3236 Y1.7883 
G01 X-0.3251 Y1.7960 
G01 X-0.3251 Y1.8039 
G01 X-0.3236 Y1.8117 
G01 X-0.3205 Y1.8190 
G01 X-0.3161 Y1.8256 
G01 X-0.3106 Y1.8311 
G01 X-0.3040 Y1.8355 
G01 X-0.2967 Y1.8386 
G01 X-0.2889 Y1.8401 
G01 X-0.2110 Y1.8401 
G01 X-0.2033 Y1.8386 
G01 X-0.1960 Y1.8355 
G01 X-0.1894 Y1.8311 
G01 X-0.1839 Y1.8256 
G01 X-0.1809 Y1.8211 
G01 X-0.1528 Y1.8211 
G01 X-0.1472 Y1.8211 
G01 X-0.1419 Y1.8197 
G01 X-0.1370 Y1.8169 
G01 X-0.1331 Y1.8129 
G01 X-0.1303 Y1.8081 
G01 X-0.1301 Y1.8072 
G01 X-0.1301 Y1.8360 
G01 X-0.1393 Y1.8398 
G01 X-0.1393 Y1.8398 
G01 X-0.1409 Y1.8405 
G01 X-0.1448 Y1.8421 
G01 X-0.1497 Y1.8454 
G01 X-0.1539 Y1.8496 
G01 X-0.1539 Y1.8496 
G01 X-0.1552 Y1.8515 
G01 X-0.1572 Y1.8545 
G01 X-0.1595 Y1.8600 
G01 X-0.1595 Y1.8600 
G01 X-0.1595 Y1.8600 
G01 X-0.1599 Y1.8623 
G01 X-0.1606 Y1.8658 
G01 X-0.1606 Y1.8717 
G01 X-0.1606 Y1.8717 
G01 X-0.1599 Y1.8751 
G01 X-0.1595 Y1.8775 
G01 X-0.1595 Y1.8776 
G01 X-0.1595 Y1.8776 
G01 X-0.1586 Y1.8796 
G01 X-0.1572 Y1.8830 
G01 X-0.1572 Y1.8830 
G01 X-0.1551 Y1.8881 
G01 X-0.1551 Y1.9119 
G01 X-0.1650 Y1.9357 
G01 X-0.1650 Y1.9357 
G01 X-0.1670 Y1.9407 
G01 X-0.1672 Y1.9412 
G01 X-0.1684 Y1.9470 
G01 X-0.1684 Y1.9530 
G01 X-0.1683 Y1.9533 
G01 X-0.1672 Y1.9588 
G01 X-0.1551 Y1.9881 
G01 X-0.1551 Y2.0119 
G01 X-0.1642 Y2.0339 
G01 X-0.1743 Y2.0441 
G01 X-0.1759 Y2.0454 
G01 X-0.1765 Y2.0462 
G01 X-0.1771 Y2.0469 
G01 X-0.1782 Y2.0485 
G01 X-0.1795 Y2.0501 
G01 X-0.1799 Y2.0510 
G01 X-0.1804 Y2.0518 
G01 X-0.1812 Y2.0536 
G01 X-0.1821 Y2.0554 
G01 X-0.1823 Y2.0564 
G01 X-0.1827 Y2.0573 
G01 X-0.1831 Y2.0592 
G01 X-0.1836 Y2.0611 
G01 X-0.1837 Y2.0621 
G01 X-0.1839 Y2.0631 
G01 X-0.1839 Y2.0651 
G01 X-0.1840 Y2.0671 
G01 X-0.1839 Y2.0680 
G01 X-0.1839 Y2.0690 
G01 X-0.1837 Y2.0699 
G01 X-0.1884 Y2.0699 
G01 X-0.1894 Y2.0689 
G01 X-0.1960 Y2.0645 
G01 X-0.2033 Y2.0614 
G01 X-0.2110 Y2.0599 
G01 X-0.2889 Y2.0599 
G01 X-0.2967 Y2.0614 
G01 X-0.3040 Y2.0645 
G01 X-0.3106 Y2.0689 
G01 X-0.3161 Y2.0744 
G01 X-0.3205 Y2.0810 
G01 X-0.3236 Y2.0883 
G01 X-0.3251 Y2.0960 
G01 X-0.3251 Y2.1039 
G01 X-0.3236 Y2.1117 
G01 X-0.3205 Y2.1190 
G01 X-0.3161 Y2.1256 
G01 X-0.3106 Y2.1311 
G01 X-0.3040 Y2.1355 
G01 X-0.2967 Y2.1386 
G01 X-0.2889 Y2.1401 
G01 X-0.2801 Y2.1401 
G01 X-0.2801 Y2.1599 
G01 X-0.2889 Y2.1599 
G01 X-0.2967 Y2.1614 
G01 X-0.3040 Y2.1645 
G01 X-0.3106 Y2.1689 
G01 X-0.3116 Y2.1699 
G01 X-0.3187 Y2.1699 
G01 X-0.3187 Y2.1680 
G01 X-0.3187 Y2.1680 
G01 X-0.3192 Y2.1654 
G01 X-0.3198 Y2.1622 
G01 X-0.3221 Y2.1568 
G01 X-0.3221 Y2.1568 
G01 X-0.3221 Y2.1567 
G01 X-0.3234 Y2.1548 
G01 X-0.3254 Y2.1518 
G01 X-0.3295 Y2.1476 
G01 X-0.3296 Y2.1476 
G01 X-0.3296 Y2.1476 
G01 X-0.3311 Y2.1466 
G01 X-0.3345 Y2.1443 
G01 X-0.3345 Y2.1443 
G01 X-0.3345 Y2.1443 
G01 X-0.3358 Y2.1438 
G01 X-0.3399 Y2.1421 
G01 X-0.3458 Y2.1409 
G01 X-0.3517 Y2.1409 
G01 X-0.3671 Y2.1409 
G01 X-0.4776 Y2.1409 
G01 X-0.4786 Y2.1408 
G01 X-0.4805 Y2.1409 
G01 X-0.4825 Y2.1409 
G01 X-0.4835 Y2.1411 
G01 X-0.4845 Y2.1412 
G01 X-0.4864 Y2.1417 
G01 X-0.4883 Y2.1421 
G01 X-0.4892 Y2.1424 
G01 X-0.4902 Y2.1427 
G01 X-0.4920 Y2.1436 
G01 X-0.4938 Y2.1443 
G01 X-0.4946 Y2.1449 
G01 X-0.4955 Y2.1453 
G01 X-0.4971 Y2.1465 
G01 X-0.4987 Y2.1476 
G01 X-0.4994 Y2.1483 
G01 X-0.5002 Y2.1489 
G01 X-0.5015 Y2.1504 
G01 X-0.5029 Y2.1518 
G01 X-0.5035 Y2.1526 
G01 X-0.5041 Y2.1534 
G01 X-0.5051 Y2.1551 
G01 X-0.5062 Y2.1567 
G01 X-0.5066 Y2.1577 
G01 X-0.5071 Y2.1585 
G01 X-0.5072 Y2.1589 
G01 X-0.5239 Y2.1589 
G01 X-0.5254 Y2.1579 
G01 X-0.5318 Y2.1553 
G01 X-0.5385 Y2.1539 
G01 X-0.6055 Y2.1539 
G01 X-0.6122 Y2.1553 
G01 X-0.6186 Y2.1579 
G01 X-0.6244 Y2.1617 
G01 X-0.6293 Y2.1666 
G01 X-0.6331 Y2.1724 
G01 X-0.6357 Y2.1788 
G01 X-0.6371 Y2.1855 
G01 X-0.6371 Y2.1925 
G01 X-0.6357 Y2.1992 
G01 X-0.6331 Y2.2056 
G01 X-0.6293 Y2.2114 
G01 X-0.6244 Y2.2163 
G01 X-0.6194 Y2.2196 
G01 X-0.6202 Y2.2192 
G01 X-0.6260 Y2.2181 
G01 X-0.6320 Y2.2181 
G01 X-0.6320 Y2.2181 
G01 X-0.6374 Y2.2192 
G01 X-0.6378 Y2.2192 
G01 X-0.6433 Y2.2215 
G01 X-0.6482 Y2.2248 
G01 X-0.6482 Y2.2249 
G01 X-0.6524 Y2.2290 
G01 X-0.6543 Y2.2319 
G01 X-0.6557 Y2.2339 
G01 X-0.6579 Y2.2394 
G01 X-0.6591 Y2.2452 
G01 X-0.6591 Y2.2511 
G01 X-0.6591 Y2.3081 
G01 X-0.6653 Y2.3232 
G01 X-0.6768 Y2.3347 
G01 X-0.6919 Y2.3409 
G01 X-0.6921 Y2.3410 
G01 X-0.6976 Y2.3421 
G01 X-0.7031 Y2.3443 
G01 X-0.7063 Y2.3465 
G01 X-0.7080 Y2.3476 
G01 X-0.7122 Y2.3518 
G01 X-0.7155 Y2.3567 
G01 X-0.7177 Y2.3622 
G01 X-0.7189 Y2.3680 
G01 X-0.7189 Y2.3740 
G01 X-0.7188 Y2.3743 
G01 X-0.7177 Y2.3798 
G01 X-0.7155 Y2.3853 
G01 X-0.7133 Y2.3885 
G01 X-0.7127 Y2.3894 
G01 X-0.7272 Y2.3749 
G01 X-0.7728 Y2.3749 
G01 X-0.7873 Y2.3894 
G01 X-0.7868 Y2.3886 
G01 X-0.7845 Y2.3853 
G01 X-0.7823 Y2.3798 
G01 X-0.7811 Y2.3740 
G01 X-0.7811 Y2.3680 
G01 X-0.7811 Y2.3680 
G01 X-0.7822 Y2.3625 
G01 X-0.7823 Y2.3622 
G01 X-0.7845 Y2.3567 
G01 X-0.7878 Y2.3518 
G01 X-0.7920 Y2.3476 
G01 X-0.7920 Y2.3476 
G01 X-0.7936 Y2.3466 
G01 X-0.7969 Y2.3443 
G01 X-0.8024 Y2.3421 
G01 X-0.8082 Y2.3409 
G01 X-0.8142 Y2.3409 
G01 X-0.8755 Y2.3409 
G01 X-0.8758 Y2.3410 
G01 X-0.8813 Y2.3421 
G01 X-0.8868 Y2.3443 
G01 X-0.8887 Y2.3456 
G01 X-0.8917 Y2.3476 
G01 X-0.8959 Y2.3518 
G01 X-0.8959 Y2.3518 
G01 X-0.9190 Y2.3749 
G01 X-0.9730 Y2.3749 
G01 X-0.9788 Y2.3761 
G01 X-0.9843 Y2.3783 
G01 X-0.9892 Y2.3816 
G01 X-0.9934 Y2.3858 
G01 X-0.9967 Y2.3907 
G01 X-0.9989 Y2.3962 
G01 X-1.0001 Y2.4020 
G01 X-1.0001 Y2.4080 
G01 X-1.0001 Y2.4709 
G01 X-0.9989 Y2.4767 
G01 X-0.9967 Y2.4822 
G01 X-0.9967 Y2.4822 
G01 X-0.9901 Y2.4981 
G01 X-0.9901 Y2.5219 
G01 X-0.9992 Y2.5439 
G01 X-1.0034 Y2.5481 
G01 X-1.0067 Y2.5530 
G01 X-1.0089 Y2.5585 
G01 X-1.0092 Y2.5598 
G01 X-1.0101 Y2.5598 
G01 X-1.0105 Y2.5599 
G01 X-1.0109 Y2.5599 
G01 X-1.0134 Y2.5604 
G01 X-1.0159 Y2.5608 
G01 X-1.0163 Y2.5610 
G01 X-1.0167 Y2.5610 
G01 X-1.0168 Y2.5611 
G01 X-1.0168 Y2.5611 
G01 X-1.0191 Y2.5621 
G01 X-1.0207 Y2.5626 
G01 X-1.0334 Y2.5499 
G01 X-1.0451 Y2.5499 
G01 X-1.0383 Y2.5486 
G01 X-1.0310 Y2.5455 
G01 X-1.0244 Y2.5411 
G01 X-1.0189 Y2.5356 
G01 X-1.0145 Y2.5290 
G01 X-1.0114 Y2.5217 
G01 X-1.0099 Y2.5139 
G01 X-1.0099 Y2.5060 
G01 X-1.0114 Y2.4983 
G01 X-1.0145 Y2.4910 
G01 X-1.0189 Y2.4844 
G01 X-1.0199 Y2.4834 
G01 X-1.0199 Y2.3301 
G01 X-0.9978 Y2.3301 
G01 X-0.9728 Y2.3551 
G01 X-0.9272 Y2.3551 
G01 X-0.8949 Y2.3228 
G01 X-0.8949 Y2.3211 
G01 X-0.7028 Y2.3211 
G01 X-0.6972 Y2.3211 
G01 X-0.6919 Y2.3197 
G01 X-0.6870 Y2.3169 
G01 X-0.6831 Y2.3129 
G01 X-0.6803 Y2.3081 
G01 X-0.6789 Y2.3028 
G01 X-0.6789 Y2.1211 
G01 X-0.3528 Y2.1211 
G01 X-0.3472 Y2.1211 
G01 X-0.3419 Y2.1197 
G01 X-0.3370 Y2.1169 
G01 X-0.3331 Y2.1129 
G01 X-0.3303 Y2.1081 
G01 X-0.3289 Y2.1028 
G01 X-0.3289 Y2.0211 
G01 X-0.3191 Y2.0211 
G01 X-0.3161 Y2.0256 
G01 X-0.3106 Y2.0311 
G01 X-0.3040 Y2.0355 
G01 X-0.2967 Y2.0386 
G01 X-0.2889 Y2.0401 
G00 Z0.0200 
G00 X-0.8615 Y2.0461 
G01 Z-0.0100 F10.00 
G01 X-0.7945 Y2.0461 
G01 X-0.7878 Y2.0447 
G01 X-0.7814 Y2.0421 
G01 X-0.7756 Y2.0383 
G01 X-0.7707 Y2.0334 
G01 X-0.7669 Y2.0276 
G01 X-0.7643 Y2.0212 
G01 X-0.7629 Y2.0145 
G01 X-0.7629 Y2.0075 
G01 X-0.7643 Y2.0008 
G01 X-0.7669 Y1.9944 
G01 X-0.7707 Y1.9886 
G01 X-0.7756 Y1.9837 
G01 X-0.7814 Y1.9799 
G01 X-0.7878 Y1.9773 
G01 X-0.7945 Y1.9759 
G01 X-0.8615 Y1.9759 
G01 X-0.8682 Y1.9773 
G01 X-0.8746 Y1.9799 
G01 X-0.8804 Y1.9837 
G01 X-0.8853 Y1.9886 
G01 X-0.8891 Y1.9944 
G01 X-0.8917 Y2.0008 
G01 X-0.8931 Y2.0075 
G01 X-0.8931 Y2.0145 
G01 X-0.8917 Y2.0212 
G01 X-0.8891 Y2.0276 
G01 X-0.8853 Y2.0334 
G01 X-0.8804 Y2.0383 
G01 X-0.8746 Y2.0421 
G01 X-0.8682 Y2.0447 
G01 X-0.8615 Y2.0461 
G00 Z0.0200 
G00 X-0.8615 Y2.2241 
G01 Z-0.0100 F10.00 
G01 X-0.7945 Y2.2241 
G01 X-0.7878 Y2.2227 
G01 X-0.7814 Y2.2201 
G01 X-0.7756 Y2.2163 
G01 X-0.7707 Y2.2114 
G01 X-0.7669 Y2.2056 
G01 X-0.7643 Y2.1992 
G01 X-0.7629 Y2.1925 
G01 X-0.7629 Y2.1855 
G01 X-0.7643 Y2.1788 
G01 X-0.7669 Y2.1724 
G01 X-0.7707 Y2.1666 
G01 X-0.7756 Y2.1617 
G01 X-0.7814 Y2.1579 
G01 X-0.7878 Y2.1553 
G01 X-0.7945 Y2.1539 
G01 X-0.8615 Y2.1539 
G01 X-0.8682 Y2.1553 
G01 X-0.8746 Y2.1579 
G01 X-0.8804 Y2.1617 
G01 X-0.8853 Y2.1666 
G01 X-0.8891 Y2.1724 
G01 X-0.8917 Y2.1788 
G01 X-0.8931 Y2.1855 
G01 X-0.8931 Y2.1925 
G01 X-0.8917 Y2.1992 
G01 X-0.8891 Y2.2056 
G01 X-0.8853 Y2.2114 
G01 X-0.8804 Y2.2163 
G01 X-0.8746 Y2.2201 
G01 X-0.8682 Y2.2227 
G01 X-0.8615 Y2.2241 
G00 Z0.0200 
G00 X-0.5051 Y1.7772 
G01 Z-0.0100 F10.00 
G01 X-0.5051 Y1.8228 
G01 X-0.4728 Y1.8551 
G01 X-0.4272 Y1.8551 
G01 X-0.3949 Y1.8228 
G01 X-0.3949 Y1.7960 
G01 X-0.2830 Y1.7401 
G01 X-0.2110 Y1.7401 
G01 X-0.2033 Y1.7386 
G01 X-0.1960 Y1.7355 
G01 X-0.1894 Y1.7311 
G01 X-0.1839 Y1.7256 
G01 X-0.1795 Y1.7190 
G01 X-0.1764 Y1.7117 
G01 X-0.1749 Y1.7039 
G01 X-0.1749 Y1.6960 
G01 X-0.1764 Y1.6883 
G01 X-0.1795 Y1.6810 
G01 X-0.1839 Y1.6744 
G01 X-0.1894 Y1.6689 
G01 X-0.1960 Y1.6645 
G01 X-0.2033 Y1.6614 
G01 X-0.2110 Y1.6599 
G01 X-0.2889 Y1.6599 
G01 X-0.2967 Y1.6614 
G01 X-0.3040 Y1.6645 
G01 X-0.3106 Y1.6689 
G01 X-0.3161 Y1.6744 
G01 X-0.3205 Y1.6810 
G01 X-0.3236 Y1.6883 
G01 X-0.3251 Y1.6960 
G01 X-0.3251 Y1.7039 
G01 X-0.3236 Y1.7117 
G01 X-0.3230 Y1.7129 
G01 X-0.4138 Y1.7583 
G01 X-0.4272 Y1.7449 
G01 X-0.4728 Y1.7449 
G01 X-0.5051 Y1.7772 
G00 Z0.0200 
G00 X-1.0756 Y2.5411 
G01 Z-0.0100 F10.00 
G01 X-1.0690 Y2.5455 
G01 X-1.0617 Y2.5486 
G01 X-1.0549 Y2.5499 
G01 X-1.0666 Y2.5499 
G01 X-1.0766 Y2.5599 
G01 X-1.0891 Y2.5599 
G01 X-1.0891 Y2.5599 
G01 X-1.0898 Y2.5599 
G01 X-1.0906 Y2.5598 
G01 X-1.0928 Y2.5599 
G01 X-1.2572 Y2.5599 
G01 X-1.2594 Y2.5598 
G01 X-1.2602 Y2.5599 
G01 X-1.2609 Y2.5599 
G01 X-1.2609 Y2.5599 
G01 X-1.2734 Y2.5599 
G01 X-1.2834 Y2.5499 
G01 X-1.2951 Y2.5499 
G01 X-1.2883 Y2.5486 
G01 X-1.2810 Y2.5455 
G01 X-1.2744 Y2.5411 
G01 X-1.2734 Y2.5401 
G01 X-1.0766 Y2.5401 
G01 X-1.0756 Y2.5411 
G00 Z0.0200 
G00 X-1.5149 Y2.8335 
G01 Z-0.0100 F10.00 
G01 X-1.5149 Y2.8301 
G01 X-1.2970 Y2.8301 
G01 X-1.0962 Y2.8301 
G01 X-1.0920 Y2.8359 
G01 X-1.0859 Y2.8420 
G01 X-1.0789 Y2.8471 
G01 X-1.0711 Y2.8511 
G01 X-1.0629 Y2.8537 
G01 X-1.0543 Y2.8551 
G01 X-1.0457 Y2.8551 
G01 X-1.0371 Y2.8537 
G01 X-1.0289 Y2.8511 
G01 X-1.0211 Y2.8471 
G01 X-1.0141 Y2.8420 
G01 X-1.0080 Y2.8359 
G01 X-1.0029 Y2.8289 
G01 X-0.9989 Y2.8211 
G01 X-0.9963 Y2.8129 
G01 X-0.9949 Y2.8043 
G01 X-0.9949 Y2.7957 
G01 X-0.9963 Y2.7871 
G01 X-0.9989 Y2.7789 
G01 X-1.0029 Y2.7711 
G01 X-1.0080 Y2.7641 
G01 X-1.0141 Y2.7580 
G01 X-1.0211 Y2.7529 
G01 X-1.0289 Y2.7489 
G01 X-1.0371 Y2.7463 
G01 X-1.0457 Y2.7449 
G01 X-1.0543 Y2.7449 
G01 X-1.0629 Y2.7463 
G01 X-1.0711 Y2.7489 
G01 X-1.0789 Y2.7529 
G01 X-1.0859 Y2.7580 
G01 X-1.0920 Y2.7641 
G01 X-1.0962 Y2.7699 
G01 X-1.2652 Y2.7699 
G01 X-1.2689 Y2.7644 
G01 X-1.2744 Y2.7589 
G01 X-1.2810 Y2.7545 
G01 X-1.2883 Y2.7514 
G01 X-1.2951 Y2.7501 
G01 X-1.2834 Y2.7501 
G01 X-1.2707 Y2.7374 
G01 X-1.2691 Y2.7379 
G01 X-1.2668 Y2.7389 
G01 X-1.2668 Y2.7389 
G01 X-1.2667 Y2.7389 
G01 X-1.2663 Y2.7390 
G01 X-1.2659 Y2.7392 
G01 X-1.2634 Y2.7396 
G01 X-1.2609 Y2.7401 
G01 X-1.2605 Y2.7401 
G01 X-1.2601 Y2.7402 
G01 X-1.2575 Y2.7401 
G01 X-1.2524 Y2.7401 
G01 X-1.2492 Y2.7434 
G01 X-1.2443 Y2.7467 
G01 X-1.2388 Y2.7489 
G01 X-1.2330 Y2.7501 
G01 X-1.2270 Y2.7501 
G01 X-1.1215 Y2.7501 
G01 X-1.1215 Y2.7501 
G01 X-1.1155 Y2.7501 
G01 X-1.1097 Y2.7489 
G01 X-1.1042 Y2.7467 
G01 X-1.0993 Y2.7434 
G01 X-1.0960 Y2.7401 
G01 X-1.0789 Y2.7302 
G01 X-1.0599 Y2.7251 
G01 X-1.0401 Y2.7251 
G01 X-1.0211 Y2.7302 
G01 X-1.0040 Y2.7401 
G01 X-0.9901 Y2.7540 
G01 X-0.9802 Y2.7711 
G01 X-0.9751 Y2.7901 
G01 X-0.9751 Y2.8099 
G01 X-0.9802 Y2.8289 
G01 X-0.9901 Y2.8460 
G01 X-1.0040 Y2.8599 
G01 X-1.0211 Y2.8698 
G01 X-1.0401 Y2.8749 
G01 X-1.0599 Y2.8749 
G01 X-1.0789 Y2.8698 
G01 X-1.0960 Y2.8599 
G01 X-1.0993 Y2.8566 
G01 X-1.1042 Y2.8533 
G01 X-1.1097 Y2.8511 
G01 X-1.1155 Y2.8499 
G01 X-1.1215 Y2.8499 
G01 X-1.2851 Y2.8499 
G01 X-1.3209 Y2.8499 
G01 X-1.4828 Y2.8499 
G01 X-1.4831 Y2.8500 
G01 X-1.4886 Y2.8511 
G01 X-1.4941 Y2.8533 
G01 X-1.4973 Y2.8555 
G01 X-1.4990 Y2.8566 
G01 X-1.5032 Y2.8608 
G01 X-1.5032 Y2.8608 
G01 X-1.5189 Y2.8765 
G01 X-1.5391 Y2.8849 
G01 X-1.5609 Y2.8849 
G01 X-1.5811 Y2.8765 
G01 X-1.5933 Y2.8644 
G01 X-1.5946 Y2.8629 
G01 X-1.5953 Y2.8623 
G01 X-1.5960 Y2.8616 
G01 X-1.5977 Y2.8605 
G01 X-1.5993 Y2.8593 
G01 X-1.6001 Y2.8589 
G01 X-1.6010 Y2.8583 
G01 X-1.6028 Y2.8575 
G01 X-1.6046 Y2.8567 
G01 X-1.6055 Y2.8564 
G01 X-1.6064 Y2.8560 
G01 X-1.6084 Y2.8557 
G01 X-1.6103 Y2.8551 
G01 X-1.6113 Y2.8551 
G01 X-1.6123 Y2.8549 
G01 X-1.6142 Y2.8549 
G01 X-1.6162 Y2.8547 
G01 X-1.6172 Y2.8549 
G01 X-1.6182 Y2.8549 
G01 X-1.6199 Y2.8552 
G01 X-1.6199 Y2.8481 
G01 X-1.6189 Y2.8466 
G01 X-1.6163 Y2.8402 
G01 X-1.6149 Y2.8335 
G01 X-1.6149 Y2.7665 
G01 X-1.6163 Y2.7598 
G01 X-1.6165 Y2.7591 
G01 X-1.5427 Y2.6852 
G01 X-1.5228 Y2.7051 
G01 X-1.4797 Y2.7051 
G01 X-1.4789 Y2.7088 
G01 X-1.4783 Y2.7102 
G01 X-1.4787 Y2.7112 
G01 X-1.4799 Y2.7170 
G01 X-1.4799 Y2.7230 
G01 X-1.4799 Y2.7230 
G01 X-1.4788 Y2.7284 
G01 X-1.4787 Y2.7288 
G01 X-1.4765 Y2.7343 
G01 X-1.4732 Y2.7392 
G01 X-1.4731 Y2.7392 
G01 X-1.4690 Y2.7434 
G01 X-1.4661 Y2.7453 
G01 X-1.4641 Y2.7467 
G01 X-1.4586 Y2.7489 
G01 X-1.4528 Y2.7501 
G01 X-1.4468 Y2.7501 
G01 X-1.3670 Y2.7501 
G01 X-1.3612 Y2.7489 
G01 X-1.3557 Y2.7467 
G01 X-1.3508 Y2.7434 
G01 X-1.3475 Y2.7401 
G01 X-1.3425 Y2.7401 
G01 X-1.3399 Y2.7402 
G01 X-1.3395 Y2.7401 
G01 X-1.3391 Y2.7401 
G01 X-1.3366 Y2.7396 
G01 X-1.3340 Y2.7392 
G01 X-1.3337 Y2.7390 
G01 X-1.3333 Y2.7389 
G01 X-1.3332 Y2.7389 
G01 X-1.3332 Y2.7389 
G01 X-1.3308 Y2.7379 
G01 X-1.3293 Y2.7374 
G01 X-1.3166 Y2.7501 
G01 X-1.3049 Y2.7501 
G01 X-1.3117 Y2.7514 
G01 X-1.3190 Y2.7545 
G01 X-1.3256 Y2.7589 
G01 X-1.3311 Y2.7644 
G01 X-1.3348 Y2.7699 
G01 X-1.5149 Y2.7699 
G01 X-1.5149 Y2.7665 
G01 X-1.5163 Y2.7598 
G01 X-1.5189 Y2.7534 
G01 X-1.5227 Y2.7476 
G01 X-1.5276 Y2.7427 
G01 X-1.5334 Y2.7389 
G01 X-1.5398 Y2.7363 
G01 X-1.5465 Y2.7349 
G01 X-1.5535 Y2.7349 
G01 X-1.5602 Y2.7363 
G01 X-1.5666 Y2.7389 
G01 X-1.5724 Y2.7427 
G01 X-1.5773 Y2.7476 
G01 X-1.5811 Y2.7534 
G01 X-1.5837 Y2.7598 
G01 X-1.5851 Y2.7665 
G01 X-1.5851 Y2.8335 
G01 X-1.5837 Y2.8402 
G01 X-1.5811 Y2.8466 
G01 X-1.5773 Y2.8524 
G01 X-1.5724 Y2.8573 
G01 X-1.5666 Y2.8611 
G01 X-1.5602 Y2.8637 
G01 X-1.5535 Y2.8651 
G01 X-1.5465 Y2.8651 
G01 X-1.5398 Y2.8637 
G01 X-1.5334 Y2.8611 
G01 X-1.5276 Y2.8573 
G01 X-1.5227 Y2.8524 
G01 X-1.5189 Y2.8466 
G01 X-1.5163 Y2.8402 
G01 X-1.5149 Y2.8335 
G00 Z0.0200 
G00 X-3.3851 Y1.5165 
G01 Z-0.0100 F10.00 
G01 X-3.3851 Y1.5835 
G01 X-3.3837 Y1.5902 
G01 X-3.3811 Y1.5966 
G01 X-3.3773 Y1.6024 
G01 X-3.3724 Y1.6073 
G01 X-3.3666 Y1.6111 
G01 X-3.3602 Y1.6137 
G01 X-3.3535 Y1.6151 
G01 X-3.3465 Y1.6151 
G01 X-3.3398 Y1.6137 
G01 X-3.3334 Y1.6111 
G01 X-3.3276 Y1.6073 
G01 X-3.3227 Y1.6024 
G01 X-3.3189 Y1.5966 
G01 X-3.3163 Y1.5902 
G01 X-3.3149 Y1.5835 
G01 X-3.3149 Y1.5801 
G01 X-3.2551 Y1.5801 
G01 X-3.2551 Y1.6228 
G01 X-3.2228 Y1.6551 
G01 X-3.1772 Y1.6551 
G01 X-3.1449 Y1.6228 
G01 X-3.1449 Y1.5772 
G01 X-3.1699 Y1.5522 
G01 X-3.1699 Y1.4589 
G01 X-3.1666 Y1.4611 
G01 X-3.1602 Y1.4637 
G01 X-3.1535 Y1.4651 
G01 X-3.1465 Y1.4651 
G01 X-3.1398 Y1.4637 
G01 X-3.1334 Y1.4611 
G01 X-3.1276 Y1.4573 
G01 X-3.1227 Y1.4524 
G01 X-3.1189 Y1.4466 
G01 X-3.1163 Y1.4402 
G01 X-3.1149 Y1.4335 
G01 X-3.1149 Y1.3665 
G01 X-3.1163 Y1.3598 
G01 X-3.1189 Y1.3534 
G01 X-3.1227 Y1.3476 
G01 X-3.1276 Y1.3427 
G01 X-3.1334 Y1.3389 
G01 X-3.1398 Y1.3363 
G01 X-3.1465 Y1.3349 
G01 X-3.1535 Y1.3349 
G01 X-3.1602 Y1.3363 
G01 X-3.1666 Y1.3389 
G01 X-3.1724 Y1.3427 
G01 X-3.1773 Y1.3476 
G01 X-3.1811 Y1.3534 
G01 X-3.1837 Y1.3598 
G01 X-3.1851 Y1.3665 
G01 X-3.1851 Y1.3699 
G01 X-3.1970 Y1.3699 
G01 X-3.2030 Y1.3699 
G01 X-3.2088 Y1.3711 
G01 X-3.2143 Y1.3733 
G01 X-3.2192 Y1.3766 
G01 X-3.2234 Y1.3808 
G01 X-3.2267 Y1.3857 
G01 X-3.2289 Y1.3912 
G01 X-3.2301 Y1.3970 
G01 X-3.2301 Y1.5199 
G01 X-3.3149 Y1.5199 
G01 X-3.3149 Y1.5165 
G01 X-3.3163 Y1.5098 
G01 X-3.3189 Y1.5034 
G01 X-3.3199 Y1.5019 
G01 X-3.3199 Y1.3455 
G01 X-3.3211 Y1.3396 
G01 X-3.3233 Y1.3342 
G01 X-3.3266 Y1.3292 
G01 X-3.3308 Y1.3250 
G01 X-3.3357 Y1.3218 
G01 X-3.3412 Y1.3195 
G01 X-3.3470 Y1.3183 
G01 X-3.3530 Y1.3183 
G01 X-3.4194 Y1.3183 
G01 X-3.4203 Y1.3171 
G01 X-3.4257 Y1.3117 
G01 X-3.4318 Y1.3073 
G01 X-3.4385 Y1.3039 
G01 X-3.4457 Y1.3015 
G01 X-3.4532 Y1.3003 
G01 X-3.5468 Y1.3003 
G01 X-3.5543 Y1.3015 
G01 X-3.5615 Y1.3039 
G01 X-3.5682 Y1.3073 
G01 X-3.5743 Y1.3117 
G01 X-3.5797 Y1.3171 
G01 X-3.5841 Y1.3232 
G01 X-3.5876 Y1.3300 
G01 X-3.5899 Y1.3372 
G01 X-3.5911 Y1.3446 
G01 X-3.5911 Y1.3522 
G01 X-3.5899 Y1.3597 
G01 X-3.5876 Y1.3669 
G01 X-3.5841 Y1.3736 
G01 X-3.5797 Y1.3798 
G01 X-3.5743 Y1.3851 
G01 X-3.5682 Y1.3896 
G01 X-3.5615 Y1.3930 
G01 X-3.5543 Y1.3953 
G01 X-3.5468 Y1.3965 
G01 X-3.4532 Y1.3965 
G01 X-3.4457 Y1.3953 
G01 X-3.4385 Y1.3930 
G01 X-3.4318 Y1.3896 
G01 X-3.4257 Y1.3851 
G01 X-3.4203 Y1.3798 
G01 X-3.4194 Y1.3785 
G01 X-3.3801 Y1.3785 
G01 X-3.3801 Y1.5019 
G01 X-3.3811 Y1.5034 
G01 X-3.3837 Y1.5098 
G01 X-3.3851 Y1.5165 
G00 Z0.0200 
G00 X-3.4851 Y1.5165 
G01 Z-0.0100 F10.00 
G01 X-3.4851 Y1.5199 
G01 X-3.6199 Y1.5199 
G01 X-3.6199 Y1.0301 
G01 X-0.0301 Y1.0301 
G01 X-0.0301 Y2.7199 
G01 X-0.2183 Y2.7199 
G01 X-0.2203 Y2.7171 
G01 X-0.2257 Y2.7117 
G01 X-0.2318 Y2.7073 
G01 X-0.2385 Y2.7039 
G01 X-0.2457 Y2.7015 
G01 X-0.2532 Y2.7003 
G01 X-0.3468 Y2.7003 
G01 X-0.3543 Y2.7015 
G01 X-0.3615 Y2.7039 
G01 X-0.3682 Y2.7073 
G01 X-0.3743 Y2.7117 
G01 X-0.3797 Y2.7171 
G01 X-0.3806 Y2.7183 
G01 X-0.5199 Y2.7183 
G01 X-0.5199 Y2.5670 
G01 X-0.5211 Y2.5612 
G01 X-0.5233 Y2.5557 
G01 X-0.5266 Y2.5508 
G01 X-0.5308 Y2.5466 
G01 X-0.5357 Y2.5433 
G01 X-0.5412 Y2.5411 
G01 X-0.5470 Y2.5399 
G01 X-0.5530 Y2.5399 
G01 X-0.7038 Y2.5399 
G01 X-0.7080 Y2.5341 
G01 X-0.7141 Y2.5280 
G01 X-0.7211 Y2.5229 
G01 X-0.7289 Y2.5189 
G01 X-0.7371 Y2.5163 
G01 X-0.7457 Y2.5149 
G01 X-0.7543 Y2.5149 
G01 X-0.7629 Y2.5163 
G01 X-0.7711 Y2.5189 
G01 X-0.7789 Y2.5229 
G01 X-0.7859 Y2.5280 
G01 X-0.7920 Y2.5341 
G01 X-0.7971 Y2.5411 
G01 X-0.8011 Y2.5489 
G01 X-0.8037 Y2.5571 
G01 X-0.8051 Y2.5657 
G01 X-0.8051 Y2.5743 
G01 X-0.8037 Y2.5829 
G01 X-0.8011 Y2.5911 
G01 X-0.7971 Y2.5989 
G01 X-0.7920 Y2.6059 
G01 X-0.7859 Y2.6120 
G01 X-0.7789 Y2.6171 
G01 X-0.7711 Y2.6211 
G01 X-0.7629 Y2.6237 
G01 X-0.7543 Y2.6251 
G01 X-0.7457 Y2.6251 
G01 X-0.7371 Y2.6237 
G01 X-0.7289 Y2.6211 
G01 X-0.7211 Y2.6171 
G01 X-0.7141 Y2.6120 
G01 X-0.7080 Y2.6059 
G01 X-0.7038 Y2.6001 
G01 X-0.5801 Y2.6001 
G01 X-0.5801 Y2.7183 
G01 X-0.6470 Y2.7183 
G01 X-0.6530 Y2.7183 
G01 X-0.6588 Y2.7195 
G01 X-0.6643 Y2.7218 
G01 X-0.6692 Y2.7250 
G01 X-0.6734 Y2.7292 
G01 X-0.6767 Y2.7342 
G01 X-0.6789 Y2.7396 
G01 X-0.6801 Y2.7455 
G01 X-0.6801 Y2.7538 
G01 X-0.6859 Y2.7580 
G01 X-0.6920 Y2.7641 
G01 X-0.6971 Y2.7711 
G01 X-0.7011 Y2.7789 
G01 X-0.7037 Y2.7871 
G01 X-0.7051 Y2.7957 
G01 X-0.7051 Y2.8043 
G01 X-0.7037 Y2.8129 
G01 X-0.7011 Y2.8211 
G01 X-0.6971 Y2.8289 
G01 X-0.6920 Y2.8359 
G01 X-0.6859 Y2.8420 
G01 X-0.6789 Y2.8471 
G01 X-0.6711 Y2.8511 
G01 X-0.6629 Y2.8537 
G01 X-0.6543 Y2.8551 
G01 X-0.6457 Y2.8551 
G01 X-0.6371 Y2.8537 
G01 X-0.6289 Y2.8511 
G01 X-0.6211 Y2.8471 
G01 X-0.6141 Y2.8420 
G01 X-0.6080 Y2.8359 
G01 X-0.6029 Y2.8289 
G01 X-0.5989 Y2.8211 
G01 X-0.5963 Y2.8129 
G01 X-0.5949 Y2.8043 
G01 X-0.5949 Y2.7957 
G01 X-0.5963 Y2.7871 
G01 X-0.5989 Y2.7789 
G01 X-0.5991 Y2.7785 
G01 X-0.5530 Y2.7785 
G01 X-0.5470 Y2.7785 
G01 X-0.3806 Y2.7785 
G01 X-0.3797 Y2.7798 
G01 X-0.3743 Y2.7851 
G01 X-0.3682 Y2.7896 
G01 X-0.3615 Y2.7930 
G01 X-0.3543 Y2.7953 
G01 X-0.3468 Y2.7965 
G01 X-0.2532 Y2.7965 
G01 X-0.2457 Y2.7953 
G01 X-0.2385 Y2.7930 
G01 X-0.2318 Y2.7896 
G01 X-0.2257 Y2.7851 
G01 X-0.2207 Y2.7801 
G01 X0.0030 Y2.7801 
G01 X0.0088 Y2.7789 
G01 X0.0143 Y2.7767 
G01 X0.0192 Y2.7734 
G01 X0.0234 Y2.7692 
G01 X0.0267 Y2.7643 
G01 X0.0289 Y2.7588 
G01 X0.0301 Y2.7530 
G01 X0.0301 Y2.7470 
G01 X0.0301 Y0.9970 
G01 X0.0289 Y0.9912 
G01 X0.0267 Y0.9857 
G01 X0.0234 Y0.9808 
G01 X0.0192 Y0.9766 
G01 X0.0143 Y0.9733 
G01 X0.0088 Y0.9711 
G01 X0.0030 Y0.9699 
G01 X-0.0030 Y0.9699 
G01 X-3.6530 Y0.9699 
G01 X-3.6588 Y0.9711 
G01 X-3.6643 Y0.9733 
G01 X-3.6692 Y0.9766 
G01 X-3.6734 Y0.9808 
G01 X-3.6767 Y0.9857 
G01 X-3.6789 Y0.9912 
G01 X-3.6801 Y0.9970 
G01 X-3.6801 Y1.0030 
G01 X-3.6801 Y1.5530 
G01 X-3.6789 Y1.5588 
G01 X-3.6767 Y1.5643 
G01 X-3.6734 Y1.5692 
G01 X-3.6692 Y1.5734 
G01 X-3.6643 Y1.5767 
G01 X-3.6588 Y1.5789 
G01 X-3.6530 Y1.5801 
G01 X-3.6470 Y1.5801 
G01 X-3.4851 Y1.5801 
G01 X-3.4851 Y1.5835 
G01 X-3.4837 Y1.5902 
G01 X-3.4811 Y1.5966 
G01 X-3.4773 Y1.6024 
G01 X-3.4724 Y1.6073 
G01 X-3.4666 Y1.6111 
G01 X-3.4602 Y1.6137 
G01 X-3.4535 Y1.6151 
G01 X-3.4465 Y1.6151 
G01 X-3.4398 Y1.6137 
G01 X-3.4334 Y1.6111 
G01 X-3.4276 Y1.6073 
G01 X-3.4227 Y1.6024 
G01 X-3.4189 Y1.5966 
G01 X-3.4163 Y1.5902 
G01 X-3.4149 Y1.5835 
G01 X-3.4149 Y1.5165 
G01 X-3.4163 Y1.5098 
G01 X-3.4189 Y1.5034 
G01 X-3.4227 Y1.4976 
G01 X-3.4276 Y1.4927 
G01 X-3.4334 Y1.4889 
G01 X-3.4398 Y1.4863 
G01 X-3.4465 Y1.4849 
G01 X-3.4535 Y1.4849 
G01 X-3.4602 Y1.4863 
G01 X-3.4666 Y1.4889 
G01 X-3.4724 Y1.4927 
G01 X-3.4773 Y1.4976 
G01 X-3.4811 Y1.5034 
G01 X-3.4837 Y1.5098 
G01 X-3.4851 Y1.5165 
G00 Z0.0200 
G00 X-3.6389 Y1.6901 
G01 Z-0.0100 F10.00 
G01 X-3.5610 Y1.6901 
G01 X-3.5533 Y1.6886 
G01 X-3.5460 Y1.6855 
G01 X-3.5394 Y1.6811 
G01 X-3.5339 Y1.6756 
G01 X-3.5309 Y1.6711 
G01 X-3.3211 Y1.6711 
G01 X-3.3211 Y2.0472 
G01 X-3.3211 Y2.0528 
G01 X-3.3197 Y2.0581 
G01 X-3.3169 Y2.0629 
G01 X-3.3129 Y2.0669 
G01 X-3.3081 Y2.0697 
G01 X-3.3028 Y2.0711 
G01 X-3.0989 Y2.0711 
G01 X-3.0958 Y2.0741 
G01 X-3.0907 Y2.0776 
G01 X-3.0851 Y2.0799 
G01 X-3.0791 Y2.0811 
G01 X-3.0209 Y2.0811 
G01 X-3.0149 Y2.0799 
G01 X-3.0093 Y2.0776 
G01 X-3.0042 Y2.0741 
G01 X-2.9998 Y2.0698 
G01 X-2.9964 Y2.0647 
G01 X-2.9941 Y2.0591 
G01 X-2.9929 Y2.0531 
G01 X-2.9929 Y2.0469 
G01 X-2.9941 Y2.0409 
G01 X-2.9964 Y2.0353 
G01 X-2.9998 Y2.0302 
G01 X-3.0042 Y2.0258 
G01 X-3.0093 Y2.0224 
G01 X-3.0149 Y2.0201 
G01 X-3.0209 Y2.0189 
G01 X-3.0791 Y2.0189 
G01 X-3.0851 Y2.0201 
G01 X-3.0907 Y2.0224 
G01 X-3.0958 Y2.0258 
G01 X-3.0989 Y2.0289 
G01 X-3.2789 Y2.0289 
G01 X-3.2789 Y1.6472 
G01 X-3.2803 Y1.6419 
G01 X-3.2831 Y1.6370 
G01 X-3.2870 Y1.6331 
G01 X-3.2919 Y1.6303 
G01 X-3.2972 Y1.6289 
G01 X-3.3028 Y1.6289 
G01 X-3.5309 Y1.6289 
G01 X-3.5339 Y1.6244 
G01 X-3.5394 Y1.6189 
G01 X-3.5460 Y1.6145 
G01 X-3.5533 Y1.6114 
G01 X-3.5610 Y1.6099 
G01 X-3.6389 Y1.6099 
G01 X-3.6467 Y1.6114 
G01 X-3.6540 Y1.6145 
G01 X-3.6606 Y1.6189 
G01 X-3.6661 Y1.6244 
G01 X-3.6705 Y1.6310 
G01 X-3.6736 Y1.6383 
G01 X-3.6751 Y1.6460 
G01 X-3.6751 Y1.6539 
G01 X-3.6736 Y1.6617 
G01 X-3.6705 Y1.6690 
G01 X-3.6661 Y1.6756 
G01 X-3.6606 Y1.6811 
G01 X-3.6540 Y1.6855 
G01 X-3.6467 Y1.6886 
G01 X-3.6389 Y1.6901 
G00 Z0.0200 
G00 X-3.6389 Y1.8901 
G01 Z-0.0100 F10.00 
G01 X-3.5610 Y1.8901 
G01 X-3.5533 Y1.8886 
G01 X-3.5460 Y1.8855 
G01 X-3.5394 Y1.8811 
G01 X-3.5339 Y1.8756 
G01 X-3.5309 Y1.8711 
G01 X-3.4211 Y1.8711 
G01 X-3.4211 Y2.1472 
G01 X-3.4211 Y2.1528 
G01 X-3.4197 Y2.1581 
G01 X-3.4169 Y2.1629 
G01 X-3.4129 Y2.1669 
G01 X-3.4081 Y2.1697 
G01 X-3.4028 Y2.1711 
G01 X-3.2211 Y2.1711 
G01 X-3.2211 Y2.2472 
G01 X-3.2211 Y2.2528 
G01 X-3.2197 Y2.2581 
G01 X-3.2169 Y2.2629 
G01 X-3.2129 Y2.2669 
G01 X-3.2081 Y2.2697 
G01 X-3.2028 Y2.2711 
G01 X-3.0989 Y2.2711 
G01 X-3.0958 Y2.2741 
G01 X-3.0907 Y2.2776 
G01 X-3.0851 Y2.2799 
G01 X-3.0791 Y2.2811 
G01 X-3.0209 Y2.2811 
G01 X-3.0149 Y2.2799 
G01 X-3.0093 Y2.2776 
G01 X-3.0042 Y2.2741 
G01 X-2.9998 Y2.2698 
G01 X-2.9964 Y2.2647 
G01 X-2.9941 Y2.2591 
G01 X-2.9929 Y2.2531 
G01 X-2.9929 Y2.2469 
G01 X-2.9941 Y2.2409 
G01 X-2.9964 Y2.2353 
G01 X-2.9998 Y2.2302 
G01 X-3.0042 Y2.2258 
G01 X-3.0093 Y2.2224 
G01 X-3.0149 Y2.2201 
G01 X-3.0209 Y2.2189 
G01 X-3.0791 Y2.2189 
G01 X-3.0851 Y2.2201 
G01 X-3.0907 Y2.2224 
G01 X-3.0958 Y2.2258 
G01 X-3.0989 Y2.2289 
G01 X-3.1789 Y2.2289 
G01 X-3.1789 Y2.1472 
G01 X-3.1803 Y2.1419 
G01 X-3.1831 Y2.1370 
G01 X-3.1870 Y2.1331 
G01 X-3.1919 Y2.1303 
G01 X-3.1972 Y2.1289 
G01 X-3.2028 Y2.1289 
G01 X-3.3789 Y2.1289 
G01 X-3.3789 Y1.8472 
G01 X-3.3803 Y1.8419 
G01 X-3.3831 Y1.8370 
G01 X-3.3870 Y1.8331 
G01 X-3.3919 Y1.8303 
G01 X-3.3972 Y1.8289 
G01 X-3.4028 Y1.8289 
G01 X-3.5309 Y1.8289 
G01 X-3.5339 Y1.8244 
G01 X-3.5394 Y1.8189 
G01 X-3.5460 Y1.8145 
G01 X-3.5533 Y1.8114 
G01 X-3.5610 Y1.8099 
G01 X-3.6389 Y1.8099 
G01 X-3.6467 Y1.8114 
G01 X-3.6540 Y1.8145 
G01 X-3.6606 Y1.8189 
G01 X-3.6661 Y1.8244 
G01 X-3.6705 Y1.8310 
G01 X-3.6736 Y1.8383 
G01 X-3.6751 Y1.8460 
G01 X-3.6751 Y1.8539 
G01 X-3.6736 Y1.8617 
G01 X-3.6705 Y1.8690 
G01 X-3.6661 Y1.8756 
G01 X-3.6606 Y1.8811 
G01 X-3.6540 Y1.8855 
G01 X-3.6467 Y1.8886 
G01 X-3.6389 Y1.8901 
G00 Z0.0200 
G00 X-3.6389 Y2.0901 
G01 Z-0.0100 F10.00 
G01 X-3.6301 Y2.0901 
G01 X-3.6301 Y2.1099 
G01 X-3.6389 Y2.1099 
G01 X-3.6467 Y2.1114 
G01 X-3.6540 Y2.1145 
G01 X-3.6606 Y2.1189 
G01 X-3.6616 Y2.1199 
G01 X-3.7470 Y2.1199 
G01 X-3.7530 Y2.1199 
G01 X-3.7588 Y2.1211 
G01 X-3.7643 Y2.1233 
G01 X-3.7692 Y2.1266 
G01 X-3.7734 Y2.1308 
G01 X-3.7767 Y2.1357 
G01 X-3.7789 Y2.1412 
G01 X-3.7801 Y2.1470 
G01 X-3.7801 Y2.6970 
G01 X-3.7801 Y2.7030 
G01 X-3.7789 Y2.7088 
G01 X-3.7767 Y2.7143 
G01 X-3.7734 Y2.7192 
G01 X-3.7692 Y2.7234 
G01 X-3.7643 Y2.7267 
G01 X-3.7588 Y2.7289 
G01 X-3.7530 Y2.7301 
G01 X-3.6616 Y2.7301 
G01 X-3.6606 Y2.7311 
G01 X-3.6540 Y2.7355 
G01 X-3.6467 Y2.7386 
G01 X-3.6389 Y2.7401 
G01 X-3.6301 Y2.7401 
G01 X-3.6301 Y2.7599 
G01 X-3.6389 Y2.7599 
G01 X-3.6467 Y2.7614 
G01 X-3.6540 Y2.7645 
G01 X-3.6606 Y2.7689 
G01 X-3.6661 Y2.7744 
G01 X-3.6705 Y2.7810 
G01 X-3.6736 Y2.7883 
G01 X-3.6751 Y2.7960 
G01 X-3.6751 Y2.8039 
G01 X-3.6736 Y2.8117 
G01 X-3.6705 Y2.8190 
G01 X-3.6661 Y2.8256 
G01 X-3.6606 Y2.8311 
G01 X-3.6540 Y2.8355 
G01 X-3.6467 Y2.8386 
G01 X-3.6389 Y2.8401 
G01 X-3.6301 Y2.8401 
G01 X-3.6301 Y2.9030 
G01 X-3.6289 Y2.9088 
G01 X-3.6267 Y2.9143 
G01 X-3.6234 Y2.9192 
G01 X-3.6192 Y2.9234 
G01 X-3.6143 Y2.9267 
G01 X-3.6088 Y2.9289 
G01 X-3.6030 Y2.9301 
G01 X-3.5970 Y2.9301 
G01 X-2.9470 Y2.9301 
G01 X-2.9412 Y2.9289 
G01 X-2.9357 Y2.9267 
G01 X-2.9308 Y2.9234 
G01 X-2.9266 Y2.9192 
G01 X-2.9233 Y2.9143 
G01 X-2.9211 Y2.9088 
G01 X-2.9199 Y2.9030 
G01 X-2.9199 Y2.8970 
G01 X-2.9199 Y1.9470 
G01 X-2.9211 Y1.9412 
G01 X-2.9233 Y1.9357 
G01 X-2.9266 Y1.9308 
G01 X-2.9308 Y1.9266 
G01 X-2.9357 Y1.9233 
G01 X-2.9412 Y1.9211 
G01 X-2.9470 Y1.9199 
G01 X-2.9530 Y1.9199 
G01 X-3.0159 Y1.9199 
G01 X-3.0199 Y1.9191 
G01 X-3.0199 Y1.4481 
G01 X-3.0189 Y1.4466 
G01 X-3.0163 Y1.4402 
G01 X-3.0149 Y1.4335 
G01 X-3.0149 Y1.3665 
G01 X-3.0163 Y1.3598 
G01 X-3.0189 Y1.3534 
G01 X-3.0199 Y1.3519 
G01 X-3.0199 Y1.1970 
G01 X-3.0211 Y1.1912 
G01 X-3.0233 Y1.1857 
G01 X-3.0266 Y1.1808 
G01 X-3.0308 Y1.1766 
G01 X-3.0357 Y1.1733 
G01 X-3.0412 Y1.1711 
G01 X-3.0470 Y1.1699 
G01 X-3.0530 Y1.1699 
G01 X-3.2038 Y1.1699 
G01 X-3.2080 Y1.1641 
G01 X-3.2141 Y1.1580 
G01 X-3.2211 Y1.1529 
G01 X-3.2289 Y1.1489 
G01 X-3.2371 Y1.1463 
G01 X-3.2457 Y1.1449 
G01 X-3.2543 Y1.1449 
G01 X-3.2629 Y1.1463 
G01 X-3.2711 Y1.1489 
G01 X-3.2789 Y1.1529 
G01 X-3.2859 Y1.1580 
G01 X-3.2920 Y1.1641 
G01 X-3.2971 Y1.1711 
G01 X-3.3011 Y1.1789 
G01 X-3.3037 Y1.1871 
G01 X-3.3051 Y1.1957 
G01 X-3.3051 Y1.2043 
G01 X-3.3037 Y1.2129 
G01 X-3.3011 Y1.2211 
G01 X-3.2971 Y1.2289 
G01 X-3.2920 Y1.2359 
G01 X-3.2859 Y1.2420 
G01 X-3.2789 Y1.2471 
G01 X-3.2711 Y1.2511 
G01 X-3.2629 Y1.2537 
G01 X-3.2543 Y1.2551 
G01 X-3.2457 Y1.2551 
G01 X-3.2371 Y1.2537 
G01 X-3.2289 Y1.2511 
G01 X-3.2211 Y1.2471 
G01 X-3.2141 Y1.2420 
G01 X-3.2080 Y1.2359 
G01 X-3.2038 Y1.2301 
G01 X-3.0801 Y1.2301 
G01 X-3.0801 Y1.3519 
G01 X-3.0811 Y1.3534 
G01 X-3.0837 Y1.3598 
G01 X-3.0851 Y1.3665 
G01 X-3.0851 Y1.4335 
G01 X-3.0837 Y1.4402 
G01 X-3.0811 Y1.4466 
G01 X-3.0801 Y1.4481 
G01 X-3.0801 Y1.9191 
G01 X-3.0851 Y1.9201 
G01 X-3.0907 Y1.9224 
G01 X-3.0958 Y1.9258 
G01 X-3.1001 Y1.9302 
G01 X-3.1036 Y1.9353 
G01 X-3.1059 Y1.9409 
G01 X-3.1071 Y1.9469 
G01 X-3.1071 Y1.9531 
G01 X-3.1059 Y1.9591 
G01 X-3.1036 Y1.9647 
G01 X-3.1001 Y1.9698 
G01 X-3.0958 Y1.9741 
G01 X-3.0907 Y1.9776 
G01 X-3.0851 Y1.9799 
G01 X-3.0791 Y1.9811 
G01 X-3.0209 Y1.9811 
G01 X-3.0159 Y1.9801 
G01 X-2.9801 Y1.9801 
G01 X-2.9801 Y2.8699 
G01 X-3.5699 Y2.8699 
G01 X-3.5699 Y2.8401 
G01 X-3.5610 Y2.8401 
G01 X-3.5533 Y2.8386 
G01 X-3.5460 Y2.8355 
G01 X-3.5394 Y2.8311 
G01 X-3.5339 Y2.8256 
G01 X-3.5295 Y2.8190 
G01 X-3.5264 Y2.8117 
G01 X-3.5249 Y2.8039 
G01 X-3.5249 Y2.7960 
G01 X-3.5264 Y2.7883 
G01 X-3.5295 Y2.7810 
G01 X-3.5339 Y2.7744 
G01 X-3.5394 Y2.7689 
G01 X-3.5460 Y2.7645 
G01 X-3.5533 Y2.7614 
G01 X-3.5610 Y2.7599 
G01 X-3.5699 Y2.7599 
G01 X-3.5699 Y2.7401 
G01 X-3.5610 Y2.7401 
G01 X-3.5533 Y2.7386 
G01 X-3.5460 Y2.7355 
G01 X-3.5394 Y2.7311 
G01 X-3.5339 Y2.7256 
G01 X-3.5295 Y2.7190 
G01 X-3.5264 Y2.7117 
G01 X-3.5249 Y2.7039 
G01 X-3.5249 Y2.6960 
G01 X-3.5264 Y2.6883 
G01 X-3.5295 Y2.6810 
G01 X-3.5339 Y2.6744 
G01 X-3.5394 Y2.6689 
G01 X-3.5460 Y2.6645 
G01 X-3.5533 Y2.6614 
G01 X-3.5610 Y2.6599 
G01 X-3.6389 Y2.6599 
G01 X-3.6467 Y2.6614 
G01 X-3.6540 Y2.6645 
G01 X-3.6606 Y2.6689 
G01 X-3.6616 Y2.6699 
G01 X-3.7199 Y2.6699 
G01 X-3.7199 Y2.1801 
G01 X-3.6616 Y2.1801 
G01 X-3.6606 Y2.1811 
G01 X-3.6540 Y2.1855 
G01 X-3.6467 Y2.1886 
G01 X-3.6389 Y2.1901 
G01 X-3.5610 Y2.1901 
G01 X-3.5533 Y2.1886 
G01 X-3.5460 Y2.1855 
G01 X-3.5394 Y2.1811 
G01 X-3.5339 Y2.1756 
G01 X-3.5295 Y2.1690 
G01 X-3.5264 Y2.1617 
G01 X-3.5249 Y2.1539 
G01 X-3.5249 Y2.1460 
G01 X-3.5264 Y2.1383 
G01 X-3.5295 Y2.1310 
G01 X-3.5339 Y2.1244 
G01 X-3.5394 Y2.1189 
G01 X-3.5460 Y2.1145 
G01 X-3.5533 Y2.1114 
G01 X-3.5610 Y2.1099 
G01 X-3.5699 Y2.1099 
G01 X-3.5699 Y2.0901 
G01 X-3.5610 Y2.0901 
G01 X-3.5533 Y2.0886 
G01 X-3.5460 Y2.0855 
G01 X-3.5394 Y2.0811 
G01 X-3.5339 Y2.0756 
G01 X-3.5295 Y2.0690 
G01 X-3.5264 Y2.0617 
G01 X-3.5249 Y2.0539 
G01 X-3.5249 Y2.0460 
G01 X-3.5264 Y2.0383 
G01 X-3.5295 Y2.0310 
G01 X-3.5339 Y2.0244 
G01 X-3.5394 Y2.0189 
G01 X-3.5460 Y2.0145 
G01 X-3.5533 Y2.0114 
G01 X-3.5610 Y2.0099 
G01 X-3.6389 Y2.0099 
G01 X-3.6467 Y2.0114 
G01 X-3.6540 Y2.0145 
G01 X-3.6606 Y2.0189 
G01 X-3.6661 Y2.0244 
G01 X-3.6705 Y2.0310 
G01 X-3.6736 Y2.0383 
G01 X-3.6751 Y2.0460 
G01 X-3.6751 Y2.0539 
G01 X-3.6736 Y2.0617 
G01 X-3.6705 Y2.0690 
G01 X-3.6661 Y2.0756 
G01 X-3.6606 Y2.0811 
G01 X-3.6540 Y2.0855 
G01 X-3.6467 Y2.0886 
G01 X-3.6389 Y2.0901 
G00 Z0.0200 
G00 X-3.6389 Y2.3401 
G01 Z-0.0100 F10.00 
G01 X-3.5610 Y2.3401 
G01 X-3.5533 Y2.3386 
G01 X-3.5460 Y2.3355 
G01 X-3.5394 Y2.3311 
G01 X-3.5339 Y2.3256 
G01 X-3.5309 Y2.3211 
G01 X-3.3211 Y2.3211 
G01 X-3.3211 Y2.4472 
G01 X-3.3211 Y2.4472 
G01 X-3.3211 Y2.4528 
G01 X-3.3197 Y2.4581 
G01 X-3.3169 Y2.4629 
G01 X-3.3129 Y2.4669 
G01 X-3.3081 Y2.4697 
G01 X-3.3028 Y2.4711 
G01 X-3.0989 Y2.4711 
G01 X-3.0958 Y2.4741 
G01 X-3.0907 Y2.4776 
G01 X-3.0851 Y2.4799 
G01 X-3.0791 Y2.4811 
G01 X-3.0209 Y2.4811 
G01 X-3.0149 Y2.4799 
G01 X-3.0093 Y2.4776 
G01 X-3.0042 Y2.4741 
G01 X-2.9998 Y2.4698 
G01 X-2.9964 Y2.4647 
G01 X-2.9941 Y2.4591 
G01 X-2.9929 Y2.4531 
G01 X-2.9929 Y2.4469 
G01 X-2.9941 Y2.4409 
G01 X-2.9964 Y2.4353 
G01 X-2.9998 Y2.4302 
G01 X-3.0042 Y2.4258 
G01 X-3.0093 Y2.4224 
G01 X-3.0149 Y2.4201 
G01 X-3.0209 Y2.4189 
G01 X-3.0791 Y2.4189 
G01 X-3.0851 Y2.4201 
G01 X-3.0907 Y2.4224 
G01 X-3.0958 Y2.4258 
G01 X-3.0989 Y2.4289 
G01 X-3.2789 Y2.4289 
G01 X-3.2789 Y2.3028 
G01 X-3.2789 Y2.2972 
G01 X-3.2803 Y2.2919 
G01 X-3.2831 Y2.2870 
G01 X-3.2870 Y2.2831 
G01 X-3.2919 Y2.2803 
G01 X-3.2972 Y2.2789 
G01 X-3.5309 Y2.2789 
G01 X-3.5339 Y2.2744 
G01 X-3.5394 Y2.2689 
G01 X-3.5460 Y2.2645 
G01 X-3.5533 Y2.2614 
G01 X-3.5610 Y2.2599 
G01 X-3.6389 Y2.2599 
G01 X-3.6467 Y2.2614 
G01 X-3.6540 Y2.2645 
G01 X-3.6606 Y2.2689 
G01 X-3.6661 Y2.2744 
G01 X-3.6705 Y2.2810 
G01 X-3.6736 Y2.2883 
G01 X-3.6751 Y2.2960 
G01 X-3.6751 Y2.3039 
G01 X-3.6736 Y2.3117 
G01 X-3.6705 Y2.3190 
G01 X-3.6661 Y2.3256 
G01 X-3.6606 Y2.3311 
G01 X-3.6540 Y2.3355 
G01 X-3.6467 Y2.3386 
G01 X-3.6389 Y2.3401 
G00 Z0.0200 
G00 X-3.6389 Y2.5401 
G01 Z-0.0100 F10.00 
G01 X-3.5610 Y2.5401 
G01 X-3.5533 Y2.5386 
G01 X-3.5460 Y2.5355 
G01 X-3.5394 Y2.5311 
G01 X-3.5339 Y2.5256 
G01 X-3.5309 Y2.5211 
G01 X-3.4211 Y2.5211 
G01 X-3.4211 Y2.6528 
G01 X-3.4197 Y2.6581 
G01 X-3.4169 Y2.6629 
G01 X-3.4129 Y2.6669 
G01 X-3.4081 Y2.6697 
G01 X-3.4028 Y2.6711 
G01 X-3.3972 Y2.6711 
G01 X-3.0989 Y2.6711 
G01 X-3.0958 Y2.6741 
G01 X-3.0907 Y2.6776 
G01 X-3.0851 Y2.6799 
G01 X-3.0791 Y2.6811 
G01 X-3.0209 Y2.6811 
G01 X-3.0149 Y2.6799 
G01 X-3.0093 Y2.6776 
G01 X-3.0042 Y2.6741 
G01 X-2.9998 Y2.6698 
G01 X-2.9964 Y2.6647 
G01 X-2.9941 Y2.6591 
G01 X-2.9929 Y2.6531 
G01 X-2.9929 Y2.6469 
G01 X-2.9941 Y2.6409 
G01 X-2.9964 Y2.6353 
G01 X-2.9998 Y2.6302 
G01 X-3.0042 Y2.6258 
G01 X-3.0093 Y2.6224 
G01 X-3.0149 Y2.6201 
G01 X-3.0209 Y2.6189 
G01 X-3.0791 Y2.6189 
G01 X-3.0851 Y2.6201 
G01 X-3.0907 Y2.6224 
G01 X-3.0958 Y2.6258 
G01 X-3.0989 Y2.6289 
G01 X-3.3789 Y2.6289 
G01 X-3.3789 Y2.5028 
G01 X-3.3789 Y2.4972 
G01 X-3.3803 Y2.4919 
G01 X-3.3831 Y2.4870 
G01 X-3.3870 Y2.4831 
G01 X-3.3919 Y2.4803 
G01 X-3.3972 Y2.4789 
G01 X-3.5309 Y2.4789 
G01 X-3.5339 Y2.4744 
G01 X-3.5394 Y2.4689 
G01 X-3.5460 Y2.4645 
G01 X-3.5533 Y2.4614 
G01 X-3.5610 Y2.4599 
G01 X-3.6389 Y2.4599 
G01 X-3.6467 Y2.4614 
G01 X-3.6540 Y2.4645 
G01 X-3.6606 Y2.4689 
G01 X-3.6661 Y2.4744 
G01 X-3.6705 Y2.4810 
G01 X-3.6736 Y2.4883 
G01 X-3.6751 Y2.4960 
G01 X-3.6751 Y2.5039 
G01 X-3.6736 Y2.5117 
G01 X-3.6705 Y2.5190 
G01 X-3.6661 Y2.5256 
G01 X-3.6606 Y2.5311 
G01 X-3.6540 Y2.5355 
G01 X-3.6467 Y2.5386 
G01 X-3.6389 Y2.5401 
G00 Z0.0200 
G00 X-3.0791 Y2.7811 
G01 Z-0.0100 F10.00 
G01 X-3.0209 Y2.7811 
G01 X-3.0149 Y2.7799 
G01 X-3.0093 Y2.7776 
G01 X-3.0042 Y2.7741 
G01 X-2.9998 Y2.7698 
G01 X-2.9964 Y2.7647 
G01 X-2.9941 Y2.7591 
G01 X-2.9929 Y2.7531 
G01 X-2.9929 Y2.7469 
G01 X-2.9941 Y2.7409 
G01 X-2.9964 Y2.7353 
G01 X-2.9998 Y2.7302 
G01 X-3.0042 Y2.7258 
G01 X-3.0093 Y2.7224 
G01 X-3.0149 Y2.7201 
G01 X-3.0209 Y2.7189 
G01 X-3.0791 Y2.7189 
G01 X-3.0851 Y2.7201 
G01 X-3.0907 Y2.7224 
G01 X-3.0958 Y2.7258 
G01 X-3.0989 Y2.7289 
G01 X-3.4289 Y2.7289 
G01 X-3.4289 Y2.6028 
G01 X-3.4289 Y2.5972 
G01 X-3.4303 Y2.5919 
G01 X-3.4331 Y2.5870 
G01 X-3.4370 Y2.5831 
G01 X-3.4419 Y2.5803 
G01 X-3.4472 Y2.5789 
G01 X-3.5309 Y2.5789 
G01 X-3.5339 Y2.5744 
G01 X-3.5394 Y2.5689 
G01 X-3.5460 Y2.5645 
G01 X-3.5533 Y2.5614 
G01 X-3.5610 Y2.5599 
G01 X-3.6389 Y2.5599 
G01 X-3.6467 Y2.5614 
G01 X-3.6540 Y2.5645 
G01 X-3.6606 Y2.5689 
G01 X-3.6661 Y2.5744 
G01 X-3.6705 Y2.5810 
G01 X-3.6736 Y2.5883 
G01 X-3.6751 Y2.5960 
G01 X-3.6751 Y2.6039 
G01 X-3.6736 Y2.6117 
G01 X-3.6705 Y2.6190 
G01 X-3.6661 Y2.6256 
G01 X-3.6606 Y2.6311 
G01 X-3.6540 Y2.6355 
G01 X-3.6467 Y2.6386 
G01 X-3.6389 Y2.6401 
G01 X-3.5610 Y2.6401 
G01 X-3.5533 Y2.6386 
G01 X-3.5460 Y2.6355 
G01 X-3.5394 Y2.6311 
G01 X-3.5339 Y2.6256 
G01 X-3.5309 Y2.6211 
G01 X-3.4711 Y2.6211 
G01 X-3.4711 Y2.7528 
G01 X-3.4697 Y2.7581 
G01 X-3.4669 Y2.7629 
G01 X-3.4629 Y2.7669 
G01 X-3.4581 Y2.7697 
G01 X-3.4528 Y2.7711 
G01 X-3.4472 Y2.7711 
G01 X-3.0989 Y2.7711 
G01 X-3.0958 Y2.7741 
G01 X-3.0907 Y2.7776 
G01 X-3.0851 Y2.7799 
G01 X-3.0791 Y2.7811 
G00 Z0.0200 
G00 X-3.0791 Y2.5811 
G01 Z-0.0100 F10.00 
G01 X-3.0209 Y2.5811 
G01 X-3.0149 Y2.5799 
G01 X-3.0093 Y2.5776 
G01 X-3.0042 Y2.5741 
G01 X-2.9998 Y2.5698 
G01 X-2.9964 Y2.5647 
G01 X-2.9941 Y2.5591 
G01 X-2.9929 Y2.5531 
G01 X-2.9929 Y2.5469 
G01 X-2.9941 Y2.5409 
G01 X-2.9964 Y2.5353 
G01 X-2.9998 Y2.5302 
G01 X-3.0042 Y2.5258 
G01 X-3.0093 Y2.5224 
G01 X-3.0149 Y2.5201 
G01 X-3.0209 Y2.5189 
G01 X-3.0791 Y2.5189 
G01 X-3.0851 Y2.5201 
G01 X-3.0907 Y2.5224 
G01 X-3.0958 Y2.5258 
G01 X-3.0989 Y2.5289 
G01 X-3.3289 Y2.5289 
G01 X-3.3289 Y2.4028 
G01 X-3.3289 Y2.3972 
G01 X-3.3303 Y2.3919 
G01 X-3.3331 Y2.3870 
G01 X-3.3370 Y2.3831 
G01 X-3.3419 Y2.3803 
G01 X-3.3472 Y2.3789 
G01 X-3.5309 Y2.3789 
G01 X-3.5339 Y2.3744 
G01 X-3.5394 Y2.3689 
G01 X-3.5460 Y2.3645 
G01 X-3.5533 Y2.3614 
G01 X-3.5610 Y2.3599 
G01 X-3.6389 Y2.3599 
G01 X-3.6467 Y2.3614 
G01 X-3.6540 Y2.3645 
G01 X-3.6606 Y2.3689 
G01 X-3.6661 Y2.3744 
G01 X-3.6705 Y2.3810 
G01 X-3.6736 Y2.3883 
G01 X-3.6751 Y2.3960 
G01 X-3.6751 Y2.4039 
G01 X-3.6736 Y2.4117 
G01 X-3.6705 Y2.4190 
G01 X-3.6661 Y2.4256 
G01 X-3.6606 Y2.4311 
G01 X-3.6540 Y2.4355 
G01 X-3.6467 Y2.4386 
G01 X-3.6389 Y2.4401 
G01 X-3.5610 Y2.4401 
G01 X-3.5533 Y2.4386 
G01 X-3.5460 Y2.4355 
G01 X-3.5394 Y2.4311 
G01 X-3.5339 Y2.4256 
G01 X-3.5309 Y2.4211 
G01 X-3.3711 Y2.4211 
G01 X-3.3711 Y2.5528 
G01 X-3.3697 Y2.5581 
G01 X-3.3669 Y2.5629 
G01 X-3.3629 Y2.5669 
G01 X-3.3581 Y2.5697 
G01 X-3.3528 Y2.5711 
G01 X-3.3472 Y2.5711 
G01 X-3.0989 Y2.5711 
G01 X-3.0958 Y2.5741 
G01 X-3.0907 Y2.5776 
G01 X-3.0851 Y2.5799 
G01 X-3.0791 Y2.5811 
G00 Z0.0200 
G00 X-3.0791 Y2.3811 
G01 Z-0.0100 F10.00 
G01 X-3.0209 Y2.3811 
G01 X-3.0149 Y2.3799 
G01 X-3.0093 Y2.3776 
G01 X-3.0042 Y2.3741 
G01 X-2.9998 Y2.3698 
G01 X-2.9964 Y2.3647 
G01 X-2.9941 Y2.3591 
G01 X-2.9929 Y2.3531 
G01 X-2.9929 Y2.3469 
G01 X-2.9941 Y2.3409 
G01 X-2.9964 Y2.3353 
G01 X-2.9998 Y2.3302 
G01 X-3.0042 Y2.3258 
G01 X-3.0093 Y2.3224 
G01 X-3.0149 Y2.3201 
G01 X-3.0209 Y2.3189 
G01 X-3.0791 Y2.3189 
G01 X-3.0851 Y2.3201 
G01 X-3.0907 Y2.3224 
G01 X-3.0958 Y2.3258 
G01 X-3.0989 Y2.3289 
G01 X-3.2289 Y2.3289 
G01 X-3.2289 Y2.2028 
G01 X-3.2289 Y2.1972 
G01 X-3.2303 Y2.1919 
G01 X-3.2331 Y2.1870 
G01 X-3.2370 Y2.1831 
G01 X-3.2419 Y2.1803 
G01 X-3.2472 Y2.1789 
G01 X-3.4289 Y2.1789 
G01 X-3.4289 Y1.9528 
G01 X-3.4289 Y1.9472 
G01 X-3.4303 Y1.9419 
G01 X-3.4331 Y1.9370 
G01 X-3.4370 Y1.9331 
G01 X-3.4419 Y1.9303 
G01 X-3.4472 Y1.9289 
G01 X-3.5309 Y1.9289 
G01 X-3.5339 Y1.9244 
G01 X-3.5394 Y1.9189 
G01 X-3.5460 Y1.9145 
G01 X-3.5533 Y1.9114 
G01 X-3.5610 Y1.9099 
G01 X-3.6389 Y1.9099 
G01 X-3.6467 Y1.9114 
G01 X-3.6540 Y1.9145 
G01 X-3.6606 Y1.9189 
G01 X-3.6661 Y1.9244 
G01 X-3.6705 Y1.9310 
G01 X-3.6736 Y1.9383 
G01 X-3.6751 Y1.9460 
G01 X-3.6751 Y1.9539 
G01 X-3.6736 Y1.9617 
G01 X-3.6705 Y1.9690 
G01 X-3.6661 Y1.9756 
G01 X-3.6606 Y1.9811 
G01 X-3.6540 Y1.9855 
G01 X-3.6467 Y1.9886 
G01 X-3.6389 Y1.9901 
G01 X-3.5610 Y1.9901 
G01 X-3.5533 Y1.9886 
G01 X-3.5460 Y1.9855 
G01 X-3.5394 Y1.9811 
G01 X-3.5339 Y1.9756 
G01 X-3.5309 Y1.9711 
G01 X-3.4711 Y1.9711 
G01 X-3.4711 Y2.2028 
G01 X-3.4697 Y2.2081 
G01 X-3.4669 Y2.2129 
G01 X-3.4629 Y2.2169 
G01 X-3.4581 Y2.2197 
G01 X-3.4528 Y2.2211 
G01 X-3.4472 Y2.2211 
G01 X-3.2711 Y2.2211 
G01 X-3.2711 Y2.3528 
G01 X-3.2697 Y2.3581 
G01 X-3.2669 Y2.3629 
G01 X-3.2629 Y2.3669 
G01 X-3.2581 Y2.3697 
G01 X-3.2528 Y2.3711 
G01 X-3.2472 Y2.3711 
G01 X-3.0989 Y2.3711 
G01 X-3.0958 Y2.3741 
G01 X-3.0907 Y2.3776 
G01 X-3.0851 Y2.3799 
G01 X-3.0791 Y2.3811 
G00 Z0.0200 
G00 X-3.0791 Y2.1811 
G01 Z-0.0100 F10.00 
G01 X-3.0209 Y2.1811 
G01 X-3.0149 Y2.1799 
G01 X-3.0093 Y2.1776 
G01 X-3.0042 Y2.1741 
G01 X-2.9998 Y2.1698 
G01 X-2.9964 Y2.1647 
G01 X-2.9941 Y2.1591 
G01 X-2.9929 Y2.1531 
G01 X-2.9929 Y2.1469 
G01 X-2.9941 Y2.1409 
G01 X-2.9964 Y2.1353 
G01 X-2.9998 Y2.1302 
G01 X-3.0042 Y2.1258 
G01 X-3.0093 Y2.1224 
G01 X-3.0149 Y2.1201 
G01 X-3.0209 Y2.1189 
G01 X-3.0791 Y2.1189 
G01 X-3.0851 Y2.1201 
G01 X-3.0907 Y2.1224 
G01 X-3.0958 Y2.1258 
G01 X-3.0989 Y2.1289 
G01 X-3.1289 Y2.1289 
G01 X-3.1289 Y2.1028 
G01 X-3.1289 Y2.0972 
G01 X-3.1303 Y2.0919 
G01 X-3.1331 Y2.0870 
G01 X-3.1370 Y2.0831 
G01 X-3.1419 Y2.0803 
G01 X-3.1472 Y2.0789 
G01 X-3.3289 Y2.0789 
G01 X-3.3289 Y1.7528 
G01 X-3.3289 Y1.7472 
G01 X-3.3303 Y1.7419 
G01 X-3.3331 Y1.7370 
G01 X-3.3370 Y1.7331 
G01 X-3.3419 Y1.7303 
G01 X-3.3472 Y1.7289 
G01 X-3.5309 Y1.7289 
G01 X-3.5339 Y1.7244 
G01 X-3.5394 Y1.7189 
G01 X-3.5460 Y1.7145 
G01 X-3.5533 Y1.7114 
G01 X-3.5610 Y1.7099 
G01 X-3.6389 Y1.7099 
G01 X-3.6467 Y1.7114 
G01 X-3.6540 Y1.7145 
G01 X-3.6606 Y1.7189 
G01 X-3.6661 Y1.7244 
G01 X-3.6705 Y1.7310 
G01 X-3.6736 Y1.7383 
G01 X-3.6751 Y1.7460 
G01 X-3.6751 Y1.7539 
G01 X-3.6736 Y1.7617 
G01 X-3.6705 Y1.7690 
G01 X-3.6661 Y1.7756 
G01 X-3.6606 Y1.7811 
G01 X-3.6540 Y1.7855 
G01 X-3.6467 Y1.7886 
G01 X-3.6389 Y1.7901 
G01 X-3.5610 Y1.7901 
G01 X-3.5533 Y1.7886 
G01 X-3.5460 Y1.7855 
G01 X-3.5394 Y1.7811 
G01 X-3.5339 Y1.7756 
G01 X-3.5309 Y1.7711 
G01 X-3.3711 Y1.7711 
G01 X-3.3711 Y2.1028 
G01 X-3.3697 Y2.1081 
G01 X-3.3669 Y2.1129 
G01 X-3.3629 Y2.1169 
G01 X-3.3581 Y2.1197 
G01 X-3.3528 Y2.1211 
G01 X-3.3472 Y2.1211 
G01 X-3.1711 Y2.1211 
G01 X-3.1711 Y2.1528 
G01 X-3.1697 Y2.1581 
G01 X-3.1669 Y2.1629 
G01 X-3.1629 Y2.1669 
G01 X-3.1581 Y2.1697 
G01 X-3.1528 Y2.1711 
G01 X-3.1472 Y2.1711 
G01 X-3.0989 Y2.1711 
G01 X-3.0958 Y2.1741 
G01 X-3.0907 Y2.1776 
G01 X-3.0851 Y2.1799 
G01 X-3.0791 Y2.1811 
G00 Z0.0200 
G00 X-2.7791 Y2.4811 
G01 Z-0.0100 F10.00 
G01 X-2.7209 Y2.4811 
G01 X-2.7149 Y2.4799 
G01 X-2.7093 Y2.4776 
G01 X-2.7042 Y2.4741 
G01 X-2.7011 Y2.4711 
G01 X-2.4472 Y2.4711 
G01 X-2.4419 Y2.4697 
G01 X-2.4370 Y2.4669 
G01 X-2.4331 Y2.4629 
G01 X-2.4303 Y2.4581 
G01 X-2.4289 Y2.4528 
G01 X-2.4289 Y2.4472 
G01 X-2.4289 Y2.0711 
G01 X-2.2147 Y2.0711 
G01 X-2.2126 Y2.0743 
G01 X-2.2073 Y2.0796 
G01 X-2.2010 Y2.0838 
G01 X-2.1941 Y2.0866 
G01 X-2.1868 Y2.0881 
G01 X-2.1132 Y2.0881 
G01 X-2.1059 Y2.0866 
G01 X-2.0990 Y2.0838 
G01 X-2.0927 Y2.0796 
G01 X-2.0874 Y2.0743 
G01 X-2.0832 Y2.0680 
G01 X-2.0804 Y2.0611 
G01 X-2.0789 Y2.0538 
G01 X-2.0789 Y2.0462 
G01 X-2.0804 Y2.0389 
G01 X-2.0832 Y2.0320 
G01 X-2.0874 Y2.0257 
G01 X-2.0927 Y2.0204 
G01 X-2.0990 Y2.0162 
G01 X-2.1059 Y2.0134 
G01 X-2.1132 Y2.0119 
G01 X-2.1868 Y2.0119 
G01 X-2.1941 Y2.0134 
G01 X-2.2010 Y2.0162 
G01 X-2.2073 Y2.0204 
G01 X-2.2126 Y2.0257 
G01 X-2.2147 Y2.0289 
G01 X-2.4472 Y2.0289 
G01 X-2.4528 Y2.0289 
G01 X-2.4581 Y2.0303 
G01 X-2.4629 Y2.0331 
G01 X-2.4669 Y2.0370 
G01 X-2.4697 Y2.0419 
G01 X-2.4711 Y2.0472 
G01 X-2.4711 Y2.4289 
G01 X-2.7011 Y2.4289 
G01 X-2.7042 Y2.4258 
G01 X-2.7093 Y2.4224 
G01 X-2.7149 Y2.4201 
G01 X-2.7209 Y2.4189 
G01 X-2.7791 Y2.4189 
G01 X-2.7851 Y2.4201 
G01 X-2.7907 Y2.4224 
G01 X-2.7958 Y2.4258 
G01 X-2.8001 Y2.4302 
G01 X-2.8036 Y2.4353 
G01 X-2.8059 Y2.4409 
G01 X-2.8071 Y2.4469 
G01 X-2.8071 Y2.4531 
G01 X-2.8059 Y2.4591 
G01 X-2.8036 Y2.4647 
G01 X-2.8001 Y2.4698 
G01 X-2.7958 Y2.4741 
G01 X-2.7907 Y2.4776 
G01 X-2.7851 Y2.4799 
G01 X-2.7791 Y2.4811 
G00 Z0.0200 
G00 X-2.7791 Y2.6811 
G01 Z-0.0100 F10.00 
G01 X-2.7209 Y2.6811 
G01 X-2.7149 Y2.6799 
G01 X-2.7093 Y2.6776 
G01 X-2.7042 Y2.6741 
G01 X-2.7011 Y2.6711 
G01 X-2.3472 Y2.6711 
G01 X-2.3419 Y2.6697 
G01 X-2.3370 Y2.6669 
G01 X-2.3331 Y2.6629 
G01 X-2.3303 Y2.6581 
G01 X-2.3289 Y2.6528 
G01 X-2.3289 Y2.6472 
G01 X-2.3289 Y2.2711 
G01 X-2.2147 Y2.2711 
G01 X-2.2126 Y2.2743 
G01 X-2.2073 Y2.2796 
G01 X-2.2010 Y2.2838 
G01 X-2.1941 Y2.2866 
G01 X-2.1868 Y2.2881 
G01 X-2.1132 Y2.2881 
G01 X-2.1059 Y2.2866 
G01 X-2.0990 Y2.2838 
G01 X-2.0927 Y2.2796 
G01 X-2.0874 Y2.2743 
G01 X-2.0832 Y2.2680 
G01 X-2.0804 Y2.2611 
G01 X-2.0789 Y2.2538 
G01 X-2.0789 Y2.2462 
G01 X-2.0804 Y2.2389 
G01 X-2.0832 Y2.2320 
G01 X-2.0874 Y2.2257 
G01 X-2.0927 Y2.2204 
G01 X-2.0990 Y2.2162 
G01 X-2.1059 Y2.2134 
G01 X-2.1132 Y2.2119 
G01 X-2.1868 Y2.2119 
G01 X-2.1941 Y2.2134 
G01 X-2.2010 Y2.2162 
G01 X-2.2073 Y2.2204 
G01 X-2.2126 Y2.2257 
G01 X-2.2147 Y2.2289 
G01 X-2.3472 Y2.2289 
G01 X-2.3528 Y2.2289 
G01 X-2.3581 Y2.2303 
G01 X-2.3629 Y2.2331 
G01 X-2.3669 Y2.2370 
G01 X-2.3697 Y2.2419 
G01 X-2.3711 Y2.2472 
G01 X-2.3711 Y2.6289 
G01 X-2.7011 Y2.6289 
G01 X-2.7042 Y2.6258 
G01 X-2.7093 Y2.6224 
G01 X-2.7149 Y2.6201 
G01 X-2.7209 Y2.6189 
G01 X-2.7791 Y2.6189 
G01 X-2.7851 Y2.6201 
G01 X-2.7907 Y2.6224 
G01 X-2.7958 Y2.6258 
G01 X-2.8001 Y2.6302 
G01 X-2.8036 Y2.6353 
G01 X-2.8059 Y2.6409 
G01 X-2.8071 Y2.6469 
G01 X-2.8071 Y2.6531 
G01 X-2.8059 Y2.6591 
G01 X-2.8036 Y2.6647 
G01 X-2.8001 Y2.6698 
G01 X-2.7958 Y2.6741 
G01 X-2.7907 Y2.6776 
G01 X-2.7851 Y2.6799 
G01 X-2.7791 Y2.6811 
G00 Z0.0200 
G00 X-2.1868 Y2.5881 
G01 Z-0.0100 F10.00 
G01 X-2.1132 Y2.5881 
G01 X-2.1059 Y2.5866 
G01 X-2.0990 Y2.5838 
G01 X-2.0927 Y2.5796 
G01 X-2.0874 Y2.5743 
G01 X-2.0832 Y2.5680 
G01 X-2.0804 Y2.5611 
G01 X-2.0789 Y2.5538 
G01 X-2.0789 Y2.5462 
G01 X-2.0804 Y2.5389 
G01 X-2.0832 Y2.5320 
G01 X-2.0874 Y2.5257 
G01 X-2.0927 Y2.5204 
G01 X-2.0990 Y2.5162 
G01 X-2.1059 Y2.5134 
G01 X-2.1132 Y2.5119 
G01 X-2.1868 Y2.5119 
G01 X-2.1941 Y2.5134 
G01 X-2.2010 Y2.5162 
G01 X-2.2073 Y2.5204 
G01 X-2.2126 Y2.5257 
G01 X-2.2168 Y2.5320 
G01 X-2.2196 Y2.5389 
G01 X-2.2211 Y2.5462 
G01 X-2.2211 Y2.5538 
G01 X-2.2196 Y2.5611 
G01 X-2.2168 Y2.5680 
G01 X-2.2126 Y2.5743 
G01 X-2.2073 Y2.5796 
G01 X-2.2010 Y2.5838 
G01 X-2.1941 Y2.5866 
G01 X-2.1868 Y2.5881 
G00 Z0.0200 
G00 X-2.1868 Y2.4881 
G01 Z-0.0100 F10.00 
G01 X-2.1132 Y2.4881 
G01 X-2.1059 Y2.4866 
G01 X-2.0990 Y2.4838 
G01 X-2.0927 Y2.4796 
G01 X-2.0874 Y2.4743 
G01 X-2.0832 Y2.4680 
G01 X-2.0804 Y2.4611 
G01 X-2.0789 Y2.4538 
G01 X-2.0789 Y2.4462 
G01 X-2.0804 Y2.4389 
G01 X-2.0832 Y2.4320 
G01 X-2.0874 Y2.4257 
G01 X-2.0927 Y2.4204 
G01 X-2.0990 Y2.4162 
G01 X-2.1059 Y2.4134 
G01 X-2.1132 Y2.4119 
G01 X-2.1868 Y2.4119 
G01 X-2.1941 Y2.4134 
G01 X-2.2010 Y2.4162 
G01 X-2.2073 Y2.4204 
G01 X-2.2126 Y2.4257 
G01 X-2.2168 Y2.4320 
G01 X-2.2196 Y2.4389 
G01 X-2.2211 Y2.4462 
G01 X-2.2211 Y2.4538 
G01 X-2.2196 Y2.4611 
G01 X-2.2168 Y2.4680 
G01 X-2.2126 Y2.4743 
G01 X-2.2073 Y2.4796 
G01 X-2.2010 Y2.4838 
G01 X-2.1941 Y2.4866 
G01 X-2.1868 Y2.4881 
G00 Z0.0200 
G00 X-2.1868 Y2.3881 
G01 Z-0.0100 F10.00 
G01 X-2.1132 Y2.3881 
G01 X-2.1059 Y2.3866 
G01 X-2.0990 Y2.3838 
G01 X-2.0927 Y2.3796 
G01 X-2.0874 Y2.3743 
G01 X-2.0832 Y2.3680 
G01 X-2.0804 Y2.3611 
G01 X-2.0789 Y2.3538 
G01 X-2.0789 Y2.3462 
G01 X-2.0804 Y2.3389 
G01 X-2.0832 Y2.3320 
G01 X-2.0874 Y2.3257 
G01 X-2.0927 Y2.3204 
G01 X-2.0990 Y2.3162 
G01 X-2.1059 Y2.3134 
G01 X-2.1132 Y2.3119 
G01 X-2.1868 Y2.3119 
G01 X-2.1941 Y2.3134 
G01 X-2.2010 Y2.3162 
G01 X-2.2073 Y2.3204 
G01 X-2.2126 Y2.3257 
G01 X-2.2147 Y2.3289 
G01 X-2.2972 Y2.3289 
G01 X-2.3028 Y2.3289 
G01 X-2.3081 Y2.3303 
G01 X-2.3129 Y2.3331 
G01 X-2.3169 Y2.3370 
G01 X-2.3197 Y2.3419 
G01 X-2.3211 Y2.3472 
G01 X-2.3211 Y2.7289 
G01 X-2.7011 Y2.7289 
G01 X-2.7042 Y2.7258 
G01 X-2.7093 Y2.7224 
G01 X-2.7149 Y2.7201 
G01 X-2.7209 Y2.7189 
G01 X-2.7791 Y2.7189 
G01 X-2.7851 Y2.7201 
G01 X-2.7907 Y2.7224 
G01 X-2.7958 Y2.7258 
G01 X-2.8001 Y2.7302 
G01 X-2.8036 Y2.7353 
G01 X-2.8059 Y2.7409 
G01 X-2.8071 Y2.7469 
G01 X-2.8071 Y2.7531 
G01 X-2.8059 Y2.7591 
G01 X-2.8036 Y2.7647 
G01 X-2.8001 Y2.7698 
G01 X-2.7958 Y2.7741 
G01 X-2.7907 Y2.7776 
G01 X-2.7851 Y2.7799 
G01 X-2.7791 Y2.7811 
G01 X-2.7209 Y2.7811 
G01 X-2.7149 Y2.7799 
G01 X-2.7093 Y2.7776 
G01 X-2.7042 Y2.7741 
G01 X-2.7011 Y2.7711 
G01 X-2.2972 Y2.7711 
G01 X-2.2919 Y2.7697 
G01 X-2.2870 Y2.7669 
G01 X-2.2831 Y2.7629 
G01 X-2.2803 Y2.7581 
G01 X-2.2789 Y2.7528 
G01 X-2.2789 Y2.7472 
G01 X-2.2789 Y2.3711 
G01 X-2.2147 Y2.3711 
G01 X-2.2126 Y2.3743 
G01 X-2.2073 Y2.3796 
G01 X-2.2010 Y2.3838 
G01 X-2.1941 Y2.3866 
G01 X-2.1868 Y2.3881 
G00 Z0.0200 
G00 X-2.1868 Y2.1881 
G01 Z-0.0100 F10.00 
G01 X-2.1132 Y2.1881 
G01 X-2.1059 Y2.1866 
G01 X-2.0990 Y2.1838 
G01 X-2.0927 Y2.1796 
G01 X-2.0874 Y2.1743 
G01 X-2.0832 Y2.1680 
G01 X-2.0804 Y2.1611 
G01 X-2.0789 Y2.1538 
G01 X-2.0789 Y2.1462 
G01 X-2.0804 Y2.1389 
G01 X-2.0832 Y2.1320 
G01 X-2.0874 Y2.1257 
G01 X-2.0927 Y2.1204 
G01 X-2.0990 Y2.1162 
G01 X-2.1059 Y2.1134 
G01 X-2.1132 Y2.1119 
G01 X-2.1868 Y2.1119 
G01 X-2.1941 Y2.1134 
G01 X-2.2010 Y2.1162 
G01 X-2.2073 Y2.1204 
G01 X-2.2126 Y2.1257 
G01 X-2.2147 Y2.1289 
G01 X-2.3972 Y2.1289 
G01 X-2.4028 Y2.1289 
G01 X-2.4081 Y2.1303 
G01 X-2.4129 Y2.1331 
G01 X-2.4169 Y2.1370 
G01 X-2.4197 Y2.1419 
G01 X-2.4211 Y2.1472 
G01 X-2.4211 Y2.5289 
G01 X-2.7011 Y2.5289 
G01 X-2.7042 Y2.5258 
G01 X-2.7093 Y2.5224 
G01 X-2.7149 Y2.5201 
G01 X-2.7209 Y2.5189 
G01 X-2.7791 Y2.5189 
G01 X-2.7851 Y2.5201 
G01 X-2.7907 Y2.5224 
G01 X-2.7958 Y2.5258 
G01 X-2.8001 Y2.5302 
G01 X-2.8036 Y2.5353 
G01 X-2.8059 Y2.5409 
G01 X-2.8071 Y2.5469 
G01 X-2.8071 Y2.5531 
G01 X-2.8059 Y2.5591 
G01 X-2.8036 Y2.5647 
G01 X-2.8001 Y2.5698 
G01 X-2.7958 Y2.5741 
G01 X-2.7907 Y2.5776 
G01 X-2.7851 Y2.5799 
G01 X-2.7791 Y2.5811 
G01 X-2.7209 Y2.5811 
G01 X-2.7149 Y2.5799 
G01 X-2.7093 Y2.5776 
G01 X-2.7042 Y2.5741 
G01 X-2.7011 Y2.5711 
G01 X-2.4028 Y2.5711 
G01 X-2.4028 Y2.5711 
G01 X-2.3972 Y2.5711 
G01 X-2.3919 Y2.5697 
G01 X-2.3870 Y2.5669 
G01 X-2.3831 Y2.5629 
G01 X-2.3803 Y2.5581 
G01 X-2.3789 Y2.5528 
G01 X-2.3789 Y2.1711 
G01 X-2.2147 Y2.1711 
G01 X-2.2126 Y2.1743 
G01 X-2.2073 Y2.1796 
G01 X-2.2010 Y2.1838 
G01 X-2.1941 Y2.1866 
G01 X-2.1868 Y2.1881 
G00 Z0.0200 
G00 X-0.2110 Y1.2599 
G01 Z-0.0100 F10.00 
G01 X-0.2889 Y1.2599 
G01 X-0.2967 Y1.2614 
G01 X-0.3040 Y1.2645 
G01 X-0.3106 Y1.2689 
G01 X-0.3161 Y1.2744 
G01 X-0.3191 Y1.2789 
G01 X-0.4472 Y1.2789 
G01 X-0.4528 Y1.2789 
G01 X-0.4581 Y1.2803 
G01 X-0.4629 Y1.2831 
G01 X-0.4669 Y1.2870 
G01 X-0.4697 Y1.2919 
G01 X-0.4711 Y1.2972 
G01 X-0.4711 Y1.3789 
G01 X-0.6353 Y1.3789 
G01 X-0.6374 Y1.3757 
G01 X-0.6427 Y1.3704 
G01 X-0.6490 Y1.3662 
G01 X-0.6559 Y1.3634 
G01 X-0.6632 Y1.3619 
G01 X-0.7368 Y1.3619 
G01 X-0.7441 Y1.3634 
G01 X-0.7510 Y1.3662 
G01 X-0.7573 Y1.3704 
G01 X-0.7626 Y1.3757 
G01 X-0.7668 Y1.3820 
G01 X-0.7696 Y1.3889 
G01 X-0.7711 Y1.3962 
G01 X-0.7711 Y1.4038 
G01 X-0.7696 Y1.4111 
G01 X-0.7668 Y1.4180 
G01 X-0.7626 Y1.4243 
G01 X-0.7573 Y1.4296 
G01 X-0.7510 Y1.4338 
G01 X-0.7441 Y1.4366 
G01 X-0.7368 Y1.4381 
G01 X-0.6632 Y1.4381 
G01 X-0.6559 Y1.4366 
G01 X-0.6490 Y1.4338 
G01 X-0.6427 Y1.4296 
G01 X-0.6374 Y1.4243 
G01 X-0.6353 Y1.4211 
G01 X-0.4472 Y1.4211 
G01 X-0.4419 Y1.4197 
G01 X-0.4370 Y1.4169 
G01 X-0.4331 Y1.4129 
G01 X-0.4303 Y1.4081 
G01 X-0.4289 Y1.4028 
G01 X-0.4289 Y1.3972 
G01 X-0.4289 Y1.3211 
G01 X-0.3191 Y1.3211 
G01 X-0.3161 Y1.3256 
G01 X-0.3106 Y1.3311 
G01 X-0.3040 Y1.3355 
G01 X-0.2967 Y1.3386 
G01 X-0.2889 Y1.3401 
G01 X-0.2110 Y1.3401 
G01 X-0.2033 Y1.3386 
G01 X-0.1960 Y1.3355 
G01 X-0.1894 Y1.3311 
G01 X-0.1839 Y1.3256 
G01 X-0.1795 Y1.3190 
G01 X-0.1764 Y1.3117 
G01 X-0.1749 Y1.3039 
G01 X-0.1749 Y1.2960 
G01 X-0.1764 Y1.2883 
G01 X-0.1795 Y1.2810 
G01 X-0.1839 Y1.2744 
G01 X-0.1894 Y1.2689 
G01 X-0.1960 Y1.2645 
G01 X-0.2033 Y1.2614 
G01 X-0.2110 Y1.2599 
G00 Z0.0200 
G00 X-2.8051 Y1.2772 
G01 Z-0.0100 F10.00 
G01 X-2.8051 Y1.3228 
G01 X-2.7728 Y1.3551 
G01 X-2.7272 Y1.3551 
G01 X-2.6949 Y1.3228 
G01 X-2.6949 Y1.3211 
G01 X-2.6711 Y1.3211 
G01 X-2.6711 Y1.3853 
G01 X-2.6743 Y1.3874 
G01 X-2.6796 Y1.3927 
G01 X-2.6838 Y1.3990 
G01 X-2.6866 Y1.4059 
G01 X-2.6881 Y1.4132 
G01 X-2.6881 Y1.4868 
G01 X-2.6866 Y1.4941 
G01 X-2.6838 Y1.5010 
G01 X-2.6796 Y1.5073 
G01 X-2.6743 Y1.5126 
G01 X-2.6680 Y1.5168 
G01 X-2.6611 Y1.5196 
G01 X-2.6597 Y1.5199 
G01 X-2.7403 Y1.5199 
G01 X-2.7389 Y1.5196 
G01 X-2.7320 Y1.5168 
G01 X-2.7257 Y1.5126 
G01 X-2.7204 Y1.5073 
G01 X-2.7162 Y1.5010 
G01 X-2.7134 Y1.4941 
G01 X-2.7119 Y1.4868 
G01 X-2.7119 Y1.4132 
G01 X-2.7134 Y1.4059 
G01 X-2.7162 Y1.3990 
G01 X-2.7204 Y1.3927 
G01 X-2.7257 Y1.3874 
G01 X-2.7320 Y1.3832 
G01 X-2.7389 Y1.3804 
G01 X-2.7462 Y1.3789 
G01 X-2.7538 Y1.3789 
G01 X-2.7611 Y1.3804 
G01 X-2.7680 Y1.3832 
G01 X-2.7743 Y1.3874 
G01 X-2.7796 Y1.3927 
G01 X-2.7838 Y1.3990 
G01 X-2.7866 Y1.4059 
G01 X-2.7881 Y1.4132 
G01 X-2.7881 Y1.4289 
G01 X-2.9149 Y1.4289 
G01 X-2.9149 Y1.3665 
G01 X-2.9163 Y1.3598 
G01 X-2.9189 Y1.3534 
G01 X-2.9227 Y1.3476 
G01 X-2.9276 Y1.3427 
G01 X-2.9334 Y1.3389 
G01 X-2.9398 Y1.3363 
G01 X-2.9465 Y1.3349 
G01 X-2.9535 Y1.3349 
G01 X-2.9602 Y1.3363 
G01 X-2.9666 Y1.3389 
G01 X-2.9724 Y1.3427 
G01 X-2.9773 Y1.3476 
G01 X-2.9811 Y1.3534 
G01 X-2.9837 Y1.3598 
G01 X-2.9851 Y1.3665 
G01 X-2.9851 Y1.4335 
G01 X-2.9837 Y1.4402 
G01 X-2.9811 Y1.4466 
G01 X-2.9801 Y1.4481 
G01 X-2.9801 Y1.6030 
G01 X-2.9789 Y1.6088 
G01 X-2.9767 Y1.6143 
G01 X-2.9734 Y1.6192 
G01 X-2.9692 Y1.6234 
G01 X-2.9643 Y1.6267 
G01 X-2.9588 Y1.6289 
G01 X-2.9530 Y1.6301 
G01 X-2.9478 Y1.6301 
G01 X-2.9228 Y1.6551 
G01 X-2.8772 Y1.6551 
G01 X-2.8449 Y1.6228 
G01 X-2.8449 Y1.5772 
G01 X-2.8772 Y1.5449 
G01 X-2.9199 Y1.5449 
G01 X-2.9199 Y1.4711 
G01 X-2.7881 Y1.4711 
G01 X-2.7881 Y1.4868 
G01 X-2.7866 Y1.4941 
G01 X-2.7838 Y1.5010 
G01 X-2.7796 Y1.5073 
G01 X-2.7743 Y1.5126 
G01 X-2.7680 Y1.5168 
G01 X-2.7611 Y1.5196 
G01 X-2.7563 Y1.5206 
G01 X-2.7588 Y1.5211 
G01 X-2.7643 Y1.5233 
G01 X-2.7692 Y1.5266 
G01 X-2.7734 Y1.5308 
G01 X-2.7767 Y1.5357 
G01 X-2.7789 Y1.5412 
G01 X-2.7801 Y1.5470 
G01 X-2.7801 Y1.9191 
G01 X-2.7841 Y1.9199 
G01 X-2.8470 Y1.9199 
G01 X-2.8530 Y1.9199 
G01 X-2.8588 Y1.9211 
G01 X-2.8643 Y1.9233 
G01 X-2.8692 Y1.9266 
G01 X-2.8734 Y1.9308 
G01 X-2.8767 Y1.9357 
G01 X-2.8789 Y1.9412 
G01 X-2.8801 Y1.9470 
G01 X-2.8801 Y2.8970 
G01 X-2.8801 Y2.9030 
G01 X-2.8789 Y2.9088 
G01 X-2.8767 Y2.9143 
G01 X-2.8734 Y2.9192 
G01 X-2.8692 Y2.9234 
G01 X-2.8643 Y2.9267 
G01 X-2.8588 Y2.9289 
G01 X-2.8530 Y2.9301 
G01 X-2.3301 Y2.9301 
G01 X-2.3301 Y2.9376 
G01 X-2.3289 Y2.9434 
G01 X-2.3267 Y2.9489 
G01 X-2.3234 Y2.9538 
G01 X-2.3192 Y2.9580 
G01 X-2.3143 Y2.9613 
G01 X-2.3088 Y2.9635 
G01 X-2.3030 Y2.9647 
G01 X-2.2970 Y2.9647 
G01 X0.0566 Y2.9647 
G01 X0.0566 Y2.9647 
G01 X0.0624 Y2.9635 
G01 X0.0679 Y2.9613 
G01 X0.0708 Y2.9593 
G01 X0.0728 Y2.9580 
G01 X0.0770 Y2.9538 
G01 X0.0803 Y2.9489 
G01 X0.0803 Y2.9489 
G01 X0.0803 Y2.9489 
G01 X0.0825 Y2.9434 
G01 X0.0831 Y2.9405 
G01 X0.0837 Y2.9376 
G01 X0.0837 Y2.9316 
G01 X0.0837 Y2.9316 
G01 X0.0825 Y2.9258 
G01 X0.0803 Y2.9203 
G01 X0.0783 Y2.9174 
G01 X0.0770 Y2.9154 
G01 X0.0728 Y2.9112 
G01 X0.0728 Y2.9112 
G01 X0.0717 Y2.9101 
G01 X0.0588 Y2.8878 
G01 X0.0521 Y2.8629 
G01 X0.0521 Y2.8371 
G01 X0.0523 Y2.8365 
G01 X0.0527 Y2.8355 
G01 X0.0530 Y2.8336 
G01 X0.0536 Y2.8317 
G01 X0.0536 Y2.8307 
G01 X0.0538 Y2.8297 
G01 X0.0538 Y2.8277 
G01 X0.0539 Y2.8258 
G01 X0.0538 Y2.8248 
G01 X0.0538 Y2.8238 
G01 X0.0534 Y2.8219 
G01 X0.0532 Y2.8199 
G01 X0.0528 Y2.8190 
G01 X0.0527 Y2.8180 
G01 X0.0519 Y2.8161 
G01 X0.0513 Y2.8143 
G01 X0.0508 Y2.8134 
G01 X0.0504 Y2.8125 
G01 X0.0493 Y2.8109 
G01 X0.0483 Y2.8091 
G01 X0.0476 Y2.8084 
G01 X0.0471 Y2.8076 
G01 X0.0457 Y2.8062 
G01 X0.0444 Y2.8047 
G01 X0.0436 Y2.8041 
G01 X0.0429 Y2.8034 
G01 X0.0412 Y2.8023 
G01 X0.0397 Y2.8011 
G01 X0.0388 Y2.8006 
G01 X0.0380 Y2.8001 
G01 X0.0361 Y2.7993 
G01 X0.0344 Y2.7985 
G01 X0.0334 Y2.7982 
G01 X0.0325 Y2.7978 
G01 X0.0306 Y2.7974 
G01 X0.0287 Y2.7969 
G01 X0.0277 Y2.7969 
G01 X0.0267 Y2.7967 
G01 X0.0247 Y2.7967 
G01 X0.0227 Y2.7965 
G01 X0.0217 Y2.7967 
G01 X0.0207 Y2.7967 
G01 X0.0188 Y2.7971 
G01 X0.0169 Y2.7973 
G01 X0.0159 Y2.7976 
G01 X0.0149 Y2.7978 
G01 X0.0131 Y2.7986 
G01 X0.0112 Y2.7992 
G01 X0.0104 Y2.7997 
G01 X0.0099 Y2.7999 
G01 X-0.1970 Y2.7999 
G01 X-0.1971 Y2.7999 
G01 X-0.2000 Y2.7999 
G01 X-0.2029 Y2.7999 
G01 X-0.2030 Y2.7999 
G01 X-0.2030 Y2.7999 
G01 X-0.2058 Y2.8005 
G01 X-0.2088 Y2.8011 
G01 X-0.2088 Y2.8011 
G01 X-0.2088 Y2.8011 
G01 X-0.2114 Y2.8021 
G01 X-0.2142 Y2.8033 
G01 X-0.2143 Y2.8033 
G01 X-0.2143 Y2.8033 
G01 X-0.2161 Y2.8046 
G01 X-0.2177 Y2.8057 
G01 X-0.2435 Y2.8163 
G01 X-0.3565 Y2.8163 
G01 X-0.3815 Y2.8060 
G01 X-0.3824 Y2.8050 
G01 X-0.3873 Y2.8018 
G01 X-0.3928 Y2.7995 
G01 X-0.3986 Y2.7983 
G01 X-0.4046 Y2.7983 
G01 X-0.5370 Y2.7983 
G01 X-0.5479 Y2.7983 
G01 X-0.5499 Y2.7982 
G01 X-0.5509 Y2.7983 
G01 X-0.5519 Y2.7983 
G01 X-0.5538 Y2.7987 
G01 X-0.5558 Y2.7990 
G01 X-0.5567 Y2.7993 
G01 X-0.5577 Y2.7995 
G01 X-0.5595 Y2.8002 
G01 X-0.5614 Y2.8009 
G01 X-0.5623 Y2.8014 
G01 X-0.5632 Y2.8018 
G01 X-0.5648 Y2.8029 
G01 X-0.5665 Y2.8038 
G01 X-0.5673 Y2.8045 
G01 X-0.5681 Y2.8050 
G01 X-0.5695 Y2.8065 
G01 X-0.5710 Y2.8078 
G01 X-0.5716 Y2.8085 
G01 X-0.5723 Y2.8092 
G01 X-0.5734 Y2.8109 
G01 X-0.5746 Y2.8125 
G01 X-0.5750 Y2.8134 
G01 X-0.5756 Y2.8142 
G01 X-0.5763 Y2.8160 
G01 X-0.5772 Y2.8178 
G01 X-0.5775 Y2.8188 
G01 X-0.5778 Y2.8196 
G01 X-0.5782 Y2.8216 
G01 X-0.5802 Y2.8289 
G01 X-0.5901 Y2.8460 
G01 X-0.6040 Y2.8599 
G01 X-0.6211 Y2.8698 
G01 X-0.6401 Y2.8749 
G01 X-0.6599 Y2.8749 
G01 X-0.6789 Y2.8698 
G01 X-0.6960 Y2.8599 
G01 X-0.7099 Y2.8460 
G01 X-0.7198 Y2.8289 
G01 X-0.7249 Y2.8099 
G01 X-0.7249 Y2.7901 
G01 X-0.7198 Y2.7711 
G01 X-0.7099 Y2.7540 
G01 X-0.7059 Y2.7500 
G01 X-0.7026 Y2.7451 
G01 X-0.7026 Y2.7450 
G01 X-0.7026 Y2.7450 
G01 X-0.6923 Y2.7201 
G01 X-0.6783 Y2.7061 
G01 X-0.6599 Y2.6985 
G01 X-0.6311 Y2.6985 
G01 X-0.6270 Y2.6985 
G01 X-0.6212 Y2.6974 
G01 X-0.6157 Y2.6951 
G01 X-0.6108 Y2.6918 
G01 X-0.6066 Y2.6876 
G01 X-0.6033 Y2.6827 
G01 X-0.6011 Y2.6772 
G01 X-0.5999 Y2.6714 
G01 X-0.5999 Y2.6655 
G01 X-0.5999 Y2.6470 
G01 X-0.6011 Y2.6412 
G01 X-0.6033 Y2.6357 
G01 X-0.6066 Y2.6308 
G01 X-0.6108 Y2.6266 
G01 X-0.6157 Y2.6233 
G01 X-0.6212 Y2.6211 
G01 X-0.6270 Y2.6199 
G01 X-0.6330 Y2.6199 
G01 X-0.6845 Y2.6199 
G01 X-0.6845 Y2.6199 
G01 X-0.6891 Y2.6208 
G01 X-0.6903 Y2.6211 
G01 X-0.6903 Y2.6211 
G01 X-0.6903 Y2.6211 
G01 X-0.6938 Y2.6225 
G01 X-0.6958 Y2.6233 
G01 X-0.6958 Y2.6233 
G01 X-0.6958 Y2.6233 
G01 X-0.6977 Y2.6246 
G01 X-0.7007 Y2.6266 
G01 X-0.7040 Y2.6299 
G01 X-0.7211 Y2.6398 
G01 X-0.7401 Y2.6449 
G01 X-0.7599 Y2.6449 
G01 X-0.7789 Y2.6398 
G01 X-0.7960 Y2.6299 
G01 X-0.8099 Y2.6160 
G01 X-0.8198 Y2.5989 
G01 X-0.8249 Y2.5799 
G01 X-0.8249 Y2.5601 
G01 X-0.8198 Y2.5411 
G01 X-0.8099 Y2.5240 
G01 X-0.7953 Y2.5094 
G01 X-0.7951 Y2.5093 
G01 X-0.7939 Y2.5081 
G01 X-0.7927 Y2.5070 
G01 X-0.7919 Y2.5060 
G01 X-0.7909 Y2.5051 
G01 X-0.7900 Y2.5037 
G01 X-0.7890 Y2.5024 
G01 X-0.7884 Y2.5012 
G01 X-0.7876 Y2.5001 
G01 X-0.7870 Y2.4986 
G01 X-0.7862 Y2.4971 
G01 X-0.7859 Y2.4959 
G01 X-0.7854 Y2.4947 
G01 X-0.7851 Y2.4930 
G01 X-0.7846 Y2.4914 
G01 X-0.7845 Y2.4901 
G01 X-0.7842 Y2.4889 
G01 X-0.7842 Y2.4872 
G01 X-0.7841 Y2.4855 
G01 X-0.7842 Y2.4842 
G01 X-0.7842 Y2.4829 
G01 X-0.7845 Y2.4813 
G01 X-0.7847 Y2.4796 
G01 X-0.7851 Y2.4784 
G01 X-0.7854 Y2.4771 
G01 X-0.7860 Y2.4756 
G01 X-0.7865 Y2.4740 
G01 X-0.7872 Y2.4728 
G01 X-0.7876 Y2.4716 
G01 X-0.7886 Y2.4703 
G01 X-0.7894 Y2.4688 
G01 X-0.7902 Y2.4678 
G01 X-0.7904 Y2.4675 
G01 X-0.7728 Y2.4851 
G01 X-0.7272 Y2.4851 
G01 X-0.7096 Y2.4675 
G01 X-0.7098 Y2.4678 
G01 X-0.7106 Y2.4688 
G01 X-0.7114 Y2.4703 
G01 X-0.7124 Y2.4716 
G01 X-0.7128 Y2.4728 
G01 X-0.7135 Y2.4740 
G01 X-0.7140 Y2.4756 
G01 X-0.7146 Y2.4771 
G01 X-0.7149 Y2.4784 
G01 X-0.7153 Y2.4796 
G01 X-0.7154 Y2.4813 
G01 X-0.7158 Y2.4829 
G01 X-0.7158 Y2.4842 
G01 X-0.7159 Y2.4855 
G01 X-0.7158 Y2.4872 
G01 X-0.7158 Y2.4889 
G01 X-0.7155 Y2.4901 
G01 X-0.7154 Y2.4914 
G01 X-0.7149 Y2.4930 
G01 X-0.7146 Y2.4947 
G01 X-0.7141 Y2.4959 
G01 X-0.7138 Y2.4971 
G01 X-0.7130 Y2.4986 
G01 X-0.7124 Y2.5001 
G01 X-0.7116 Y2.5012 
G01 X-0.7110 Y2.5024 
G01 X-0.7100 Y2.5037 
G01 X-0.7091 Y2.5051 
G01 X-0.7081 Y2.5060 
G01 X-0.7073 Y2.5070 
G01 X-0.7061 Y2.5081 
G01 X-0.7049 Y2.5093 
G01 X-0.7047 Y2.5094 
G01 X-0.7008 Y2.5133 
G01 X-0.7007 Y2.5134 
G01 X-0.7007 Y2.5134 
G01 X-0.6978 Y2.5153 
G01 X-0.6958 Y2.5167 
G01 X-0.6958 Y2.5167 
G01 X-0.6958 Y2.5167 
G01 X-0.6940 Y2.5174 
G01 X-0.6903 Y2.5189 
G01 X-0.6903 Y2.5189 
G01 X-0.6903 Y2.5189 
G01 X-0.6892 Y2.5191 
G01 X-0.6845 Y2.5201 
G01 X-0.6786 Y2.5201 
G01 X-0.5629 Y2.5201 
G01 X-0.5401 Y2.5201 
G01 X-0.5217 Y2.5277 
G01 X-0.5077 Y2.5417 
G01 X-0.5001 Y2.5601 
G01 X-0.5001 Y2.6714 
G01 X-0.4989 Y2.6772 
G01 X-0.4967 Y2.6827 
G01 X-0.4934 Y2.6876 
G01 X-0.4892 Y2.6918 
G01 X-0.4843 Y2.6951 
G01 X-0.4788 Y2.6974 
G01 X-0.4730 Y2.6985 
G01 X-0.4670 Y2.6985 
G01 X-0.3986 Y2.6985 
G01 X-0.3928 Y2.6974 
G01 X-0.3873 Y2.6951 
G01 X-0.3824 Y2.6918 
G01 X-0.3815 Y2.6908 
G01 X-0.3565 Y2.6805 
G01 X-0.2435 Y2.6805 
G01 X-0.2185 Y2.6908 
G01 X-0.2160 Y2.6934 
G01 X-0.2111 Y2.6967 
G01 X-0.2056 Y2.6989 
G01 X-0.2056 Y2.6989 
G01 X-0.2056 Y2.6989 
G01 X-0.2033 Y2.6994 
G01 X-0.1998 Y2.7001 
G01 X-0.1939 Y2.7001 
G01 X-0.0770 Y2.7001 
G01 X-0.0712 Y2.6989 
G01 X-0.0657 Y2.6967 
G01 X-0.0608 Y2.6934 
G01 X-0.0566 Y2.6892 
G01 X-0.0533 Y2.6843 
G01 X-0.0511 Y2.6788 
G01 X-0.0499 Y2.6730 
G01 X-0.0499 Y2.6670 
G01 X-0.0499 Y1.8136 
G01 X-0.0499 Y1.8135 
G01 X-0.0511 Y1.8077 
G01 X-0.0533 Y1.8023 
G01 X-0.0555 Y1.7990 
G01 X-0.0566 Y1.7973 
G01 X-0.0608 Y1.7931 
G01 X-0.0608 Y1.7931 
G01 X-0.0657 Y1.7898 
G01 X-0.0699 Y1.7881 
G01 X-0.0699 Y1.6119 
G01 X-0.0657 Y1.6101 
G01 X-0.0608 Y1.6069 
G01 X-0.0566 Y1.6027 
G01 X-0.0566 Y1.6027 
G01 X-0.0556 Y1.6011 
G01 X-0.0533 Y1.5977 
G01 X-0.0511 Y1.5923 
G01 X-0.0499 Y1.5864 
G01 X-0.0499 Y1.5805 
G01 X-0.0499 Y1.0770 
G01 X-0.0511 Y1.0712 
G01 X-0.0533 Y1.0657 
G01 X-0.0566 Y1.0608 
G01 X-0.0608 Y1.0566 
G01 X-0.0657 Y1.0533 
G01 X-0.0712 Y1.0511 
G01 X-0.0770 Y1.0499 
G01 X-0.0830 Y1.0499 
G01 X-2.3030 Y1.0499 
G01 X-2.3088 Y1.0511 
G01 X-2.3143 Y1.0533 
G01 X-2.3192 Y1.0566 
G01 X-2.3234 Y1.0608 
G01 X-2.3267 Y1.0657 
G01 X-2.3284 Y1.0699 
G01 X-3.4030 Y1.0699 
G01 X-3.4088 Y1.0711 
G01 X-3.4143 Y1.0733 
G01 X-3.4192 Y1.0766 
G01 X-3.4234 Y1.0808 
G01 X-3.4267 Y1.0857 
G01 X-3.4289 Y1.0912 
G01 X-3.4301 Y1.0970 
G01 X-3.4301 Y1.1030 
G01 X-3.4301 Y1.1117 
G01 X-3.4318 Y1.1104 
G01 X-3.4385 Y1.1070 
G01 X-3.4457 Y1.1047 
G01 X-3.4532 Y1.1035 
G01 X-3.5468 Y1.1035 
G01 X-3.5543 Y1.1047 
G01 X-3.5615 Y1.1070 
G01 X-3.5682 Y1.1104 
G01 X-3.5743 Y1.1149 
G01 X-3.5797 Y1.1202 
G01 X-3.5841 Y1.1264 
G01 X-3.5876 Y1.1331 
G01 X-3.5899 Y1.1403 
G01 X-3.5911 Y1.1478 
G01 X-3.5911 Y1.1554 
G01 X-3.5899 Y1.1628 
G01 X-3.5876 Y1.1700 
G01 X-3.5841 Y1.1768 
G01 X-3.5797 Y1.1829 
G01 X-3.5743 Y1.1883 
G01 X-3.5682 Y1.1927 
G01 X-3.5615 Y1.1961 
G01 X-3.5543 Y1.1985 
G01 X-3.5468 Y1.1997 
G01 X-3.4532 Y1.1997 
G01 X-3.4457 Y1.1985 
G01 X-3.4385 Y1.1961 
G01 X-3.4318 Y1.1927 
G01 X-3.4257 Y1.1883 
G01 X-3.4203 Y1.1829 
G01 X-3.4194 Y1.1817 
G01 X-3.3970 Y1.1817 
G01 X-3.3912 Y1.1805 
G01 X-3.3857 Y1.1782 
G01 X-3.3808 Y1.1749 
G01 X-3.3766 Y1.1708 
G01 X-3.3733 Y1.1658 
G01 X-3.3711 Y1.1604 
G01 X-3.3699 Y1.1545 
G01 X-3.3699 Y1.1486 
G01 X-3.3699 Y1.1486 
G01 X-3.3699 Y1.1301 
G01 X-2.3301 Y1.1301 
G01 X-2.3301 Y1.1820 
G01 X-2.3289 Y1.1878 
G01 X-2.3267 Y1.1933 
G01 X-2.3234 Y1.1982 
G01 X-2.3192 Y1.2024 
G01 X-2.3143 Y1.2057 
G01 X-2.3088 Y1.2079 
G01 X-2.3030 Y1.2091 
G01 X-2.2970 Y1.2091 
G01 X-2.2335 Y1.2091 
G01 X-2.2277 Y1.2079 
G01 X-2.2222 Y1.2057 
G01 X-2.2173 Y1.2024 
G01 X-2.2158 Y1.2009 
G01 X-2.1945 Y1.1921 
G01 X-2.1055 Y1.1921 
G01 X-2.0842 Y1.2009 
G01 X-2.0801 Y1.2050 
G01 X-2.0801 Y1.2403 
G01 X-2.0804 Y1.2389 
G01 X-2.0832 Y1.2320 
G01 X-2.0874 Y1.2257 
G01 X-2.0927 Y1.2204 
G01 X-2.0990 Y1.2162 
G01 X-2.1059 Y1.2134 
G01 X-2.1132 Y1.2119 
G01 X-2.1868 Y1.2119 
G01 X-2.1941 Y1.2134 
G01 X-2.2010 Y1.2162 
G01 X-2.2073 Y1.2204 
G01 X-2.2126 Y1.2257 
G01 X-2.2147 Y1.2289 
G01 X-2.4472 Y1.2289 
G01 X-2.4528 Y1.2289 
G01 X-2.4581 Y1.2303 
G01 X-2.4629 Y1.2331 
G01 X-2.4669 Y1.2370 
G01 X-2.4697 Y1.2419 
G01 X-2.4705 Y1.2449 
G01 X-2.4728 Y1.2449 
G01 X-2.5051 Y1.2772 
G01 X-2.5051 Y1.3228 
G01 X-2.4728 Y1.3551 
G01 X-2.4272 Y1.3551 
G01 X-2.3949 Y1.3228 
G01 X-2.3949 Y1.2772 
G01 X-2.4010 Y1.2711 
G01 X-2.2147 Y1.2711 
G01 X-2.2126 Y1.2743 
G01 X-2.2073 Y1.2796 
G01 X-2.2010 Y1.2838 
G01 X-2.1941 Y1.2866 
G01 X-2.1868 Y1.2881 
G01 X-2.1132 Y1.2881 
G01 X-2.1059 Y1.2866 
G01 X-2.0990 Y1.2838 
G01 X-2.0927 Y1.2796 
G01 X-2.0874 Y1.2743 
G01 X-2.0832 Y1.2680 
G01 X-2.0804 Y1.2611 
G01 X-2.0801 Y1.2597 
G01 X-2.0801 Y1.3403 
G01 X-2.0804 Y1.3389 
G01 X-2.0832 Y1.3320 
G01 X-2.0874 Y1.3257 
G01 X-2.0927 Y1.3204 
G01 X-2.0990 Y1.3162 
G01 X-2.1059 Y1.3134 
G01 X-2.1132 Y1.3119 
G01 X-2.1868 Y1.3119 
G01 X-2.1941 Y1.3134 
G01 X-2.2010 Y1.3162 
G01 X-2.2073 Y1.3204 
G01 X-2.2126 Y1.3257 
G01 X-2.2147 Y1.3289 
G01 X-2.2528 Y1.3289 
G01 X-2.2581 Y1.3303 
G01 X-2.2629 Y1.3331 
G01 X-2.2669 Y1.3370 
G01 X-2.2697 Y1.3419 
G01 X-2.2711 Y1.3472 
G01 X-2.2711 Y1.3528 
G01 X-2.2711 Y1.3789 
G01 X-2.4028 Y1.3789 
G01 X-2.4081 Y1.3803 
G01 X-2.4129 Y1.3831 
G01 X-2.4169 Y1.3870 
G01 X-2.4197 Y1.3919 
G01 X-2.4211 Y1.3972 
G01 X-2.4211 Y1.4028 
G01 X-2.4211 Y1.8289 
G01 X-2.6528 Y1.8289 
G01 X-2.6581 Y1.8303 
G01 X-2.6629 Y1.8331 
G01 X-2.6669 Y1.8370 
G01 X-2.6697 Y1.8419 
G01 X-2.6711 Y1.8472 
G01 X-2.6711 Y1.8528 
G01 X-2.6711 Y2.0289 
G01 X-2.7011 Y2.0289 
G01 X-2.7042 Y2.0258 
G01 X-2.7093 Y2.0224 
G01 X-2.7149 Y2.0201 
G01 X-2.7209 Y2.0189 
G01 X-2.7791 Y2.0189 
G01 X-2.7851 Y2.0201 
G01 X-2.7907 Y2.0224 
G01 X-2.7958 Y2.0258 
G01 X-2.8001 Y2.0302 
G01 X-2.8036 Y2.0353 
G01 X-2.8059 Y2.0409 
G01 X-2.8071 Y2.0469 
G01 X-2.8071 Y2.0531 
G01 X-2.8059 Y2.0591 
G01 X-2.8036 Y2.0647 
G01 X-2.8001 Y2.0698 
G01 X-2.7958 Y2.0741 
G01 X-2.7907 Y2.0776 
G01 X-2.7851 Y2.0799 
G01 X-2.7791 Y2.0811 
G01 X-2.7209 Y2.0811 
G01 X-2.7149 Y2.0799 
G01 X-2.7093 Y2.0776 
G01 X-2.7042 Y2.0741 
G01 X-2.7011 Y2.0711 
G01 X-2.6528 Y2.0711 
G01 X-2.6472 Y2.0711 
G01 X-2.6419 Y2.0697 
G01 X-2.6370 Y2.0669 
G01 X-2.6331 Y2.0629 
G01 X-2.6303 Y2.0581 
G01 X-2.6289 Y2.0528 
G01 X-2.6289 Y1.8711 
G01 X-2.4028 Y1.8711 
G01 X-2.3972 Y1.8711 
G01 X-2.3919 Y1.8697 
G01 X-2.3870 Y1.8669 
G01 X-2.3831 Y1.8629 
G01 X-2.3803 Y1.8581 
G01 X-2.3789 Y1.8528 
G01 X-2.3789 Y1.4211 
G01 X-2.2528 Y1.4211 
G01 X-2.2472 Y1.4211 
G01 X-2.2419 Y1.4197 
G01 X-2.2370 Y1.4169 
G01 X-2.2331 Y1.4129 
G01 X-2.2303 Y1.4081 
G01 X-2.2289 Y1.4028 
G01 X-2.2289 Y1.3711 
G01 X-2.2147 Y1.3711 
G01 X-2.2126 Y1.3743 
G01 X-2.2073 Y1.3796 
G01 X-2.2010 Y1.3838 
G01 X-2.1941 Y1.3866 
G01 X-2.1868 Y1.3881 
G01 X-2.1132 Y1.3881 
G01 X-2.1059 Y1.3866 
G01 X-2.0990 Y1.3838 
G01 X-2.0927 Y1.3796 
G01 X-2.0874 Y1.3743 
G01 X-2.0832 Y1.3680 
G01 X-2.0804 Y1.3611 
G01 X-2.0801 Y1.3597 
G01 X-2.0801 Y1.4403 
G01 X-2.0804 Y1.4389 
G01 X-2.0832 Y1.4320 
G01 X-2.0874 Y1.4257 
G01 X-2.0927 Y1.4204 
G01 X-2.0990 Y1.4162 
G01 X-2.1059 Y1.4134 
G01 X-2.1132 Y1.4119 
G01 X-2.1868 Y1.4119 
G01 X-2.1941 Y1.4134 
G01 X-2.2010 Y1.4162 
G01 X-2.2073 Y1.4204 
G01 X-2.2126 Y1.4257 
G01 X-2.2147 Y1.4289 
G01 X-2.3472 Y1.4289 
G01 X-2.3528 Y1.4289 
G01 X-2.3581 Y1.4303 
G01 X-2.3629 Y1.4331 
G01 X-2.3669 Y1.4370 
G01 X-2.3697 Y1.4419 
G01 X-2.3711 Y1.4472 
G01 X-2.3711 Y1.8789 
G01 X-2.5972 Y1.8789 
G01 X-2.6028 Y1.8789 
G01 X-2.6081 Y1.8803 
G01 X-2.6129 Y1.8831 
G01 X-2.6169 Y1.8870 
G01 X-2.6197 Y1.8919 
G01 X-2.6211 Y1.8972 
G01 X-2.6211 Y2.1289 
G01 X-2.7011 Y2.1289 
G01 X-2.7042 Y2.1258 
G01 X-2.7093 Y2.1224 
G01 X-2.7149 Y2.1201 
G01 X-2.7209 Y2.1189 
G01 X-2.7791 Y2.1189 
G01 X-2.7851 Y2.1201 
G01 X-2.7907 Y2.1224 
G01 X-2.7958 Y2.1258 
G01 X-2.8001 Y2.1302 
G01 X-2.8036 Y2.1353 
G01 X-2.8059 Y2.1409 
G01 X-2.8071 Y2.1469 
G01 X-2.8071 Y2.1531 
G01 X-2.8059 Y2.1591 
G01 X-2.8036 Y2.1647 
G01 X-2.8001 Y2.1698 
G01 X-2.7958 Y2.1741 
G01 X-2.7907 Y2.1776 
G01 X-2.7851 Y2.1799 
G01 X-2.7791 Y2.1811 
G01 X-2.7209 Y2.1811 
G01 X-2.7149 Y2.1799 
G01 X-2.7093 Y2.1776 
G01 X-2.7042 Y2.1741 
G01 X-2.7011 Y2.1711 
G01 X-2.5972 Y2.1711 
G01 X-2.5919 Y2.1697 
G01 X-2.5870 Y2.1669 
G01 X-2.5831 Y2.1629 
G01 X-2.5803 Y2.1581 
G01 X-2.5789 Y2.1528 
G01 X-2.5789 Y2.1472 
G01 X-2.5789 Y1.9211 
G01 X-2.3472 Y1.9211 
G01 X-2.3419 Y1.9197 
G01 X-2.3370 Y1.9169 
G01 X-2.3331 Y1.9129 
G01 X-2.3303 Y1.9081 
G01 X-2.3289 Y1.9028 
G01 X-2.3289 Y1.8972 
G01 X-2.3289 Y1.4711 
G01 X-2.2147 Y1.4711 
G01 X-2.2126 Y1.4743 
G01 X-2.2073 Y1.4796 
G01 X-2.2010 Y1.4838 
G01 X-2.1941 Y1.4866 
G01 X-2.1868 Y1.4881 
G01 X-2.1132 Y1.4881 
G01 X-2.1059 Y1.4866 
G01 X-2.0990 Y1.4838 
G01 X-2.0927 Y1.4796 
G01 X-2.0874 Y1.4743 
G01 X-2.0832 Y1.4680 
G01 X-2.0804 Y1.4611 
G01 X-2.0801 Y1.4597 
G01 X-2.0801 Y1.5403 
G01 X-2.0804 Y1.5389 
G01 X-2.0832 Y1.5320 
G01 X-2.0874 Y1.5257 
G01 X-2.0927 Y1.5204 
G01 X-2.0990 Y1.5162 
G01 X-2.1059 Y1.5134 
G01 X-2.1132 Y1.5119 
G01 X-2.1868 Y1.5119 
G01 X-2.1941 Y1.5134 
G01 X-2.2010 Y1.5162 
G01 X-2.2073 Y1.5204 
G01 X-2.2126 Y1.5257 
G01 X-2.2147 Y1.5289 
G01 X-2.3028 Y1.5289 
G01 X-2.3081 Y1.5303 
G01 X-2.3129 Y1.5331 
G01 X-2.3169 Y1.5370 
G01 X-2.3197 Y1.5419 
G01 X-2.3211 Y1.5472 
G01 X-2.3211 Y1.5528 
G01 X-2.3211 Y1.9289 
G01 X-2.5528 Y1.9289 
G01 X-2.5581 Y1.9303 
G01 X-2.5629 Y1.9331 
G01 X-2.5669 Y1.9370 
G01 X-2.5697 Y1.9419 
G01 X-2.5711 Y1.9472 
G01 X-2.5711 Y1.9528 
G01 X-2.5711 Y2.2289 
G01 X-2.7011 Y2.2289 
G01 X-2.7042 Y2.2258 
G01 X-2.7093 Y2.2224 
G01 X-2.7149 Y2.2201 
G01 X-2.7209 Y2.2189 
G01 X-2.7791 Y2.2189 
G01 X-2.7851 Y2.2201 
G01 X-2.7907 Y2.2224 
G01 X-2.7958 Y2.2258 
G01 X-2.8001 Y2.2302 
G01 X-2.8036 Y2.2353 
G01 X-2.8059 Y2.2409 
G01 X-2.8071 Y2.2469 
G01 X-2.8071 Y2.2531 
G01 X-2.8059 Y2.2591 
G01 X-2.8036 Y2.2647 
G01 X-2.8001 Y2.2698 
G01 X-2.7958 Y2.2741 
G01 X-2.7907 Y2.2776 
G01 X-2.7851 Y2.2799 
G01 X-2.7791 Y2.2811 
G01 X-2.7209 Y2.2811 
G01 X-2.7149 Y2.2799 
G01 X-2.7093 Y2.2776 
G01 X-2.7042 Y2.2741 
G01 X-2.7011 Y2.2711 
G01 X-2.5528 Y2.2711 
G01 X-2.5472 Y2.2711 
G01 X-2.5419 Y2.2697 
G01 X-2.5370 Y2.2669 
G01 X-2.5331 Y2.2629 
G01 X-2.5303 Y2.2581 
G01 X-2.5289 Y2.2528 
G01 X-2.5289 Y1.9711 
G01 X-2.3028 Y1.9711 
G01 X-2.2972 Y1.9711 
G01 X-2.2919 Y1.9697 
G01 X-2.2870 Y1.9669 
G01 X-2.2831 Y1.9629 
G01 X-2.2803 Y1.9581 
G01 X-2.2789 Y1.9528 
G01 X-2.2789 Y1.5711 
G01 X-2.2147 Y1.5711 
G01 X-2.2126 Y1.5743 
G01 X-2.2073 Y1.5796 
G01 X-2.2010 Y1.5838 
G01 X-2.1941 Y1.5866 
G01 X-2.1868 Y1.5881 
G01 X-2.1132 Y1.5881 
G01 X-2.1059 Y1.5866 
G01 X-2.0990 Y1.5838 
G01 X-2.0927 Y1.5796 
G01 X-2.0874 Y1.5743 
G01 X-2.0832 Y1.5680 
G01 X-2.0804 Y1.5611 
G01 X-2.0801 Y1.5597 
G01 X-2.0801 Y1.6403 
G01 X-2.0804 Y1.6389 
G01 X-2.0832 Y1.6320 
G01 X-2.0874 Y1.6257 
G01 X-2.0927 Y1.6204 
G01 X-2.0990 Y1.6162 
G01 X-2.1059 Y1.6134 
G01 X-2.1132 Y1.6119 
G01 X-2.1868 Y1.6119 
G01 X-2.1941 Y1.6134 
G01 X-2.2010 Y1.6162 
G01 X-2.2073 Y1.6204 
G01 X-2.2126 Y1.6257 
G01 X-2.2147 Y1.6289 
G01 X-2.2528 Y1.6289 
G01 X-2.2581 Y1.6303 
G01 X-2.2629 Y1.6331 
G01 X-2.2669 Y1.6370 
G01 X-2.2697 Y1.6419 
G01 X-2.2711 Y1.6472 
G01 X-2.2711 Y1.6528 
G01 X-2.2711 Y1.9789 
G01 X-2.5028 Y1.9789 
G01 X-2.5081 Y1.9803 
G01 X-2.5129 Y1.9831 
G01 X-2.5169 Y1.9870 
G01 X-2.5197 Y1.9919 
G01 X-2.5211 Y1.9972 
G01 X-2.5211 Y2.0028 
G01 X-2.5211 Y2.3289 
G01 X-2.7011 Y2.3289 
G01 X-2.7042 Y2.3258 
G01 X-2.7093 Y2.3224 
G01 X-2.7149 Y2.3201 
G01 X-2.7209 Y2.3189 
G01 X-2.7791 Y2.3189 
G01 X-2.7851 Y2.3201 
G01 X-2.7907 Y2.3224 
G01 X-2.7958 Y2.3258 
G01 X-2.8001 Y2.3302 
G01 X-2.8036 Y2.3353 
G01 X-2.8059 Y2.3409 
G01 X-2.8071 Y2.3469 
G01 X-2.8071 Y2.3531 
G01 X-2.8059 Y2.3591 
G01 X-2.8036 Y2.3647 
G01 X-2.8001 Y2.3698 
G01 X-2.7958 Y2.3741 
G01 X-2.7907 Y2.3776 
G01 X-2.7851 Y2.3799 
G01 X-2.7791 Y2.3811 
G01 X-2.7209 Y2.3811 
G01 X-2.7149 Y2.3799 
G01 X-2.7093 Y2.3776 
G01 X-2.7042 Y2.3741 
G01 X-2.7011 Y2.3711 
G01 X-2.5028 Y2.3711 
G01 X-2.4972 Y2.3711 
G01 X-2.4919 Y2.3697 
G01 X-2.4870 Y2.3669 
G01 X-2.4831 Y2.3629 
G01 X-2.4803 Y2.3581 
G01 X-2.4789 Y2.3528 
G01 X-2.4789 Y2.0211 
G01 X-2.2528 Y2.0211 
G01 X-2.2472 Y2.0211 
G01 X-2.2419 Y2.0197 
G01 X-2.2370 Y2.0169 
G01 X-2.2331 Y2.0129 
G01 X-2.2303 Y2.0081 
G01 X-2.2289 Y2.0028 
G01 X-2.2289 Y1.6711 
G01 X-2.2147 Y1.6711 
G01 X-2.2126 Y1.6743 
G01 X-2.2073 Y1.6796 
G01 X-2.2010 Y1.6838 
G01 X-2.1941 Y1.6866 
G01 X-2.1868 Y1.6881 
G01 X-2.1132 Y1.6881 
G01 X-2.1059 Y1.6866 
G01 X-2.0990 Y1.6838 
G01 X-2.0927 Y1.6796 
G01 X-2.0874 Y1.6743 
G01 X-2.0832 Y1.6680 
G01 X-2.0804 Y1.6611 
G01 X-2.0801 Y1.6597 
G01 X-2.0801 Y1.7403 
G01 X-2.0804 Y1.7389 
G01 X-2.0832 Y1.7320 
G01 X-2.0874 Y1.7257 
G01 X-2.0927 Y1.7204 
G01 X-2.0990 Y1.7162 
G01 X-2.1059 Y1.7134 
G01 X-2.1132 Y1.7119 
G01 X-2.1868 Y1.7119 
G01 X-2.1941 Y1.7134 
G01 X-2.2010 Y1.7162 
G01 X-2.2073 Y1.7204 
G01 X-2.2126 Y1.7257 
G01 X-2.2168 Y1.7320 
G01 X-2.2196 Y1.7389 
G01 X-2.2211 Y1.7462 
G01 X-2.2211 Y1.7538 
G01 X-2.2196 Y1.7611 
G01 X-2.2168 Y1.7680 
G01 X-2.2126 Y1.7743 
G01 X-2.2073 Y1.7796 
G01 X-2.2010 Y1.7838 
G01 X-2.1941 Y1.7866 
G01 X-2.1868 Y1.7881 
G01 X-2.1132 Y1.7881 
G01 X-2.1059 Y1.7866 
G01 X-2.0990 Y1.7838 
G01 X-2.0927 Y1.7796 
G01 X-2.0874 Y1.7743 
G01 X-2.0832 Y1.7680 
G01 X-2.0804 Y1.7611 
G01 X-2.0801 Y1.7597 
G01 X-2.0801 Y1.8403 
G01 X-2.0804 Y1.8389 
G01 X-2.0832 Y1.8320 
G01 X-2.0874 Y1.8257 
G01 X-2.0927 Y1.8204 
G01 X-2.0990 Y1.8162 
G01 X-2.1059 Y1.8134 
G01 X-2.1132 Y1.8119 
G01 X-2.1868 Y1.8119 
G01 X-2.1941 Y1.8134 
G01 X-2.2010 Y1.8162 
G01 X-2.2073 Y1.8204 
G01 X-2.2126 Y1.8257 
G01 X-2.2168 Y1.8320 
G01 X-2.2196 Y1.8389 
G01 X-2.2211 Y1.8462 
G01 X-2.2211 Y1.8538 
G01 X-2.2196 Y1.8611 
G01 X-2.2168 Y1.8680 
G01 X-2.2126 Y1.8743 
G01 X-2.2073 Y1.8796 
G01 X-2.2010 Y1.8838 
G01 X-2.1941 Y1.8866 
G01 X-2.1868 Y1.8881 
G01 X-2.1132 Y1.8881 
G01 X-2.1059 Y1.8866 
G01 X-2.0990 Y1.8838 
G01 X-2.0927 Y1.8796 
G01 X-2.0874 Y1.8743 
G01 X-2.0832 Y1.8680 
G01 X-2.0804 Y1.8611 
G01 X-2.0801 Y1.8597 
G01 X-2.0801 Y1.8948 
G01 X-2.0804 Y1.8951 
G01 X-2.0810 Y1.8958 
G01 X-2.0816 Y1.8965 
G01 X-2.0828 Y1.8982 
G01 X-2.0840 Y1.8998 
G01 X-2.0844 Y1.9006 
G01 X-2.0849 Y1.9015 
G01 X-2.0857 Y1.9033 
G01 X-2.0866 Y1.9051 
G01 X-2.0868 Y1.9060 
G01 X-2.0872 Y1.9069 
G01 X-2.0876 Y1.9089 
G01 X-2.0881 Y1.9108 
G01 X-2.0882 Y1.9118 
G01 X-2.0884 Y1.9127 
G01 X-2.0884 Y1.9147 
G01 X-2.0885 Y1.9167 
G01 X-2.0884 Y1.9177 
G01 X-2.0884 Y1.9187 
G01 X-2.0881 Y1.9199 
G01 X-2.0935 Y1.9199 
G01 X-2.0990 Y1.9162 
G01 X-2.1059 Y1.9134 
G01 X-2.1132 Y1.9119 
G01 X-2.1868 Y1.9119 
G01 X-2.1941 Y1.9134 
G01 X-2.2010 Y1.9162 
G01 X-2.2073 Y1.9204 
G01 X-2.2126 Y1.9257 
G01 X-2.2168 Y1.9320 
G01 X-2.2196 Y1.9389 
G01 X-2.2211 Y1.9462 
G01 X-2.2211 Y1.9538 
G01 X-2.2196 Y1.9611 
G01 X-2.2168 Y1.9680 
G01 X-2.2126 Y1.9743 
G01 X-2.2073 Y1.9796 
G01 X-2.2010 Y1.9838 
G01 X-2.1941 Y1.9866 
G01 X-2.1868 Y1.9881 
G01 X-2.1132 Y1.9881 
G01 X-2.1059 Y1.9866 
G01 X-2.0990 Y1.9838 
G01 X-2.0935 Y1.9801 
G01 X-2.0881 Y1.9801 
G01 X-2.0884 Y1.9813 
G01 X-2.0884 Y1.9823 
G01 X-2.0885 Y1.9833 
G01 X-2.0884 Y1.9853 
G01 X-2.0884 Y1.9872 
G01 X-2.0882 Y1.9882 
G01 X-2.0881 Y1.9892 
G01 X-2.0876 Y1.9911 
G01 X-2.0872 Y1.9931 
G01 X-2.0868 Y1.9940 
G01 X-2.0866 Y1.9949 
G01 X-2.0857 Y1.9967 
G01 X-2.0849 Y1.9985 
G01 X-2.0844 Y1.9994 
G01 X-2.0840 Y2.0002 
G01 X-2.0828 Y2.0018 
G01 X-2.0816 Y2.0035 
G01 X-2.0810 Y2.0041 
G01 X-2.0804 Y2.0049 
G01 X-2.0789 Y2.0062 
G01 X-2.0679 Y2.0172 
G01 X-2.0567 Y2.0443 
G01 X-2.0534 Y2.0493 
G01 X-2.0533 Y2.0493 
G01 X-2.0492 Y2.0535 
G01 X-2.0463 Y2.0554 
G01 X-2.0443 Y2.0568 
G01 X-2.0388 Y2.0590 
G01 X-2.0330 Y2.0602 
G01 X-2.0270 Y2.0602 
G01 X-2.0270 Y2.0602 
G01 X-2.0215 Y2.0591 
G01 X-2.0212 Y2.0590 
G01 X-2.0157 Y2.0568 
G01 X-2.0108 Y2.0535 
G01 X-2.0107 Y2.0534 
G01 X-2.0066 Y2.0493 
G01 X-2.0047 Y2.0464 
G01 X-2.0033 Y2.0444 
G01 X-2.0011 Y2.0389 
G01 X-1.9999 Y2.0331 
G01 X-1.9999 Y2.0271 
G01 X-1.9999 Y1.9401 
G01 X-1.9923 Y1.9217 
G01 X-1.9783 Y1.9077 
G01 X-1.9599 Y1.9001 
G01 X-1.9500 Y1.9001 
G01 X-1.9490 Y1.9002 
G01 X-1.9470 Y1.9001 
