;PYCAM-META-DATA: Filename: None
;PYCAM-META-DATA: Timestamp: 2012-04-05 18:09:13.584826
;PYCAM-META-DATA: Version: 0.5.1
;Estimated machine time: 5 minutes
G40 (disable tool radius compensation)
G49 (disable tool length compensation)
G80 (cancel modal motion)
G54 (select coordinate system 1)
G90 (disable incremental moves)
G21 (metric)
G61 (exact path mode)
F400.00000
S1000.00000
;PYCAM_TOOLPATH_SETTINGS: START
;[Bounds]
;maxz = 0.0
;maxx = 161.21042496
;maxy = 87.6014489
;minx = -14.14667456
;miny = -7.3991379
;minz = -4.1
;
;[Tool]
;torus_radius = 0.25
;speed = 1000.0
;shape = SphericalCutter
;tool_radius = 0.5
;feedrate = 400.0
;
;[Process]
;engrave_offset = 1.45
;step_down = 2.1
;generator = EngraveCutter
;postprocessor = SimpleCutter
;milling_style = conventional
;material_allowance = 0.0
;pocketing_type = none
;path_direction = x
;
;PYCAM_TOOLPATH_SETTINGS: END
T3 M6
G0 Z2.0000
M3 (start spindle)
G04 P3 (wait for 3 seconds)
 X16.9550 Y31.1852
G1 Z-2.0500
 X16.9635 Y31.1890
 X16.9667 Y31.1898
 X16.9709 Y31.1899
 X16.9767 Y31.1889
 X16.9821 Y31.1869
 X16.9854 Y31.1848
 X16.9874 Y31.1830
 X16.9924 Y31.1760
 X16.9964 Y31.1673
 X16.9972 Y31.1636
 X16.9973 Y31.1595
 X16.9964 Y31.1539
 X16.9944 Y31.1486
 X16.9925 Y31.1455
 X16.9904 Y31.1432
 X16.9832 Y31.1381
 X16.9750 Y31.1344
 X16.9713 Y31.1336
 X16.9667 Y31.1334
 X16.9611 Y31.1344
 X16.9559 Y31.1363
 X16.9527 Y31.1383
 X16.9508 Y31.1400
 X16.9453 Y31.1476
 X16.9415 Y31.1562
 X16.9408 Y31.1591
 X16.9407 Y31.1631
 X16.9417 Y31.1690
 X16.9438 Y31.1748
 X16.9457 Y31.1778
 X16.9477 Y31.1799
 X16.9550 Y31.1852
G0 Z2.0000
 X32.4822 Y57.9726
G1 Z-2.0500
 X32.4819 Y57.9669
 X32.4814 Y57.9640
 X32.4809 Y57.9618
 X32.4801 Y57.9596
 X32.4788 Y57.9569
 X32.4774 Y57.9545
 X32.4750 Y57.9514
 X32.4722 Y57.9484
 X32.4697 Y57.9460
 X32.4667 Y57.9438
 X32.4638 Y57.9421
 X32.4619 Y57.9411
 X32.4599 Y57.9404
 X32.4574 Y57.9398
 X32.4543 Y57.9393
 X32.4485 Y57.9390
 X32.4427 Y57.9393
 X32.4394 Y57.9398
 X32.4372 Y57.9404
 X32.4353 Y57.9411
 X32.4330 Y57.9422
 X32.4300 Y57.9440
 X32.4275 Y57.9458
 X32.4248 Y57.9484
 X32.4214 Y57.9520
 X32.4195 Y57.9545
 X32.4179 Y57.9573
 X32.4166 Y57.9600
 X32.4162 Y57.9609
 X32.4156 Y57.9635
 X32.4150 Y57.9674
 X32.4147 Y57.9726
 X32.4150 Y57.9775
 X32.4155 Y57.9810
 X32.4161 Y57.9832
 X32.4164 Y57.9840
 X32.4175 Y57.9865
 X32.4194 Y57.9895
 X32.4210 Y57.9917
 X32.4240 Y57.9950
 X32.4272 Y57.9979
 X32.4304 Y58.0003
 X32.4326 Y58.0016
 X32.4349 Y58.0027
 X32.4377 Y58.0037
 X32.4394 Y58.0042
 X32.4432 Y58.0048
 X32.4485 Y58.0050
 X32.4538 Y58.0048
 X32.4574 Y58.0042
 X32.4594 Y58.0037
 X32.4623 Y58.0026
 X32.4642 Y58.0017
 X32.4663 Y58.0004
 X32.4700 Y57.9977
 X32.4730 Y57.9950
 X32.4754 Y57.9923
 X32.4775 Y57.9895
 X32.4791 Y57.9869
 X32.4803 Y57.9845
 X32.4811 Y57.9823
 X32.4815 Y57.9806
 X32.4819 Y57.9780
 X32.4822 Y57.9726
G0 Z2.0000
 X36.9388 Y40.0981
G1 Z-2.0500
 X36.9329 Y39.8658
 X36.9155 Y39.6370
 X36.8870 Y39.4123
 X36.8476 Y39.1917
 X36.7974 Y38.9747
 X36.7371 Y38.7621
 X36.6666 Y38.5539
 X36.5865 Y38.3503
 X36.4969 Y38.1522
 X36.3978 Y37.9588
 X36.2896 Y37.7707
 X36.1726 Y37.5883
 X36.0474 Y37.4121
 X35.9142 Y37.2425
 X35.7727 Y37.0793
 X35.6234 Y36.9226
 X35.4676 Y36.7740
 X35.3044 Y36.6328
 X35.1342 Y36.4990
 X34.9583 Y36.3738
 X34.7761 Y36.2571
 X34.5877 Y36.1488
 X34.3945 Y36.0497
 X34.1963 Y35.9602
 X33.9926 Y35.8799
 X33.7845 Y35.8094
 X33.5718 Y35.7491
 X33.3550 Y35.6990
 X33.1344 Y35.6596
 X32.9096 Y35.6310
 X32.6808 Y35.6137
 X32.4485 Y35.6078
 X32.2162 Y35.6137
 X31.9875 Y35.6310
 X31.7626 Y35.6596
 X31.5418 Y35.6990
 X31.3251 Y35.7491
 X31.1126 Y35.8094
 X30.9045 Y35.8799
 X30.7005 Y35.9602
 X30.5025 Y36.0497
 X30.3090 Y36.1489
 X30.1207 Y36.2571
 X29.9388 Y36.3737
 X29.7629 Y36.4989
 X29.5927 Y36.6327
 X29.4294 Y36.7741
 X29.2733 Y36.9229
 X29.1242 Y37.0793
 X28.9828 Y37.2424
 X28.8494 Y37.4122
 X28.7241 Y37.5885
 X28.6073 Y37.7707
 X28.4991 Y37.9588
 X28.4002 Y38.1518
 X28.3105 Y38.3503
 X28.2301 Y38.5543
 X28.1596 Y38.7623
 X28.0994 Y38.9745
 X28.0494 Y39.1915
 X28.0099 Y39.4123
 X27.9814 Y39.6370
 X27.9640 Y39.8655
 X27.9582 Y40.0981
 X27.9640 Y40.3306
 X27.9814 Y40.5592
 X28.0099 Y40.7839
 X28.0494 Y41.0048
 X28.0994 Y41.2218
 X28.1597 Y41.4340
 X28.2301 Y41.6420
 X28.3105 Y41.8457
 X28.4002 Y42.0444
 X28.4991 Y42.2375
 X28.6075 Y42.4258
 X28.7241 Y42.6080
 X28.8494 Y42.7841
 X28.9828 Y42.9540
 X29.1241 Y43.1170
 X29.2730 Y43.2731
 X29.4295 Y43.4222
 X29.5929 Y43.5638
 X29.7627 Y43.6973
 X29.9386 Y43.8225
 X30.1209 Y43.9392
 X30.3090 Y44.0475
 X30.5025 Y44.1465
 X30.7008 Y44.2362
 X30.9043 Y44.3163
 X31.1126 Y44.3869
 X31.3251 Y44.4472
 X31.5418 Y44.4973
 X31.7626 Y44.5366
 X31.9875 Y44.5652
 X32.2162 Y44.5826
 X32.4485 Y44.5885
 X32.6808 Y44.5826
 X32.9096 Y44.5652
 X33.1344 Y44.5366
 X33.3550 Y44.4973
 X33.5718 Y44.4472
 X33.7845 Y44.3868
 X33.9928 Y44.3163
 X34.1961 Y44.2363
 X34.3945 Y44.1465
 X34.5877 Y44.0476
 X34.7759 Y43.9392
 X34.9585 Y43.8223
 X35.1344 Y43.6972
 X35.3043 Y43.5637
 X35.4675 Y43.4223
 X35.6237 Y43.2734
 X35.7728 Y43.1170
 X35.9142 Y42.9538
 X36.0474 Y42.7843
 X36.1726 Y42.6082
 X36.2894 Y42.4258
 X36.3977 Y42.2375
 X36.4969 Y42.0440
 X36.5865 Y41.8457
 X36.6667 Y41.6424
 X36.7371 Y41.4343
 X36.7974 Y41.2215
 X36.8476 Y41.0046
 X36.8870 Y40.7839
 X36.9155 Y40.5592
 X36.9329 Y40.3304
 X36.9388 Y40.0981
G0 Z2.0000
 X47.9134 Y31.1381
G1 Z-2.0500
 X47.9054 Y31.1438
 X47.9037 Y31.1457
 X47.9018 Y31.1488
 X47.8998 Y31.1543
 X47.8988 Y31.1599
 X47.8989 Y31.1640
 X47.8998 Y31.1679
 X47.9032 Y31.1754
 X47.9078 Y31.1818
 X47.9107 Y31.1845
 X47.9145 Y31.1868
 X47.9202 Y31.1889
 X47.9261 Y31.1899
 X47.9297 Y31.1898
 X47.9322 Y31.1893
 X47.9410 Y31.1853
 X47.9487 Y31.1797
 X47.9511 Y31.1771
 X47.9532 Y31.1737
 X47.9552 Y31.1683
 X47.9563 Y31.1622
 X47.9562 Y31.1587
 X47.9555 Y31.1558
 X47.9522 Y31.1483
 X47.9470 Y31.1411
 X47.9441 Y31.1385
 X47.9402 Y31.1361
 X47.9347 Y31.1340
 X47.9293 Y31.1331
 X47.9256 Y31.1332
 X47.9227 Y31.1339
 X47.9134 Y31.1381
G0 Z2.0000
 X88.3780 Y28.2885
G1 Z-2.0500
 X78.4860
 X78.3447 Y28.2957
 X78.2456 Y28.3108
 X78.1503 Y28.3354
 X78.0595 Y28.3685
 X77.9729 Y28.4103
 X77.8901 Y28.4605
 X77.8132 Y28.5181
 X77.7416 Y28.5832
 X77.6765 Y28.6548
 X77.6187 Y28.7321
 X77.5687 Y28.8144
 X77.5267 Y28.9016
 X77.4937 Y28.9918
 X77.4695 Y29.0862
 X77.4543 Y29.1858
 X77.4490 Y29.2901
 X77.4543 Y29.3943
 X77.4695 Y29.4940
 X77.4937 Y29.5884
 X77.5268 Y29.6789
 X77.5687 Y29.7657
 X77.6186 Y29.8480
 X77.6765 Y29.9254
 X77.7414 Y29.9968
 X77.8130 Y30.0619
 X77.8904 Y30.1197
 X77.9729 Y30.1698
 X78.0597 Y30.2117
 X78.1503 Y30.2449
 X78.2455 Y30.2693
 X78.3447 Y30.2845
 X78.4854 Y30.2916
 X88.3785
 X88.5191 Y30.2845
 X88.6181 Y30.2694
 X88.7130 Y30.2449
 X88.8037 Y30.2117
 X88.8906 Y30.1698
 X88.9733 Y30.1196
 X89.0504 Y30.0620
 X89.1217 Y29.9971
 X89.1869 Y29.9254
 X89.2448 Y29.8480
 X89.2947 Y29.7657
 X89.3366 Y29.6789
 X89.3699 Y29.5878
 X89.3942 Y29.4934
 X89.4093 Y29.3946
 X89.4145 Y29.2901
 X89.4093 Y29.1856
 X89.3942 Y29.0868
 X89.3699 Y28.9924
 X89.3366 Y28.9016
 X89.2947 Y28.8144
 X89.2447 Y28.7321
 X89.1869 Y28.6548
 X89.1215 Y28.5829
 X89.0502 Y28.5180
 X88.9735 Y28.4606
 X88.8906 Y28.4103
 X88.8039 Y28.3685
 X88.7131 Y28.3353
 X88.6181 Y28.3108
 X88.5191 Y28.2957
 X88.3780 Y28.2885
G0 Z2.0000
 X96.8367 Y36.6661
G1 Z-2.0500
 X96.4941 Y36.7183
 X96.1645 Y36.8030
 X95.8486 Y36.9187
 X95.5473 Y37.0638
 X95.2630 Y37.2364
 X94.9972 Y37.4352
 X94.7516 Y37.6583
 X94.5286 Y37.9036
 X94.3298 Y38.1696
 X94.1571 Y38.4539
 X94.0122 Y38.7548
 X93.8966 Y39.0707
 X93.8119 Y39.4006
 X93.7596 Y39.7432
 X93.7417 Y40.0981
 X93.7596 Y40.4532
 X93.8119 Y40.7956
 X93.8966 Y41.1254
 X94.0122 Y41.4415
 X94.1571 Y41.7423
 X94.3299 Y42.0268
 X94.5286 Y42.2926
 X94.7516 Y42.5379
 X94.9972 Y42.7612
 X95.2630 Y42.9599
 X95.5475 Y43.1327
 X95.8485 Y43.2776
 X96.1643 Y43.3932
 X96.4941 Y43.4779
 X96.8365 Y43.5302
 X97.2281 Y43.5499
 X106.9279
 X107.3202 Y43.5302
 X107.6625 Y43.4780
 X107.9917 Y43.3932
 X108.3081 Y43.2776
 X108.6089 Y43.1326
 X108.8941 Y42.9597
 X109.1591 Y42.7614
 X109.4053 Y42.5376
 X109.6289 Y42.2921
 X109.8274 Y42.0264
 X110.0005 Y41.7421
 X110.1449 Y41.4416
 X110.2610 Y41.1248
 X110.3458 Y40.7956
 X110.3977 Y40.4540
 X110.4154 Y40.0981
 X110.3977 Y39.7423
 X110.3458 Y39.4006
 X110.2610 Y39.0714
 X110.1449 Y38.7546
 X110.0005 Y38.4541
 X109.8275 Y38.1700
 X109.6288 Y37.9041
 X109.4054 Y37.6587
 X109.1592 Y37.4350
 X108.8941 Y37.2366
 X108.6090 Y37.0639
 X108.3080 Y36.9187
 X107.9915 Y36.8030
 X107.6625 Y36.7183
 X107.3200 Y36.6661
 X106.9277 Y36.6463
 X97.2282
 X96.8367 Y36.6661
G0 Z2.0000
 X106.7349 Y60.4190
G1 Z-2.0500
 X96.8421
 X96.7012 Y60.4261
 X96.6021 Y60.4412
 X96.5075 Y60.4655
 X96.4163 Y60.4989
 X96.3294 Y60.5407
 X96.2477 Y60.5904
 X96.1704 Y60.6483
 X96.0987 Y60.7135
 X96.0337 Y60.7850
 X95.9758 Y60.8624
 X95.9258 Y60.9449
 X95.8841 Y61.0314
 X95.8508 Y61.1223
 X95.8264 Y61.2171
 X95.8114 Y61.3160
 X95.8061 Y61.4203
 X95.8114 Y61.5248
 X95.8264 Y61.6236
 X95.8509 Y61.7185
 X95.8842 Y61.8097
 X95.9258 Y61.8962
 X95.9759 Y61.9787
 X96.0337 Y62.0560
 X96.0987 Y62.1275
 X96.1706 Y62.1928
 X96.2480 Y62.2508
 X96.3294 Y62.3004
 X96.4163 Y62.3422
 X96.5077 Y62.3756
 X96.6021 Y62.3999
 X96.7012 Y62.4150
 X96.8424 Y62.4222
 X106.7346
 X106.8763 Y62.4150
 X106.9758 Y62.3999
 X107.0698 Y62.3757
 X107.1604 Y62.3425
 X107.2469 Y62.3008
 X107.3295 Y62.2505
 X107.4073 Y62.1923
 X107.4783 Y62.1278
 X107.5429 Y62.0565
 X107.6013 Y61.9785
 X107.6513 Y61.8962
 X107.6935 Y61.8084
 X107.7268 Y61.7179
 X107.7505 Y61.6251
 X107.7659 Y61.5240
 X107.7713 Y61.4203
 X107.7659 Y61.3168
 X107.7505 Y61.2157
 X107.7269 Y61.1229
 X107.6936 Y61.0326
 X107.6514 Y60.9449
 X107.6014 Y60.8627
 X107.5429 Y60.7844
 X107.4783 Y60.7132
 X107.4075 Y60.6488
 X107.3297 Y60.5907
 X107.2469 Y60.5403
 X107.1604 Y60.4986
 X107.0701 Y60.4655
 X106.9758 Y60.4413
 X106.8763 Y60.4261
 X106.7349 Y60.4190
G0 Z2.0000
 X125.4792 Y28.2885
G1 Z-2.0500
 X115.5872
 X115.4455 Y28.2957
 X115.3460 Y28.3108
 X115.2514 Y28.3352
 X115.1611 Y28.3683
 X115.0732 Y28.4107
 X114.9905 Y28.4607
 X114.9156 Y28.5170
 X114.8435 Y28.5826
 X114.7768 Y28.6561
 X114.7194 Y28.7323
 X114.6699 Y28.8144
 X114.6272 Y28.9024
 X114.5953 Y28.9899
 X114.5702 Y29.0882
 X114.5549 Y29.1865
 X114.5499 Y29.2901
 X114.5549 Y29.3936
 X114.5702 Y29.4920
 X114.5953 Y29.5903
 X114.6273 Y29.6781
 X114.6698 Y29.7657
 X114.7194 Y29.8478
 X114.7768 Y29.9241
 X114.8434 Y29.9974
 X114.9154 Y30.0630
 X114.9907 Y30.1195
 X115.0732 Y30.1694
 X115.1614 Y30.2120
 X115.2514 Y30.2450
 X115.3460 Y30.2693
 X115.4455 Y30.2845
 X115.5866 Y30.2916
 X125.4797
 X125.6198 Y30.2845
 X125.7195 Y30.2693
 X125.8141 Y30.2450
 X125.9041 Y30.2120
 X125.9909 Y30.1701
 X126.0741 Y30.1195
 X126.1515 Y30.0617
 X126.2221 Y29.9974
 X126.2871 Y29.9259
 X126.3454 Y29.8478
 X126.3954 Y29.7657
 X126.4375 Y29.6781
 X126.4709 Y29.5875
 X126.4945 Y29.4948
 X126.5099 Y29.3937
 X126.5153 Y29.2901
 X126.5099 Y29.1864
 X126.4945 Y29.0853
 X126.4709 Y28.9927
 X126.4376 Y28.9023
 X126.3953 Y28.8144
 X126.3454 Y28.7323
 X126.2871 Y28.6543
 X126.2220 Y28.5826
 X126.1513 Y28.5182
 X126.0743 Y28.4607
 X125.9909 Y28.4100
 X125.9044 Y28.3683
 X125.8141 Y28.3352
 X125.7195 Y28.3108
 X125.6198 Y28.2957
 X125.4792 Y28.2885
G0 Z2.0000
 X32.4346 Y6.2007
G1 Z-2.0500
 X33.2823 Y6.1952
 X34.1410 Y6.1791
 X35.0240 Y6.1527
 X35.9307 Y6.1162
 X36.8600 Y6.0700
 X37.8115 Y6.0144
 X38.7843 Y5.9497
 X39.7774 Y5.8763
 X40.7905 Y5.7944
 X41.8227 Y5.7046
 X42.8731 Y5.6069
 X43.9412 Y5.5020
 X45.0262 Y5.3899
 X46.1275 Y5.2712
 X47.2443 Y5.1462
 X48.3759 Y5.0152
 X49.5215 Y4.8785
 X50.6807 Y4.7366
 X51.8527 Y4.5896
 X53.0367 Y4.4382
 X54.2322 Y4.2824
 X55.4383 Y4.1228
 X56.6545 Y3.9596
 X57.8800 Y3.7933
 X59.1143 Y3.6241
 X60.3565 Y3.4524
 X61.6060 Y3.2785
 X62.8623 Y3.1029
 X64.1246 Y2.9258
 X65.3923 Y2.7476
 X66.6645 Y2.5687
 X67.9409 Y2.3894
 X69.2205 Y2.2101
 X70.5028 Y2.0310
 X71.7872 Y1.8527
 X73.0728 Y1.6754
 X74.3590 Y1.4993
 X75.6455 Y1.3251
 X76.9311 Y1.1528
 X78.2155 Y0.9831
 X79.4980 Y0.8161
 X80.7778 Y0.6521
 X82.0545 Y0.4917
 X83.3271 Y0.3351
 X84.5952 Y0.1827
 X85.8581 Y0.0347
 X87.1151 Y-0.1083
 X88.3656 Y-0.2462
 X89.6091 Y-0.3784
 X90.8445 Y-0.5047
 X92.0715 Y-0.6246
 X93.2895 Y-0.7380
 X94.4977 Y-0.8444
 X95.6955 Y-0.9434
 X96.8823 Y-1.0347
 X98.0574 Y-1.1179
 X99.2203 Y-1.1928
 X100.3705 Y-1.2588
 X101.5064 Y-1.3157
 X102.6292 Y-1.3630
 X103.7367 Y-1.4005
 X104.8290 Y-1.4277
 X105.9052 Y-1.4444
 X106.9695 Y-1.4500
 X108.0340 Y-1.4366
 X109.0966 Y-1.3962
 X110.1523 Y-1.3293
 X111.2007 Y-1.2362
 X112.2421 Y-1.1171
 X113.2753 Y-0.9725
 X114.3002 Y-0.8027
 X115.3169 Y-0.6080
 X116.3243 Y-0.3887
 X117.3236 Y-0.1450
 X118.3114 Y0.1225
 X119.2909 Y0.4137
 X120.2592 Y0.7282
 X121.2168 Y1.0655
 X122.1641 Y1.4256
 X123.1003 Y1.8080
 X124.0236 Y2.2122
 X124.9366 Y2.6381
 X125.8365 Y3.0855
 X126.7235 Y3.5537
 X127.5981 Y4.0426
 X128.4590 Y4.5517
 X129.3079 Y5.0810
 X130.1410 Y5.6299
 X130.9614 Y6.1980
 X131.7671 Y6.7858
 X132.5563 Y7.3915
 X133.3321 Y8.0157
 X134.0918 Y8.6584
 X134.8354 Y9.3182
 X135.5640 Y9.9960
 X136.2747 Y10.6906
 X136.9696 Y11.4017
 X137.6474 Y12.1300
 X138.3074 Y12.8739
 X138.9499 Y13.6339
 X139.5736 Y14.4090
 X140.1794 Y15.1991
 X140.7671 Y16.0045
 X141.3353 Y16.8247
 X141.8829 Y17.6579
 X142.4132 Y18.5055
 X142.9221 Y19.3668
 X143.4124 Y20.2416
 X143.8800 Y21.1295
 X144.3278 Y22.0295
 X144.7529 Y22.9423
 X145.1568 Y23.8657
 X145.5393 Y24.8016
 X145.8989 Y25.7483
 X146.2366 Y26.7056
 X146.5520 Y27.6751
 X146.8422 Y28.6538
 X147.1107 Y29.6426
 X147.3535 Y30.6419
 X147.5718 Y31.6481
 X147.7676 Y32.6639
 X147.9378 Y33.6900
 X148.0818 Y34.7233
 X148.2010 Y35.7646
 X148.2932 Y36.8131
 X148.3605 Y37.8683
 X148.4009 Y38.9313
 X148.4144 Y40.0004
 X148.4009 Y41.0695
 X148.3605 Y42.1325
 X148.2932 Y43.1877
 X148.2010 Y44.2362
 X148.0818 Y45.2775
 X147.9378 Y46.3107
 X147.7676 Y47.3368
 X147.5718 Y48.3527
 X147.3535 Y49.3588
 X147.1107 Y50.3582
 X146.8422 Y51.3470
 X146.5520 Y52.3257
 X146.2366 Y53.2950
 X145.8989 Y54.2524
 X145.5393 Y55.1992
 X145.1568 Y56.1351
 X144.7529 Y57.0586
 X144.3278 Y57.9711
 X143.8800 Y58.8713
 X143.4124 Y59.7592
 X142.9221 Y60.6339
 X142.4133 Y61.4953
 X141.8828 Y62.3430
 X141.3352 Y63.1760
 X140.7671 Y63.9961
 X140.1794 Y64.8017
 X139.5736 Y65.5917
 X138.9499 Y66.3668
 X138.3074 Y67.1267
 X137.6474 Y67.8707
 X136.9696 Y68.5988
 X136.2747 Y69.3100
 X135.5639 Y70.0047
 X134.8354 Y70.6823
 X134.0918 Y71.3422
 X133.3321 Y71.9848
 X132.5563 Y72.6091
 X131.7670 Y73.2148
 X130.9614 Y73.8025
 X130.1410 Y74.3707
 X129.3079 Y74.9196
 X128.4590 Y75.4489
 X127.5981 Y75.9580
 X126.7235 Y76.4469
 X125.8365 Y76.9151
 X124.9366 Y77.3624
 X124.0236 Y77.7884
 X123.1002 Y78.1925
 X122.1641 Y78.5749
 X121.2168 Y78.9350
 X120.2592 Y79.2723
 X119.2908 Y79.5869
 X118.3114 Y79.8779
 X117.3236 Y80.1456
 X116.3243 Y80.3892
 X115.3170 Y80.6086
 X114.3001 Y80.8033
 X113.2752 Y80.9730
 X112.2422 Y81.1176
 X111.2007 Y81.2367
 X110.1522 Y81.3297
 X109.0967 Y81.3966
 X108.0340 Y81.4370
 X106.9697 Y81.4505
 X105.9056 Y81.4450
 X104.8297 Y81.4288
 X103.7377 Y81.4023
 X102.6305 Y81.3657
 X101.5082 Y81.3195
 X100.3725 Y81.2642
 X99.2226 Y81.1999
 X98.0600 Y81.1271
 X96.8851 Y81.0461
 X95.6984 Y80.9571
 X94.5007 Y80.8606
 X93.2928 Y80.7570
 X92.0750 Y80.6465
 X90.8482 Y80.5297
 X89.6129 Y80.4067
 X88.3697 Y80.2778
 X87.1193 Y80.1436
 X85.8623 Y80.0042
 X84.5995 Y79.8601
 X83.3315 Y79.7115
 X82.0591 Y79.5590
 X80.7825 Y79.4027
 X79.5027 Y79.2430
 X78.2203 Y79.0803
 X76.9360 Y78.9150
 X75.6503 Y78.7472
 X74.3640 Y78.5773
 X73.0778 Y78.4059
 X71.7922 Y78.2332
 X70.5078 Y78.0594
 X69.2255 Y77.8850
 X67.9459 Y77.7101
 X66.6697 Y77.5356
 X64.1297 Y77.1876
 X62.8674 Y77.0151
 X61.6112 Y76.8440
 X60.3615 Y76.6746
 X59.1193 Y76.5073
 X57.8849 Y76.3424
 X56.6594 Y76.1803
 X55.4432 Y76.0213
 X54.2370 Y75.8659
 X53.0414 Y75.7141
 X51.8572 Y75.5665
 X50.6852 Y75.4233
 X49.5260 Y75.2851
 X48.3801 Y75.1519
 X47.2485 Y75.0242
 X46.1315 Y74.9024
 X45.0301 Y74.7868
 X43.9448 Y74.6776
 X42.8766 Y74.5753
 X41.8260 Y74.4803
 X40.7935 Y74.3926
 X39.7803 Y74.3128
 X38.7869 Y74.2413
 X37.8138 Y74.1782
 X36.8620 Y74.1240
 X35.9323 Y74.0789
 X35.0253 Y74.0434
 X34.1419 Y74.0176
 X33.2827 Y74.0019
 X32.4348 Y73.9965
 X31.5743 Y73.9856
 X30.7052 Y73.9526
 X29.8418 Y73.8979
 X28.9841 Y73.8218
 X28.1327 Y73.7244
 X27.2877 Y73.6062
 X26.4495 Y73.4673
 X25.6183 Y73.3081
 X24.7941 Y73.1288
 X23.9774 Y72.9294
 X23.1689 Y72.7105
 X22.3683 Y72.4724
 X21.5763 Y72.2152
 X20.7928 Y71.9393
 X20.0182 Y71.6448
 X19.2528 Y71.3321
 X18.4970 Y71.0014
 X17.7509 Y70.6530
 X17.0149 Y70.2872
 X16.2891 Y69.9043
 X15.5739 Y69.5045
 X14.8695 Y69.0881
 X14.1761 Y68.6553
 X13.4941 Y68.2063
 X12.8238 Y67.7415
 X12.1653 Y67.2614
 X11.5189 Y66.7657
 X10.8849 Y66.2551
 X10.2637 Y65.7298
 X9.6552 Y65.1899
 X9.0600 Y64.6358
 X8.4783 Y64.0677
 X7.9103 Y63.4859
 X7.3562 Y62.8909
 X6.8163 Y62.2824
 X6.2909 Y61.6610
 X5.7804 Y61.0270
 X5.2849 Y60.3808
 X4.8046 Y59.7222
 X4.3399 Y59.0518
 X3.8910 Y58.3698
 X3.4582 Y57.6764
 X3.0418 Y56.9720
 X2.6420 Y56.2569
 X2.2590 Y55.5311
 X1.8933 Y54.7950
 X1.5449 Y54.0490
 X1.2143 Y53.2931
 X0.9016 Y52.5278
 X0.6071 Y51.7533
 X0.3312 Y50.9697
 X0.0740 Y50.1776
 X-0.1641 Y49.3771
 X-0.3829 Y48.5686
 X-0.5821 Y47.7520
 X-0.7615 Y46.9281
 X-0.9207 Y46.0968
 X-1.0596 Y45.2585
 X-1.1778 Y44.4137
 X-1.2752 Y43.5623
 X-1.3514 Y42.7047
 X-1.4060 Y41.8412
 X-1.4391 Y40.9723
 X-1.4501 Y40.0981
 X-1.4391 Y39.2239
 X-1.4060 Y38.3550
 X-1.3514 Y37.4916
 X-1.2752 Y36.6340
 X-1.1779 Y35.7827
 X-1.0596 Y34.9377
 X-0.9207 Y34.0995
 X-0.7615 Y33.2681
 X-0.5821 Y32.4441
 X-0.3829 Y31.6277
 X-0.1641 Y30.8192
 X0.0740 Y30.0188
 X0.3312 Y29.2265
 X0.6072 Y28.4431
 X0.9016 Y27.6685
 X1.2143 Y26.9034
 X1.5449 Y26.1475
 X1.8933 Y25.4014
 X2.2590 Y24.6654
 X2.6419 Y23.9397
 X3.0418 Y23.2245
 X3.4582 Y22.5200
 X3.8910 Y21.8267
 X4.3399 Y21.1448
 X4.8046 Y20.4744
 X5.2848 Y19.8159
 X5.7804 Y19.1696
 X6.2910 Y18.5357
 X6.8163 Y17.9144
 X7.3561 Y17.3060
 X7.9103 Y16.7106
 X8.4784 Y16.1289
 X9.0601 Y15.5609
 X9.6552 Y15.0070
 X10.2636 Y14.4670
 X10.8850 Y13.9417
 X11.5189 Y13.4311
 X12.1653 Y12.9356
 X12.8238 Y12.4553
 X13.4942 Y11.9907
 X14.1761 Y11.5417
 X14.8696 Y11.1089
 X15.5739 Y10.6926
 X16.2891 Y10.2928
 X17.0149 Y9.9098
 X17.7509 Y9.5440
 X18.4971 Y9.1956
 X19.2529 Y8.8650
 X20.0183 Y8.5523
 X20.7928 Y8.2579
 X21.5762 Y7.9820
 X22.3683 Y7.7248
 X23.1691 Y7.4867
 X23.9775 Y7.2679
 X24.7940 Y7.0686
 X25.6182 Y6.8892
 X26.4495 Y6.7300
 X27.2878 Y6.5911
 X28.1327 Y6.4729
 X28.9841 Y6.3755
 X29.8418 Y6.2993
 X30.7052 Y6.2447
 X31.5742 Y6.2116
 X32.4346 Y6.2007
G0 Z2.0000
 X16.9550 Y31.1852
G1 Z-4.1000
 X16.9635 Y31.1890
 X16.9667 Y31.1898
 X16.9709 Y31.1899
 X16.9767 Y31.1889
 X16.9821 Y31.1869
 X16.9854 Y31.1848
 X16.9874 Y31.1830
 X16.9924 Y31.1760
 X16.9964 Y31.1673
 X16.9972 Y31.1636
 X16.9973 Y31.1595
 X16.9964 Y31.1539
 X16.9944 Y31.1486
 X16.9925 Y31.1455
 X16.9904 Y31.1432
 X16.9832 Y31.1381
 X16.9750 Y31.1344
 X16.9713 Y31.1336
 X16.9667 Y31.1334
 X16.9611 Y31.1344
 X16.9559 Y31.1363
 X16.9527 Y31.1383
 X16.9508 Y31.1400
 X16.9453 Y31.1476
 X16.9415 Y31.1562
 X16.9408 Y31.1591
 X16.9407 Y31.1631
 X16.9417 Y31.1690
 X16.9438 Y31.1748
 X16.9457 Y31.1778
 X16.9477 Y31.1799
 X16.9550 Y31.1852
G0 Z2.0000
 X32.4822 Y57.9726
G1 Z-4.1000
 X32.4819 Y57.9669
 X32.4814 Y57.9640
 X32.4809 Y57.9618
 X32.4801 Y57.9596
 X32.4788 Y57.9569
 X32.4774 Y57.9545
 X32.4750 Y57.9514
 X32.4722 Y57.9484
 X32.4697 Y57.9460
 X32.4667 Y57.9438
 X32.4638 Y57.9421
 X32.4619 Y57.9411
 X32.4599 Y57.9404
 X32.4574 Y57.9398
 X32.4543 Y57.9393
 X32.4485 Y57.9390
 X32.4427 Y57.9393
 X32.4394 Y57.9398
 X32.4372 Y57.9404
 X32.4353 Y57.9411
 X32.4330 Y57.9422
 X32.4300 Y57.9440
 X32.4275 Y57.9458
 X32.4248 Y57.9484
 X32.4214 Y57.9520
 X32.4195 Y57.9545
 X32.4179 Y57.9573
 X32.4166 Y57.9600
 X32.4162 Y57.9609
 X32.4156 Y57.9635
 X32.4150 Y57.9674
 X32.4147 Y57.9726
 X32.4150 Y57.9775
 X32.4155 Y57.9810
 X32.4161 Y57.9832
 X32.4164 Y57.9840
 X32.4175 Y57.9865
 X32.4194 Y57.9895
 X32.4210 Y57.9917
 X32.4240 Y57.9950
 X32.4272 Y57.9979
 X32.4304 Y58.0003
 X32.4326 Y58.0016
 X32.4349 Y58.0027
 X32.4377 Y58.0037
 X32.4394 Y58.0042
 X32.4432 Y58.0048
 X32.4485 Y58.0050
 X32.4538 Y58.0048
 X32.4574 Y58.0042
 X32.4594 Y58.0037
 X32.4623 Y58.0026
 X32.4642 Y58.0017
 X32.4663 Y58.0004
 X32.4700 Y57.9977
 X32.4730 Y57.9950
 X32.4754 Y57.9923
 X32.4775 Y57.9895
 X32.4791 Y57.9869
 X32.4803 Y57.9845
 X32.4811 Y57.9823
 X32.4815 Y57.9806
 X32.4819 Y57.9780
 X32.4822 Y57.9726
G0 Z2.0000
 X36.9388 Y40.0981
G1 Z-4.1000
 X36.9329 Y39.8658
 X36.9155 Y39.6370
 X36.8870 Y39.4123
 X36.8476 Y39.1917
 X36.7974 Y38.9747
 X36.7371 Y38.7621
 X36.6666 Y38.5539
 X36.5865 Y38.3503
 X36.4969 Y38.1522
 X36.3978 Y37.9588
 X36.2896 Y37.7707
 X36.1726 Y37.5883
 X36.0474 Y37.4121
 X35.9142 Y37.2425
 X35.7727 Y37.0793
 X35.6234 Y36.9226
 X35.4676 Y36.7740
 X35.3044 Y36.6328
 X35.1342 Y36.4990
 X34.9583 Y36.3738
 X34.7761 Y36.2571
 X34.5877 Y36.1488
 X34.3945 Y36.0497
 X34.1963 Y35.9602
 X33.9926 Y35.8799
 X33.7845 Y35.8094
 X33.5718 Y35.7491
 X33.3550 Y35.6990
 X33.1344 Y35.6596
 X32.9096 Y35.6310
 X32.6808 Y35.6137
 X32.4485 Y35.6078
 X32.2162 Y35.6137
 X31.9875 Y35.6310
 X31.7626 Y35.6596
 X31.5418 Y35.6990
 X31.3251 Y35.7491
 X31.1126 Y35.8094
 X30.9045 Y35.8799
 X30.7005 Y35.9602
 X30.5025 Y36.0497
 X30.3090 Y36.1489
 X30.1207 Y36.2571
 X29.9388 Y36.3737
 X29.7629 Y36.4989
 X29.5927 Y36.6327
 X29.4294 Y36.7741
 X29.2733 Y36.9229
 X29.1242 Y37.0793
 X28.9828 Y37.2424
 X28.8494 Y37.4122
 X28.7241 Y37.5885
 X28.6073 Y37.7707
 X28.4991 Y37.9588
 X28.4002 Y38.1518
 X28.3105 Y38.3503
 X28.2301 Y38.5543
 X28.1596 Y38.7623
 X28.0994 Y38.9745
 X28.0494 Y39.1915
 X28.0099 Y39.4123
 X27.9814 Y39.6370
 X27.9640 Y39.8655
 X27.9582 Y40.0981
 X27.9640 Y40.3306
 X27.9814 Y40.5592
 X28.0099 Y40.7839
 X28.0494 Y41.0048
 X28.0994 Y41.2218
 X28.1597 Y41.4340
 X28.2301 Y41.6420
 X28.3105 Y41.8457
 X28.4002 Y42.0444
 X28.4991 Y42.2375
 X28.6075 Y42.4258
 X28.7241 Y42.6080
 X28.8494 Y42.7841
 X28.9828 Y42.9540
 X29.1241 Y43.1170
 X29.2730 Y43.2731
 X29.4295 Y43.4222
 X29.5929 Y43.5638
 X29.7627 Y43.6973
 X29.9386 Y43.8225
 X30.1209 Y43.9392
 X30.3090 Y44.0475
 X30.5025 Y44.1465
 X30.7008 Y44.2362
 X30.9043 Y44.3163
 X31.1126 Y44.3869
 X31.3251 Y44.4472
 X31.5418 Y44.4973
 X31.7626 Y44.5366
 X31.9875 Y44.5652
 X32.2162 Y44.5826
 X32.4485 Y44.5885
 X32.6808 Y44.5826
 X32.9096 Y44.5652
 X33.1344 Y44.5366
 X33.3550 Y44.4973
 X33.5718 Y44.4472
 X33.7845 Y44.3868
 X33.9928 Y44.3163
 X34.1961 Y44.2363
 X34.3945 Y44.1465
 X34.5877 Y44.0476
 X34.7759 Y43.9392
 X34.9585 Y43.8223
 X35.1344 Y43.6972
 X35.3043 Y43.5637
 X35.4675 Y43.4223
 X35.6237 Y43.2734
 X35.7728 Y43.1170
 X35.9142 Y42.9538
 X36.0474 Y42.7843
 X36.1726 Y42.6082
 X36.2894 Y42.4258
 X36.3977 Y42.2375
 X36.4969 Y42.0440
 X36.5865 Y41.8457
 X36.6667 Y41.6424
 X36.7371 Y41.4343
 X36.7974 Y41.2215
 X36.8476 Y41.0046
 X36.8870 Y40.7839
 X36.9155 Y40.5592
 X36.9329 Y40.3304
 X36.9388 Y40.0981
G0 Z2.0000
 X47.9134 Y31.1381
G1 Z-4.1000
 X47.9054 Y31.1438
 X47.9037 Y31.1457
 X47.9018 Y31.1488
 X47.8998 Y31.1543
 X47.8988 Y31.1599
 X47.8989 Y31.1640
 X47.8998 Y31.1679
 X47.9032 Y31.1754
 X47.9078 Y31.1818
 X47.9107 Y31.1845
 X47.9145 Y31.1868
 X47.9202 Y31.1889
 X47.9261 Y31.1899
 X47.9297 Y31.1898
 X47.9322 Y31.1893
 X47.9410 Y31.1853
 X47.9487 Y31.1797
 X47.9511 Y31.1771
 X47.9532 Y31.1737
 X47.9552 Y31.1683
 X47.9563 Y31.1622
 X47.9562 Y31.1587
 X47.9555 Y31.1558
 X47.9522 Y31.1483
 X47.9470 Y31.1411
 X47.9441 Y31.1385
 X47.9402 Y31.1361
 X47.9347 Y31.1340
 X47.9293 Y31.1331
 X47.9256 Y31.1332
 X47.9227 Y31.1339
 X47.9134 Y31.1381
G0 Z2.0000
 X88.3780 Y28.2885
G1 Z-4.1000
 X78.4860
 X78.3447 Y28.2957
 X78.2456 Y28.3108
 X78.1503 Y28.3354
 X78.0595 Y28.3685
 X77.9729 Y28.4103
 X77.8901 Y28.4605
 X77.8132 Y28.5181
 X77.7416 Y28.5832
 X77.6765 Y28.6548
 X77.6187 Y28.7321
 X77.5687 Y28.8144
 X77.5267 Y28.9016
 X77.4937 Y28.9918
 X77.4695 Y29.0862
 X77.4543 Y29.1858
 X77.4490 Y29.2901
 X77.4543 Y29.3943
 X77.4695 Y29.4940
 X77.4937 Y29.5884
 X77.5268 Y29.6789
 X77.5687 Y29.7657
 X77.6186 Y29.8480
 X77.6765 Y29.9254
 X77.7414 Y29.9968
 X77.8130 Y30.0619
 X77.8904 Y30.1197
 X77.9729 Y30.1698
 X78.0597 Y30.2117
 X78.1503 Y30.2449
 X78.2455 Y30.2693
 X78.3447 Y30.2845
 X78.4854 Y30.2916
 X88.3785
 X88.5191 Y30.2845
 X88.6181 Y30.2694
 X88.7130 Y30.2449
 X88.8037 Y30.2117
 X88.8906 Y30.1698
 X88.9733 Y30.1196
 X89.0504 Y30.0620
 X89.1217 Y29.9971
 X89.1869 Y29.9254
 X89.2448 Y29.8480
 X89.2947 Y29.7657
 X89.3366 Y29.6789
 X89.3699 Y29.5878
 X89.3942 Y29.4934
 X89.4093 Y29.3946
 X89.4145 Y29.2901
 X89.4093 Y29.1856
 X89.3942 Y29.0868
 X89.3699 Y28.9924
 X89.3366 Y28.9016
 X89.2947 Y28.8144
 X89.2447 Y28.7321
 X89.1869 Y28.6548
 X89.1215 Y28.5829
 X89.0502 Y28.5180
 X88.9735 Y28.4606
 X88.8906 Y28.4103
 X88.8039 Y28.3685
 X88.7131 Y28.3353
 X88.6181 Y28.3108
 X88.5191 Y28.2957
 X88.3780 Y28.2885
G0 Z2.0000
 X96.8367 Y36.6661
G1 Z-4.1000
 X96.4941 Y36.7183
 X96.1645 Y36.8030
 X95.8486 Y36.9187
 X95.5473 Y37.0638
 X95.2630 Y37.2364
 X94.9972 Y37.4352
 X94.7516 Y37.6583
 X94.5286 Y37.9036
 X94.3298 Y38.1696
 X94.1571 Y38.4539
 X94.0122 Y38.7548
 X93.8966 Y39.0707
 X93.8119 Y39.4006
 X93.7596 Y39.7432
 X93.7417 Y40.0981
 X93.7596 Y40.4532
 X93.8119 Y40.7956
 X93.8966 Y41.1254
 X94.0122 Y41.4415
 X94.1571 Y41.7423
 X94.3299 Y42.0268
 X94.5286 Y42.2926
 X94.7516 Y42.5379
 X94.9972 Y42.7612
 X95.2630 Y42.9599
 X95.5475 Y43.1327
 X95.8485 Y43.2776
 X96.1643 Y43.3932
 X96.4941 Y43.4779
 X96.8365 Y43.5302
 X97.2281 Y43.5499
 X106.9279
 X107.3202 Y43.5302
 X107.6625 Y43.4780
 X107.9917 Y43.3932
 X108.3081 Y43.2776
 X108.6089 Y43.1326
 X108.8941 Y42.9597
 X109.1591 Y42.7614
 X109.4053 Y42.5376
 X109.6289 Y42.2921
 X109.8274 Y42.0264
 X110.0005 Y41.7421
 X110.1449 Y41.4416
 X110.2610 Y41.1248
 X110.3458 Y40.7956
 X110.3977 Y40.4540
 X110.4154 Y40.0981
 X110.3977 Y39.7423
 X110.3458 Y39.4006
 X110.2610 Y39.0714
 X110.1449 Y38.7546
 X110.0005 Y38.4541
 X109.8275 Y38.1700
 X109.6288 Y37.9041
 X109.4054 Y37.6587
 X109.1592 Y37.4350
 X108.8941 Y37.2366
 X108.6090 Y37.0639
 X108.3080 Y36.9187
 X107.9915 Y36.8030
 X107.6625 Y36.7183
 X107.3200 Y36.6661
 X106.9277 Y36.6463
 X97.2282
 X96.8367 Y36.6661
G0 Z2.0000
 X106.7349 Y60.4190
G1 Z-4.1000
 X96.8421
 X96.7012 Y60.4261
 X96.6021 Y60.4412
 X96.5075 Y60.4655
 X96.4163 Y60.4989
 X96.3294 Y60.5407
 X96.2477 Y60.5904
 X96.1704 Y60.6483
 X96.0987 Y60.7135
 X96.0337 Y60.7850
 X95.9758 Y60.8624
 X95.9258 Y60.9449
 X95.8841 Y61.0314
 X95.8508 Y61.1223
 X95.8264 Y61.2171
 X95.8114 Y61.3160
 X95.8061 Y61.4203
 X95.8114 Y61.5248
 X95.8264 Y61.6236
 X95.8509 Y61.7185
 X95.8842 Y61.8097
 X95.9258 Y61.8962
 X95.9759 Y61.9787
 X96.0337 Y62.0560
 X96.0987 Y62.1275
 X96.1706 Y62.1928
 X96.2480 Y62.2508
 X96.3294 Y62.3004
 X96.4163 Y62.3422
 X96.5077 Y62.3756
 X96.6021 Y62.3999
 X96.7012 Y62.4150
 X96.8424 Y62.4222
 X106.7346
 X106.8763 Y62.4150
 X106.9758 Y62.3999
 X107.0698 Y62.3757
 X107.1604 Y62.3425
 X107.2469 Y62.3008
 X107.3295 Y62.2505
 X107.4073 Y62.1923
 X107.4783 Y62.1278
 X107.5429 Y62.0565
 X107.6013 Y61.9785
 X107.6513 Y61.8962
 X107.6935 Y61.8084
 X107.7268 Y61.7179
 X107.7505 Y61.6251
 X107.7659 Y61.5240
 X107.7713 Y61.4203
 X107.7659 Y61.3168
 X107.7505 Y61.2157
 X107.7269 Y61.1229
 X107.6936 Y61.0326
 X107.6514 Y60.9449
 X107.6014 Y60.8627
 X107.5429 Y60.7844
 X107.4783 Y60.7132
 X107.4075 Y60.6488
 X107.3297 Y60.5907
 X107.2469 Y60.5403
 X107.1604 Y60.4986
 X107.0701 Y60.4655
 X106.9758 Y60.4413
 X106.8763 Y60.4261
 X106.7349 Y60.4190
G0 Z2.0000
 X125.4792 Y28.2885
G1 Z-4.1000
 X115.5872
 X115.4455 Y28.2957
 X115.3460 Y28.3108
 X115.2514 Y28.3352
 X115.1611 Y28.3683
 X115.0732 Y28.4107
 X114.9905 Y28.4607
 X114.9156 Y28.5170
 X114.8435 Y28.5826
 X114.7768 Y28.6561
 X114.7194 Y28.7323
 X114.6699 Y28.8144
 X114.6272 Y28.9024
 X114.5953 Y28.9899
 X114.5702 Y29.0882
 X114.5549 Y29.1865
 X114.5499 Y29.2901
 X114.5549 Y29.3936
 X114.5702 Y29.4920
 X114.5953 Y29.5903
 X114.6273 Y29.6781
 X114.6698 Y29.7657
 X114.7194 Y29.8478
 X114.7768 Y29.9241
 X114.8434 Y29.9974
 X114.9154 Y30.0630
 X114.9907 Y30.1195
 X115.0732 Y30.1694
 X115.1614 Y30.2120
 X115.2514 Y30.2450
 X115.3460 Y30.2693
 X115.4455 Y30.2845
 X115.5866 Y30.2916
 X125.4797
 X125.6198 Y30.2845
 X125.7195 Y30.2693
 X125.8141 Y30.2450
 X125.9041 Y30.2120
 X125.9909 Y30.1701
 X126.0741 Y30.1195
 X126.1515 Y30.0617
 X126.2221 Y29.9974
 X126.2871 Y29.9259
 X126.3454 Y29.8478
 X126.3954 Y29.7657
 X126.4375 Y29.6781
 X126.4709 Y29.5875
 X126.4945 Y29.4948
 X126.5099 Y29.3937
 X126.5153 Y29.2901
 X126.5099 Y29.1864
 X126.4945 Y29.0853
 X126.4709 Y28.9927
 X126.4376 Y28.9023
 X126.3953 Y28.8144
 X126.3454 Y28.7323
 X126.2871 Y28.6543
 X126.2220 Y28.5826
 X126.1513 Y28.5182
 X126.0743 Y28.4607
 X125.9909 Y28.4100
 X125.9044 Y28.3683
 X125.8141 Y28.3352
 X125.7195 Y28.3108
 X125.6198 Y28.2957
 X125.4792 Y28.2885
G0 Z2.0000
 X32.4346 Y6.2007
G1 Z-4.1000
 X33.2823 Y6.1952
 X34.1410 Y6.1791
 X35.0240 Y6.1527
 X35.9307 Y6.1162
 X36.8600 Y6.0700
 X37.8115 Y6.0144
 X38.7843 Y5.9497
 X39.7774 Y5.8763
 X40.7905 Y5.7944
 X41.8227 Y5.7046
 X42.8731 Y5.6069
 X43.9412 Y5.5020
 X45.0262 Y5.3899
 X46.1275 Y5.2712
 X47.2443 Y5.1462
 X48.3759 Y5.0152
 X49.5215 Y4.8785
 X50.6807 Y4.7366
 X51.8527 Y4.5896
 X53.0367 Y4.4382
 X54.2322 Y4.2824
 X55.4383 Y4.1228
 X56.6545 Y3.9596
 X57.8800 Y3.7933
 X59.1143 Y3.6241
 X60.3565 Y3.4524
 X61.6060 Y3.2785
 X62.8623 Y3.1029
 X64.1246 Y2.9258
 X65.3923 Y2.7476
 X66.6645 Y2.5687
 X67.9409 Y2.3894
 X69.2205 Y2.2101
 X70.5028 Y2.0310
 X71.7872 Y1.8527
 X73.0728 Y1.6754
 X74.3590 Y1.4993
 X75.6455 Y1.3251
 X76.9311 Y1.1528
 X78.2155 Y0.9831
 X79.4980 Y0.8161
 X80.7778 Y0.6521
 X82.0545 Y0.4917
 X83.3271 Y0.3351
 X84.5952 Y0.1827
 X85.8581 Y0.0347
 X87.1151 Y-0.1083
 X88.3656 Y-0.2462
 X89.6091 Y-0.3784
 X90.8445 Y-0.5047
 X92.0715 Y-0.6246
 X93.2895 Y-0.7380
 X94.4977 Y-0.8444
 X95.6955 Y-0.9434
 X96.8823 Y-1.0347
 X98.0574 Y-1.1179
 X99.2203 Y-1.1928
 X100.3705 Y-1.2588
 X101.5064 Y-1.3157
 X102.6292 Y-1.3630
 X103.7367 Y-1.4005
 X104.8290 Y-1.4277
 X105.9052 Y-1.4444
 X106.9695 Y-1.4500
 X108.0340 Y-1.4366
 X109.0966 Y-1.3962
 X110.1523 Y-1.3293
 X111.2007 Y-1.2362
 X112.2421 Y-1.1171
 X113.2753 Y-0.9725
 X114.3002 Y-0.8027
 X115.3169 Y-0.6080
 X116.3243 Y-0.3887
 X117.3236 Y-0.1450
 X118.3114 Y0.1225
 X119.2909 Y0.4137
 X120.2592 Y0.7282
 X121.2168 Y1.0655
 X122.1641 Y1.4256
 X123.1003 Y1.8080
 X124.0236 Y2.2122
 X124.9366 Y2.6381
 X125.8365 Y3.0855
 X126.7235 Y3.5537
 X127.5981 Y4.0426
 X128.4590 Y4.5517
 X129.3079 Y5.0810
 X130.1410 Y5.6299
 X130.9614 Y6.1980
 X131.7671 Y6.7858
 X132.5563 Y7.3915
 X133.3321 Y8.0157
 X134.0918 Y8.6584
 X134.8354 Y9.3182
 X135.5640 Y9.9960
 X136.2747 Y10.6906
 X136.9696 Y11.4017
 X137.6474 Y12.1300
 X138.3074 Y12.8739
 X138.9499 Y13.6339
 X139.5736 Y14.4090
 X140.1794 Y15.1991
 X140.7671 Y16.0045
 X141.3353 Y16.8247
 X141.8829 Y17.6579
 X142.4132 Y18.5055
 X142.9221 Y19.3668
 X143.4124 Y20.2416
 X143.8800 Y21.1295
 X144.3278 Y22.0295
 X144.7529 Y22.9423
 X145.1568 Y23.8657
 X145.5393 Y24.8016
 X145.8989 Y25.7483
 X146.2366 Y26.7056
 X146.5520 Y27.6751
 X146.8422 Y28.6538
 X147.1107 Y29.6426
 X147.3535 Y30.6419
 X147.5718 Y31.6481
 X147.7676 Y32.6639
 X147.9378 Y33.6900
 X148.0818 Y34.7233
 X148.2010 Y35.7646
 X148.2932 Y36.8131
 X148.3605 Y37.8683
 X148.4009 Y38.9313
 X148.4144 Y40.0004
 X148.4009 Y41.0695
 X148.3605 Y42.1325
 X148.2932 Y43.1877
 X148.2010 Y44.2362
 X148.0818 Y45.2775
 X147.9378 Y46.3107
 X147.7676 Y47.3368
 X147.5718 Y48.3527
 X147.3535 Y49.3588
 X147.1107 Y50.3582
 X146.8422 Y51.3470
 X146.5520 Y52.3257
 X146.2366 Y53.2950
 X145.8989 Y54.2524
 X145.5393 Y55.1992
 X145.1568 Y56.1351
 X144.7529 Y57.0586
 X144.3278 Y57.9711
 X143.8800 Y58.8713
 X143.4124 Y59.7592
 X142.9221 Y60.6339
 X142.4133 Y61.4953
 X141.8828 Y62.3430
 X141.3352 Y63.1760
 X140.7671 Y63.9961
 X140.1794 Y64.8017
 X139.5736 Y65.5917
 X138.9499 Y66.3668
 X138.3074 Y67.1267
 X137.6474 Y67.8707
 X136.9696 Y68.5988
 X136.2747 Y69.3100
 X135.5639 Y70.0047
 X134.8354 Y70.6823
 X134.0918 Y71.3422
 X133.3321 Y71.9848
 X132.5563 Y72.6091
 X131.7670 Y73.2148
 X130.9614 Y73.8025
 X130.1410 Y74.3707
 X129.3079 Y74.9196
 X128.4590 Y75.4489
 X127.5981 Y75.9580
 X126.7235 Y76.4469
 X125.8365 Y76.9151
 X124.9366 Y77.3624
 X124.0236 Y77.7884
 X123.1002 Y78.1925
 X122.1641 Y78.5749
 X121.2168 Y78.9350
 X120.2592 Y79.2723
 X119.2908 Y79.5869
 X118.3114 Y79.8779
 X117.3236 Y80.1456
 X116.3243 Y80.3892
 X115.3170 Y80.6086
 X114.3001 Y80.8033
 X113.2752 Y80.9730
 X112.2422 Y81.1176
 X111.2007 Y81.2367
 X110.1522 Y81.3297
 X109.0967 Y81.3966
 X108.0340 Y81.4370
 X106.9697 Y81.4505
 X105.9056 Y81.4450
 X104.8297 Y81.4288
 X103.7377 Y81.4023
 X102.6305 Y81.3657
 X101.5082 Y81.3195
 X100.3725 Y81.2642
 X99.2226 Y81.1999
 X98.0600 Y81.1271
 X96.8851 Y81.0461
 X95.6984 Y80.9571
 X94.5007 Y80.8606
 X93.2928 Y80.7570
 X92.0750 Y80.6465
 X90.8482 Y80.5297
 X89.6129 Y80.4067
 X88.3697 Y80.2778
 X87.1193 Y80.1436
 X85.8623 Y80.0042
 X84.5995 Y79.8601
 X83.3315 Y79.7115
 X82.0591 Y79.5590
 X80.7825 Y79.4027
 X79.5027 Y79.2430
 X78.2203 Y79.0803
 X76.9360 Y78.9150
 X75.6503 Y78.7472
 X74.3640 Y78.5773
 X73.0778 Y78.4059
 X71.7922 Y78.2332
 X70.5078 Y78.0594
 X69.2255 Y77.8850
 X67.9459 Y77.7101
 X66.6697 Y77.5356
 X64.1297 Y77.1876
 X62.8674 Y77.0151
 X61.6112 Y76.8440
 X60.3615 Y76.6746
 X59.1193 Y76.5073
 X57.8849 Y76.3424
 X56.6594 Y76.1803
 X55.4432 Y76.0213
 X54.2370 Y75.8659
 X53.0414 Y75.7141
 X51.8572 Y75.5665
 X50.6852 Y75.4233
 X49.5260 Y75.2851
 X48.3801 Y75.1519
 X47.2485 Y75.0242
 X46.1315 Y74.9024
 X45.0301 Y74.7868
 X43.9448 Y74.6776
 X42.8766 Y74.5753
 X41.8260 Y74.4803
 X40.7935 Y74.3926
 X39.7803 Y74.3128
 X38.7869 Y74.2413
 X37.8138 Y74.1782
 X36.8620 Y74.1240
 X35.9323 Y74.0789
 X35.0253 Y74.0434
 X34.1419 Y74.0176
 X33.2827 Y74.0019
 X32.4348 Y73.9965
 X31.5743 Y73.9856
 X30.7052 Y73.9526
 X29.8418 Y73.8979
 X28.9841 Y73.8218
 X28.1327 Y73.7244
 X27.2877 Y73.6062
 X26.4495 Y73.4673
 X25.6183 Y73.3081
 X24.7941 Y73.1288
 X23.9774 Y72.9294
 X23.1689 Y72.7105
 X22.3683 Y72.4724
 X21.5763 Y72.2152
 X20.7928 Y71.9393
 X20.0182 Y71.6448
 X19.2528 Y71.3321
 X18.4970 Y71.0014
 X17.7509 Y70.6530
 X17.0149 Y70.2872
 X16.2891 Y69.9043
 X15.5739 Y69.5045
 X14.8695 Y69.0881
 X14.1761 Y68.6553
 X13.4941 Y68.2063
 X12.8238 Y67.7415
 X12.1653 Y67.2614
 X11.5189 Y66.7657
 X10.8849 Y66.2551
 X10.2637 Y65.7298
 X9.6552 Y65.1899
 X9.0600 Y64.6358
 X8.4783 Y64.0677
 X7.9103 Y63.4859
 X7.3562 Y62.8909
 X6.8163 Y62.2824
 X6.2909 Y61.6610
 X5.7804 Y61.0270
 X5.2849 Y60.3808
 X4.8046 Y59.7222
 X4.3399 Y59.0518
 X3.8910 Y58.3698
 X3.4582 Y57.6764
 X3.0418 Y56.9720
 X2.6420 Y56.2569
 X2.2590 Y55.5311
 X1.8933 Y54.7950
 X1.5449 Y54.0490
 X1.2143 Y53.2931
 X0.9016 Y52.5278
 X0.6071 Y51.7533
 X0.3312 Y50.9697
 X0.0740 Y50.1776
 X-0.1641 Y49.3771
 X-0.3829 Y48.5686
 X-0.5821 Y47.7520
 X-0.7615 Y46.9281
 X-0.9207 Y46.0968
 X-1.0596 Y45.2585
 X-1.1778 Y44.4137
 X-1.2752 Y43.5623
 X-1.3514 Y42.7047
 X-1.4060 Y41.8412
 X-1.4391 Y40.9723
 X-1.4501 Y40.0981
 X-1.4391 Y39.2239
 X-1.4060 Y38.3550
 X-1.3514 Y37.4916
 X-1.2752 Y36.6340
 X-1.1779 Y35.7827
 X-1.0596 Y34.9377
 X-0.9207 Y34.0995
 X-0.7615 Y33.2681
 X-0.5821 Y32.4441
 X-0.3829 Y31.6277
 X-0.1641 Y30.8192
 X0.0740 Y30.0188
 X0.3312 Y29.2265
 X0.6072 Y28.4431
 X0.9016 Y27.6685
 X1.2143 Y26.9034
 X1.5449 Y26.1475
 X1.8933 Y25.4014
 X2.2590 Y24.6654
 X2.6419 Y23.9397
 X3.0418 Y23.2245
 X3.4582 Y22.5200
 X3.8910 Y21.8267
 X4.3399 Y21.1448
 X4.8046 Y20.4744
 X5.2848 Y19.8159
 X5.7804 Y19.1696
 X6.2910 Y18.5357
 X6.8163 Y17.9144
 X7.3561 Y17.3060
 X7.9103 Y16.7106
 X8.4784 Y16.1289
 X9.0601 Y15.5609
 X9.6552 Y15.0070
 X10.2636 Y14.4670
 X10.8850 Y13.9417
 X11.5189 Y13.4311
 X12.1653 Y12.9356
 X12.8238 Y12.4553
 X13.4942 Y11.9907
 X14.1761 Y11.5417
 X14.8696 Y11.1089
 X15.5739 Y10.6926
 X16.2891 Y10.2928
 X17.0149 Y9.9098
 X17.7509 Y9.5440
 X18.4971 Y9.1956
 X19.2529 Y8.8650
 X20.0183 Y8.5523
 X20.7928 Y8.2579
 X21.5762 Y7.9820
 X22.3683 Y7.7248
 X23.1691 Y7.4867
 X23.9775 Y7.2679
 X24.7940 Y7.0686
 X25.6182 Y6.8892
 X26.4495 Y6.7300
 X27.2878 Y6.5911
 X28.1327 Y6.4729
 X28.9841 Y6.3755
 X29.8418 Y6.2993
 X30.7052 Y6.2447
 X31.5742 Y6.2116
 X32.4346 Y6.2007
G0 Z2.0000
M5 (stop spindle)
G04 P3 (wait for 3 seconds)
G0 Z2.0000
M2 (end program)
