;PYCAM-META-DATA: Filename: None
;PYCAM-META-DATA: Timestamp: 2012-04-05 17:42:42.411345
;PYCAM-META-DATA: Version: 0.5.1
;Estimated machine time: 4 minutes
G40 (disable tool radius compensation)
G49 (disable tool length compensation)
G80 (cancel modal motion)
G54 (select coordinate system 1)
G90 (disable incremental moves)
G21 (metric)
G61 (exact path mode)
F200.00000
S1000.00000
;PYCAM_TOOLPATH_SETTINGS: START
;[Bounds]
;maxz = 0.0
;maxx = 57.72807553
;maxy = 57.7865665
;minx = -4.72883083
;miny = -4.6702315
;minz = -4.1
;
;[Tool]
;torus_radius = 0.25
;speed = 1000.0
;shape = SphericalCutter
;tool_radius = 0.5
;feedrate = 200.0
;
;[Process]
;engrave_offset = 1.45
;step_down = 2.1
;generator = EngraveCutter
;postprocessor = SimpleCutter
;milling_style = conventional
;material_allowance = 0.0
;pocketing_type = none
;path_direction = x
;
;PYCAM_TOOLPATH_SETTINGS: END
T3 M6
G0 Z2.0000
M3 (start spindle)
G04 P3 (wait for 3 seconds)
 X11.0072 Y17.6450
G1 Z-2.0500
 X11.0150 Y17.6485
 X11.0178 Y17.6491
 X11.0223 Y17.6492
 X11.0281 Y17.6483
 X11.0336 Y17.6462
 X11.0374 Y17.6439
 X11.0395 Y17.6419
 X11.0448 Y17.6347
 X11.0482 Y17.6270
 X11.0489 Y17.6238
 X11.0490 Y17.6193
 X11.0480 Y17.6133
 X11.0459 Y17.6076
 X11.0438 Y17.6041
 X11.0413 Y17.6015
 X11.0343 Y17.5964
 X11.0273 Y17.5933
 X11.0238 Y17.5925
 X11.0196 Y17.5924
 X11.0140 Y17.5933
 X11.0083 Y17.5954
 X11.0044 Y17.5978
 X11.0019 Y17.6001
 X10.9968 Y17.6073
 X10.9933 Y17.6150
 X10.9926 Y17.6181
 X10.9925 Y17.6224
 X10.9934 Y17.6283
 X10.9954 Y17.6337
 X10.9977 Y17.6374
 X10.9999 Y17.6397
 X11.0072 Y17.6450
G0 Z2.0000
 X41.9651 Y17.5968
G1 Z-2.0500
 X41.9590 Y17.6012
 X41.9565 Y17.6039
 X41.9540 Y17.6081
 X41.9519 Y17.6135
 X41.9510 Y17.6193
 X41.9511 Y17.6236
 X41.9517 Y17.6263
 X41.9555 Y17.6348
 X41.9610 Y17.6424
 X41.9631 Y17.6443
 X41.9660 Y17.6461
 X41.9714 Y17.6481
 X41.9774 Y17.6491
 X41.9823 Y17.6490
 X41.9863 Y17.6481
 X41.9934 Y17.6449
 X41.9997 Y17.6404
 X42.0019 Y17.6379
 X42.0044 Y17.6339
 X42.0066 Y17.6282
 X42.0075 Y17.6226
 X42.0074 Y17.6187
 X42.0068 Y17.6160
 X42.0027 Y17.6071
 X41.9970 Y17.5990
 X41.9952 Y17.5974
 X41.9919 Y17.5954
 X41.9870 Y17.5935
 X41.9809 Y17.5925
 X41.9763 Y17.5926
 X41.9725 Y17.5935
 X41.9651 Y17.5968
G0 Z2.0000
 X29.9990 Y26.5582
G1 Z-2.0500
 X29.9808 Y26.1986
 X29.9277 Y25.8513
 X29.8417 Y25.5166
 X29.7245 Y25.1963
 X29.5775 Y24.8911
 X29.4022 Y24.6027
 X29.2003 Y24.3328
 X28.9741 Y24.0838
 X28.7248 Y23.8575
 X28.4549 Y23.6555
 X28.1666 Y23.4803
 X27.8615 Y23.3333
 X27.5410 Y23.2160
 X27.2064 Y23.1300
 X26.8592 Y23.0769
 X26.4996 Y23.0588
 X26.1400 Y23.0769
 X25.7927 Y23.1300
 X25.4584 Y23.2160
 X25.1382 Y23.3332
 X24.8329 Y23.4803
 X24.5448 Y23.6554
 X24.2751 Y23.8573
 X24.0260 Y24.0836
 X23.7999 Y24.3325
 X23.5981 Y24.6024
 X23.4230 Y24.8908
 X23.2761 Y25.1959
 X23.1588 Y25.5166
 X23.0727 Y25.8513
 X23.0198 Y26.1982
 X23.0017 Y26.5582
 X23.0198 Y26.9182
 X23.0727 Y27.2650
 X23.1588 Y27.5996
 X23.2760 Y27.9200
 X23.4229 Y28.2250
 X23.5980 Y28.5133
 X23.7997 Y28.7829
 X24.0259 Y29.0318
 X24.2750 Y29.2582
 X24.5445 Y29.4598
 X24.8325 Y29.6348
 X25.1378 Y29.7817
 X25.4584 Y29.8991
 X25.7927 Y29.9851
 X26.1396 Y30.0380
 X26.4996 Y30.0561
 X26.8596 Y30.0380
 X27.2064 Y29.9851
 X27.5410 Y29.8990
 X27.8619 Y29.7816
 X28.1670 Y29.6348
 X28.4552 Y29.4597
 X28.7249 Y29.2580
 X28.9742 Y29.0316
 X29.2006 Y28.7826
 X29.4023 Y28.5130
 X29.5776 Y28.2246
 X29.7246 Y27.9196
 X29.8418 Y27.5995
 X29.9277 Y27.2650
 X29.9808 Y26.9178
 X29.9990 Y26.5582
G0 Z2.0000
 X26.5333 Y44.4313
G1 Z-2.0500
 X26.5330 Y44.4261
 X26.5326 Y44.4233
 X26.5320 Y44.4209
 X26.5312 Y44.4188
 X26.5300 Y44.4164
 X26.5285 Y44.4139
 X26.5260 Y44.4105
 X26.5234 Y44.4076
 X26.5208 Y44.4052
 X26.5173 Y44.4027
 X26.5141 Y44.4007
 X26.5115 Y44.3995
 X26.5100 Y44.3989
 X26.5081 Y44.3984
 X26.5045 Y44.3979
 X26.4996 Y44.3976
 X26.4948 Y44.3979
 X26.4912 Y44.3984
 X26.4895 Y44.3988
 X26.4883 Y44.3993
 X26.4858 Y44.4005
 X26.4828 Y44.4023
 X26.4800 Y44.4044
 X26.4773 Y44.4069
 X26.4746 Y44.4099
 X26.4719 Y44.4135
 X26.4706 Y44.4156
 X26.4697 Y44.4175
 X26.4686 Y44.4204
 X26.4681 Y44.4224
 X26.4675 Y44.4261
 X26.4673 Y44.4313
 X26.4675 Y44.4367
 X26.4681 Y44.4404
 X26.4686 Y44.4422
 X26.4696 Y44.4450
 X26.4707 Y44.4473
 X26.4719 Y44.4492
 X26.4744 Y44.4526
 X26.4773 Y44.4558
 X26.4800 Y44.4582
 X26.4831 Y44.4606
 X26.4858 Y44.4622
 X26.4874 Y44.4630
 X26.4900 Y44.4639
 X26.4917 Y44.4644
 X26.4938 Y44.4647
 X26.4996 Y44.4650
 X26.5054 Y44.4647
 X26.5076 Y44.4644
 X26.5095 Y44.4639
 X26.5124 Y44.4628
 X26.5141 Y44.4620
 X26.5170 Y44.4603
 X26.5208 Y44.4574
 X26.5234 Y44.4550
 X26.5262 Y44.4520
 X26.5285 Y44.4488
 X26.5299 Y44.4465
 X26.5313 Y44.4437
 X26.5320 Y44.4417
 X26.5326 Y44.4395
 X26.5330 Y44.4367
 X26.5333 Y44.4313
G0 Z2.0000
 X54.3809 Y27.2773
G1 Z-2.0500
 X54.3539 Y27.9922
 X54.3087 Y28.7024
 X54.2462 Y29.4079
 X54.1660 Y30.1085
 X54.0688 Y30.8037
 X53.9544 Y31.4933
 X53.8235 Y32.1771
 X53.6758 Y32.8552
 X53.5119 Y33.5270
 X53.3319 Y34.1922
 X53.1360 Y34.8510
 X52.9243 Y35.5028
 X52.6973 Y36.1472
 X52.4550 Y36.7847
 X52.1978 Y37.4142
 X51.9258 Y38.0362
 X51.6392 Y38.6502
 X51.3382 Y39.2558
 X51.0231 Y39.8530
 X50.6940 Y40.4414
 X50.3516 Y41.0208
 X49.9954 Y41.5915
 X49.6259 Y42.1526
 X49.2438 Y42.7038
 X48.8488 Y43.2457
 X48.4410 Y43.7776
 X48.0209 Y44.2993
 X47.5886 Y44.8105
 X47.1445 Y45.3109
 X46.6888 Y45.8006
 X46.2214 Y46.2793
 X45.7428 Y46.7466
 X45.2532 Y47.2025
 X44.7524 Y47.6467
 X44.2414 Y48.0788
 X43.7199 Y48.4990
 X43.1880 Y48.9067
 X42.6462 Y49.3019
 X42.0948 Y49.6841
 X41.5337 Y50.0536
 X40.9631 Y50.4097
 X40.3836 Y50.7524
 X39.7950 Y51.0814
 X39.1979 Y51.3964
 X38.5922 Y51.6974
 X37.9785 Y51.9839
 X37.3567 Y52.2561
 X36.7268 Y52.5134
 X36.0896 Y52.7557
 X35.4448 Y52.9828
 X34.7931 Y53.1944
 X34.1343 Y53.3904
 X33.4689 Y53.5704
 X32.7971 Y53.7344
 X32.1193 Y53.8819
 X31.4352 Y54.0131
 X30.7454 Y54.1274
 X30.0499 Y54.2247
 X29.3496 Y54.3046
 X28.6440 Y54.3673
 X27.9337 Y54.4123
 X27.2189 Y54.4396
 X26.4996 Y54.4486
 X25.7804 Y54.4396
 X25.0656 Y54.4123
 X24.3554 Y54.3673
 X23.6499 Y54.3046
 X22.9495 Y54.2247
 X22.2542 Y54.1274
 X21.5642 Y54.0131
 X20.8804 Y53.8818
 X20.2026 Y53.7344
 X19.5307 Y53.5704
 X18.8655 Y53.3904
 X18.2067 Y53.1944
 X17.5550 Y52.9828
 X16.9104 Y52.7557
 X16.2731 Y52.5134
 X15.6433 Y52.2561
 X15.0214 Y51.9839
 X14.4076 Y51.6974
 X13.8020 Y51.3964
 X13.2050 Y51.0814
 X12.6164 Y50.7524
 X12.0367 Y50.4096
 X11.4663 Y50.0536
 X10.9052 Y49.6842
 X10.3537 Y49.3018
 X9.8120 Y48.9067
 X9.2801 Y48.4990
 X8.7585 Y48.0788
 X8.2474 Y47.6467
 X7.7468 Y47.2025
 X7.2571 Y46.7466
 X6.7785 Y46.2793
 X6.3111 Y45.8006
 X5.8552 Y45.3109
 X5.4112 Y44.8105
 X4.9789 Y44.2993
 X4.5588 Y43.7777
 X4.1509 Y43.2458
 X3.7559 Y42.7040
 X3.3736 Y42.1526
 X3.0042 Y41.5914
 X2.6480 Y41.0209
 X2.3054 Y40.4414
 X1.9764 Y39.8529
 X1.6614 Y39.2558
 X1.3604 Y38.6502
 X1.0737 Y38.0363
 X0.8017 Y37.4144
 X0.5443 Y36.7848
 X0.3020 Y36.1472
 X0.0750 Y35.5028
 X-0.1367 Y34.8510
 X-0.3326 Y34.1923
 X-0.5127 Y33.5271
 X-0.6766 Y32.8552
 X-0.8242 Y32.1772
 X-0.9553 Y31.4934
 X-1.0696 Y30.8037
 X-1.1669 Y30.1084
 X-1.2470 Y29.4079
 X-1.3096 Y28.7024
 X-1.3546 Y27.9922
 X-1.3818 Y27.2773
 X-1.3909 Y26.5582
 X-1.3818 Y25.8390
 X-1.3546 Y25.1241
 X-1.3096 Y24.4137
 X-1.2470 Y23.7082
 X-1.1669 Y23.0078
 X-1.0696 Y22.3124
 X-0.9553 Y21.6226
 X-0.8242 Y20.9386
 X-0.6766 Y20.2606
 X-0.5127 Y19.5888
 X-0.3326 Y18.9235
 X-0.1367 Y18.2647
 X0.0750 Y17.6130
 X0.3020 Y16.9683
 X0.5443 Y16.3309
 X0.8017 Y15.7011
 X1.0738 Y15.0794
 X1.3603 Y14.4656
 X1.6613 Y13.8597
 X1.9764 Y13.2627
 X2.3054 Y12.6742
 X2.6481 Y12.0945
 X3.0042 Y11.5243
 X3.3735 Y10.9630
 X3.7559 Y10.4116
 X4.1510 Y9.8698
 X4.5588 Y9.3379
 X4.9789 Y8.8164
 X5.4111 Y8.3053
 X5.8552 Y7.8047
 X6.3111 Y7.3150
 X6.7785 Y6.8364
 X7.2571 Y6.3691
 X7.7468 Y5.9132
 X8.2474 Y5.4691
 X8.7585 Y5.0369
 X9.2801 Y4.6168
 X9.8120 Y4.2091
 X10.3537 Y3.8140
 X10.9053 Y3.4317
 X11.4664 Y3.0624
 X12.0368 Y2.7063
 X12.6164 Y2.3636
 X13.2050 Y2.0347
 X13.8020 Y1.7196
 X14.4076 Y1.4187
 X15.0215 Y1.1320
 X15.6434 Y0.8600
 X16.2731 Y0.6027
 X16.9105 Y0.3604
 X17.5551 Y0.1335
 X18.2067 Y-0.0781
 X18.8656 Y-0.2741
 X19.5308 Y-0.4541
 X20.2025 Y-0.6181
 X20.8805 Y-0.7657
 X21.5645 Y-0.8967
 X22.2542 Y-1.0110
 X22.9493 Y-1.1082
 X23.6499 Y-1.1884
 X24.3554 Y-1.2510
 X25.0657 Y-1.2960
 X25.7804 Y-1.3231
 X26.4996 Y-1.3323
 X27.2189 Y-1.3231
 X27.9336 Y-1.2960
 X28.6439 Y-1.2510
 X29.3496 Y-1.1884
 X30.0501 Y-1.1082
 X30.7454 Y-1.0110
 X31.4350 Y-0.8967
 X32.1191 Y-0.7657
 X32.7972 Y-0.6181
 X33.4689 Y-0.4541
 X34.1343 Y-0.2741
 X34.7931 Y-0.0781
 X35.4447 Y0.1334
 X36.0895 Y0.3604
 X36.7268 Y0.6027
 X37.3566 Y0.8600
 X37.9784 Y1.1321
 X38.5922 Y1.4187
 X39.1979 Y1.7196
 X39.7951 Y2.0347
 X40.3836 Y2.3637
 X40.9630 Y2.7063
 X41.5336 Y3.0624
 X42.0947 Y3.4317
 X42.6461 Y3.8140
 X43.1880 Y4.2091
 X43.7198 Y4.6169
 X44.2413 Y5.0369
 X44.7524 Y5.4690
 X45.2531 Y5.9132
 X45.7428 Y6.3691
 X46.2214 Y6.8364
 X46.6888 Y7.3151
 X47.1445 Y7.8048
 X47.5886 Y8.3052
 X48.0209 Y8.8164
 X48.4410 Y9.3380
 X48.8488 Y9.8699
 X49.2437 Y10.4117
 X49.6260 Y10.9630
 X49.9954 Y11.5242
 X50.3515 Y12.0946
 X50.6940 Y12.6742
 X51.0231 Y13.2626
 X51.3382 Y13.8598
 X51.6392 Y14.4656
 X51.9258 Y15.0795
 X52.1978 Y15.7013
 X52.4550 Y16.3310
 X52.6973 Y16.9683
 X52.9243 Y17.6130
 X53.1360 Y18.2647
 X53.3319 Y18.9235
 X53.5119 Y19.5888
 X53.6758 Y20.2606
 X53.8235 Y20.9387
 X53.9544 Y21.6227
 X54.0688 Y22.3124
 X54.1660 Y23.0077
 X54.2462 Y23.7082
 X54.3087 Y24.4137
 X54.3539 Y25.1241
 X54.3809 Y25.8390
 X54.3901 Y26.5582
 X54.3809 Y27.2773
G0 Z2.0000
 X11.0072 Y17.6450
G1 Z-4.1000
 X11.0150 Y17.6485
 X11.0178 Y17.6491
 X11.0223 Y17.6492
 X11.0281 Y17.6483
 X11.0336 Y17.6462
 X11.0374 Y17.6439
 X11.0395 Y17.6419
 X11.0448 Y17.6347
 X11.0482 Y17.6270
 X11.0489 Y17.6238
 X11.0490 Y17.6193
 X11.0480 Y17.6133
 X11.0459 Y17.6076
 X11.0438 Y17.6041
 X11.0413 Y17.6015
 X11.0343 Y17.5964
 X11.0273 Y17.5933
 X11.0238 Y17.5925
 X11.0196 Y17.5924
 X11.0140 Y17.5933
 X11.0083 Y17.5954
 X11.0044 Y17.5978
 X11.0019 Y17.6001
 X10.9968 Y17.6073
 X10.9933 Y17.6150
 X10.9926 Y17.6181
 X10.9925 Y17.6224
 X10.9934 Y17.6283
 X10.9954 Y17.6337
 X10.9977 Y17.6374
 X10.9999 Y17.6397
 X11.0072 Y17.6450
G0 Z2.0000
 X41.9651 Y17.5968
G1 Z-4.1000
 X41.9590 Y17.6012
 X41.9565 Y17.6039
 X41.9540 Y17.6081
 X41.9519 Y17.6135
 X41.9510 Y17.6193
 X41.9511 Y17.6236
 X41.9517 Y17.6263
 X41.9555 Y17.6348
 X41.9610 Y17.6424
 X41.9631 Y17.6443
 X41.9660 Y17.6461
 X41.9714 Y17.6481
 X41.9774 Y17.6491
 X41.9823 Y17.6490
 X41.9863 Y17.6481
 X41.9934 Y17.6449
 X41.9997 Y17.6404
 X42.0019 Y17.6379
 X42.0044 Y17.6339
 X42.0066 Y17.6282
 X42.0075 Y17.6226
 X42.0074 Y17.6187
 X42.0068 Y17.6160
 X42.0027 Y17.6071
 X41.9970 Y17.5990
 X41.9952 Y17.5974
 X41.9919 Y17.5954
 X41.9870 Y17.5935
 X41.9809 Y17.5925
 X41.9763 Y17.5926
 X41.9725 Y17.5935
 X41.9651 Y17.5968
G0 Z2.0000
 X29.9990 Y26.5582
G1 Z-4.1000
 X29.9808 Y26.1986
 X29.9277 Y25.8513
 X29.8417 Y25.5166
 X29.7245 Y25.1963
 X29.5775 Y24.8911
 X29.4022 Y24.6027
 X29.2003 Y24.3328
 X28.9741 Y24.0838
 X28.7248 Y23.8575
 X28.4549 Y23.6555
 X28.1666 Y23.4803
 X27.8615 Y23.3333
 X27.5410 Y23.2160
 X27.2064 Y23.1300
 X26.8592 Y23.0769
 X26.4996 Y23.0588
 X26.1400 Y23.0769
 X25.7927 Y23.1300
 X25.4584 Y23.2160
 X25.1382 Y23.3332
 X24.8329 Y23.4803
 X24.5448 Y23.6554
 X24.2751 Y23.8573
 X24.0260 Y24.0836
 X23.7999 Y24.3325
 X23.5981 Y24.6024
 X23.4230 Y24.8908
 X23.2761 Y25.1959
 X23.1588 Y25.5166
 X23.0727 Y25.8513
 X23.0198 Y26.1982
 X23.0017 Y26.5582
 X23.0198 Y26.9182
 X23.0727 Y27.2650
 X23.1588 Y27.5996
 X23.2760 Y27.9200
 X23.4229 Y28.2250
 X23.5980 Y28.5133
 X23.7997 Y28.7829
 X24.0259 Y29.0318
 X24.2750 Y29.2582
 X24.5445 Y29.4598
 X24.8325 Y29.6348
 X25.1378 Y29.7817
 X25.4584 Y29.8991
 X25.7927 Y29.9851
 X26.1396 Y30.0380
 X26.4996 Y30.0561
 X26.8596 Y30.0380
 X27.2064 Y29.9851
 X27.5410 Y29.8990
 X27.8619 Y29.7816
 X28.1670 Y29.6348
 X28.4552 Y29.4597
 X28.7249 Y29.2580
 X28.9742 Y29.0316
 X29.2006 Y28.7826
 X29.4023 Y28.5130
 X29.5776 Y28.2246
 X29.7246 Y27.9196
 X29.8418 Y27.5995
 X29.9277 Y27.2650
 X29.9808 Y26.9178
 X29.9990 Y26.5582
G0 Z2.0000
 X26.5333 Y44.4313
G1 Z-4.1000
 X26.5330 Y44.4261
 X26.5326 Y44.4233
 X26.5320 Y44.4209
 X26.5312 Y44.4188
 X26.5300 Y44.4164
 X26.5285 Y44.4139
 X26.5260 Y44.4105
 X26.5234 Y44.4076
 X26.5208 Y44.4052
 X26.5173 Y44.4027
 X26.5141 Y44.4007
 X26.5115 Y44.3995
 X26.5100 Y44.3989
 X26.5081 Y44.3984
 X26.5045 Y44.3979
 X26.4996 Y44.3976
 X26.4948 Y44.3979
 X26.4912 Y44.3984
 X26.4895 Y44.3988
 X26.4883 Y44.3993
 X26.4858 Y44.4005
 X26.4828 Y44.4023
 X26.4800 Y44.4044
 X26.4773 Y44.4069
 X26.4746 Y44.4099
 X26.4719 Y44.4135
 X26.4706 Y44.4156
 X26.4697 Y44.4175
 X26.4686 Y44.4204
 X26.4681 Y44.4224
 X26.4675 Y44.4261
 X26.4673 Y44.4313
 X26.4675 Y44.4367
 X26.4681 Y44.4404
 X26.4686 Y44.4422
 X26.4696 Y44.4450
 X26.4707 Y44.4473
 X26.4719 Y44.4492
 X26.4744 Y44.4526
 X26.4773 Y44.4558
 X26.4800 Y44.4582
 X26.4831 Y44.4606
 X26.4858 Y44.4622
 X26.4874 Y44.4630
 X26.4900 Y44.4639
 X26.4917 Y44.4644
 X26.4938 Y44.4647
 X26.4996 Y44.4650
 X26.5054 Y44.4647
 X26.5076 Y44.4644
 X26.5095 Y44.4639
 X26.5124 Y44.4628
 X26.5141 Y44.4620
 X26.5170 Y44.4603
 X26.5208 Y44.4574
 X26.5234 Y44.4550
 X26.5262 Y44.4520
 X26.5285 Y44.4488
 X26.5299 Y44.4465
 X26.5313 Y44.4437
 X26.5320 Y44.4417
 X26.5326 Y44.4395
 X26.5330 Y44.4367
 X26.5333 Y44.4313
G0 Z2.0000
 X54.3809 Y27.2773
G1 Z-4.1000
 X54.3539 Y27.9922
 X54.3087 Y28.7024
 X54.2462 Y29.4079
 X54.1660 Y30.1085
 X54.0688 Y30.8037
 X53.9544 Y31.4933
 X53.8235 Y32.1771
 X53.6758 Y32.8552
 X53.5119 Y33.5270
 X53.3319 Y34.1922
 X53.1360 Y34.8510
 X52.9243 Y35.5028
 X52.6973 Y36.1472
 X52.4550 Y36.7847
 X52.1978 Y37.4142
 X51.9258 Y38.0362
 X51.6392 Y38.6502
 X51.3382 Y39.2558
 X51.0231 Y39.8530
 X50.6940 Y40.4414
 X50.3516 Y41.0208
 X49.9954 Y41.5915
 X49.6259 Y42.1526
 X49.2438 Y42.7038
 X48.8488 Y43.2457
 X48.4410 Y43.7776
 X48.0209 Y44.2993
 X47.5886 Y44.8105
 X47.1445 Y45.3109
 X46.6888 Y45.8006
 X46.2214 Y46.2793
 X45.7428 Y46.7466
 X45.2532 Y47.2025
 X44.7524 Y47.6467
 X44.2414 Y48.0788
 X43.7199 Y48.4990
 X43.1880 Y48.9067
 X42.6462 Y49.3019
 X42.0948 Y49.6841
 X41.5337 Y50.0536
 X40.9631 Y50.4097
 X40.3836 Y50.7524
 X39.7950 Y51.0814
 X39.1979 Y51.3964
 X38.5922 Y51.6974
 X37.9785 Y51.9839
 X37.3567 Y52.2561
 X36.7268 Y52.5134
 X36.0896 Y52.7557
 X35.4448 Y52.9828
 X34.7931 Y53.1944
 X34.1343 Y53.3904
 X33.4689 Y53.5704
 X32.7971 Y53.7344
 X32.1193 Y53.8819
 X31.4352 Y54.0131
 X30.7454 Y54.1274
 X30.0499 Y54.2247
 X29.3496 Y54.3046
 X28.6440 Y54.3673
 X27.9337 Y54.4123
 X27.2189 Y54.4396
 X26.4996 Y54.4486
 X25.7804 Y54.4396
 X25.0656 Y54.4123
 X24.3554 Y54.3673
 X23.6499 Y54.3046
 X22.9495 Y54.2247
 X22.2542 Y54.1274
 X21.5642 Y54.0131
 X20.8804 Y53.8818
 X20.2026 Y53.7344
 X19.5307 Y53.5704
 X18.8655 Y53.3904
 X18.2067 Y53.1944
 X17.5550 Y52.9828
 X16.9104 Y52.7557
 X16.2731 Y52.5134
 X15.6433 Y52.2561
 X15.0214 Y51.9839
 X14.4076 Y51.6974
 X13.8020 Y51.3964
 X13.2050 Y51.0814
 X12.6164 Y50.7524
 X12.0367 Y50.4096
 X11.4663 Y50.0536
 X10.9052 Y49.6842
 X10.3537 Y49.3018
 X9.8120 Y48.9067
 X9.2801 Y48.4990
 X8.7585 Y48.0788
 X8.2474 Y47.6467
 X7.7468 Y47.2025
 X7.2571 Y46.7466
 X6.7785 Y46.2793
 X6.3111 Y45.8006
 X5.8552 Y45.3109
 X5.4112 Y44.8105
 X4.9789 Y44.2993
 X4.5588 Y43.7777
 X4.1509 Y43.2458
 X3.7559 Y42.7040
 X3.3736 Y42.1526
 X3.0042 Y41.5914
 X2.6480 Y41.0209
 X2.3054 Y40.4414
 X1.9764 Y39.8529
 X1.6614 Y39.2558
 X1.3604 Y38.6502
 X1.0737 Y38.0363
 X0.8017 Y37.4144
 X0.5443 Y36.7848
 X0.3020 Y36.1472
 X0.0750 Y35.5028
 X-0.1367 Y34.8510
 X-0.3326 Y34.1923
 X-0.5127 Y33.5271
 X-0.6766 Y32.8552
 X-0.8242 Y32.1772
 X-0.9553 Y31.4934
 X-1.0696 Y30.8037
 X-1.1669 Y30.1084
 X-1.2470 Y29.4079
 X-1.3096 Y28.7024
 X-1.3546 Y27.9922
 X-1.3818 Y27.2773
 X-1.3909 Y26.5582
 X-1.3818 Y25.8390
 X-1.3546 Y25.1241
 X-1.3096 Y24.4137
 X-1.2470 Y23.7082
 X-1.1669 Y23.0078
 X-1.0696 Y22.3124
 X-0.9553 Y21.6226
 X-0.8242 Y20.9386
 X-0.6766 Y20.2606
 X-0.5127 Y19.5888
 X-0.3326 Y18.9235
 X-0.1367 Y18.2647
 X0.0750 Y17.6130
 X0.3020 Y16.9683
 X0.5443 Y16.3309
 X0.8017 Y15.7011
 X1.0738 Y15.0794
 X1.3603 Y14.4656
 X1.6613 Y13.8597
 X1.9764 Y13.2627
 X2.3054 Y12.6742
 X2.6481 Y12.0945
 X3.0042 Y11.5243
 X3.3735 Y10.9630
 X3.7559 Y10.4116
 X4.1510 Y9.8698
 X4.5588 Y9.3379
 X4.9789 Y8.8164
 X5.4111 Y8.3053
 X5.8552 Y7.8047
 X6.3111 Y7.3150
 X6.7785 Y6.8364
 X7.2571 Y6.3691
 X7.7468 Y5.9132
 X8.2474 Y5.4691
 X8.7585 Y5.0369
 X9.2801 Y4.6168
 X9.8120 Y4.2091
 X10.3537 Y3.8140
 X10.9053 Y3.4317
 X11.4664 Y3.0624
 X12.0368 Y2.7063
 X12.6164 Y2.3636
 X13.2050 Y2.0347
 X13.8020 Y1.7196
 X14.4076 Y1.4187
 X15.0215 Y1.1320
 X15.6434 Y0.8600
 X16.2731 Y0.6027
 X16.9105 Y0.3604
 X17.5551 Y0.1335
 X18.2067 Y-0.0781
 X18.8656 Y-0.2741
 X19.5308 Y-0.4541
 X20.2025 Y-0.6181
 X20.8805 Y-0.7657
 X21.5645 Y-0.8967
 X22.2542 Y-1.0110
 X22.9493 Y-1.1082
 X23.6499 Y-1.1884
 X24.3554 Y-1.2510
 X25.0657 Y-1.2960
 X25.7804 Y-1.3231
 X26.4996 Y-1.3323
 X27.2189 Y-1.3231
 X27.9336 Y-1.2960
 X28.6439 Y-1.2510
 X29.3496 Y-1.1884
 X30.0501 Y-1.1082
 X30.7454 Y-1.0110
 X31.4350 Y-0.8967
 X32.1191 Y-0.7657
 X32.7972 Y-0.6181
 X33.4689 Y-0.4541
 X34.1343 Y-0.2741
 X34.7931 Y-0.0781
 X35.4447 Y0.1334
 X36.0895 Y0.3604
 X36.7268 Y0.6027
 X37.3566 Y0.8600
 X37.9784 Y1.1321
 X38.5922 Y1.4187
 X39.1979 Y1.7196
 X39.7951 Y2.0347
 X40.3836 Y2.3637
 X40.9630 Y2.7063
 X41.5336 Y3.0624
 X42.0947 Y3.4317
 X42.6461 Y3.8140
 X43.1880 Y4.2091
 X43.7198 Y4.6169
 X44.2413 Y5.0369
 X44.7524 Y5.4690
 X45.2531 Y5.9132
 X45.7428 Y6.3691
 X46.2214 Y6.8364
 X46.6888 Y7.3151
 X47.1445 Y7.8048
 X47.5886 Y8.3052
 X48.0209 Y8.8164
 X48.4410 Y9.3380
 X48.8488 Y9.8699
 X49.2437 Y10.4117
 X49.6260 Y10.9630
 X49.9954 Y11.5242
 X50.3515 Y12.0946
 X50.6940 Y12.6742
 X51.0231 Y13.2626
 X51.3382 Y13.8598
 X51.6392 Y14.4656
 X51.9258 Y15.0795
 X52.1978 Y15.7013
 X52.4550 Y16.3310
 X52.6973 Y16.9683
 X52.9243 Y17.6130
 X53.1360 Y18.2647
 X53.3319 Y18.9235
 X53.5119 Y19.5888
 X53.6758 Y20.2606
 X53.8235 Y20.9387
 X53.9544 Y21.6227
 X54.0688 Y22.3124
 X54.1660 Y23.0077
 X54.2462 Y23.7082
 X54.3087 Y24.4137
 X54.3539 Y25.1241
 X54.3809 Y25.8390
 X54.3901 Y26.5582
 X54.3809 Y27.2773
G0 Z2.0000
M5 (stop spindle)
G04 P3 (wait for 3 seconds)
G0 Z2.0000
M2 (end program)
