;PYCAM-META-DATA: Filename: /home/matt/cad/jewellery tests/aluminium pocket.dxf
;PYCAM-META-DATA: Timestamp: 2012-01-17 14:05:00.856292
;PYCAM-META-DATA: Version: 0.5.1
;Estimated machine time: 1 minutes
G40 (disable tool radius compensation)
G49 (disable tool length compensation)
G80 (cancel modal motion)
G54 (select coordinate system 1)
G90 (disable incremental moves)
G21 (metric)
G61 (exact path mode)
F200.00000
S1000.00000
;PYCAM_TOOLPATH_SETTINGS: START
;[Bounds]
;maxz = 0.0
;maxx = 46.7972454477
;maxy = 34.4374499645
;minx = 14.2
;miny = 2.59
;minz = -1.5
;
;[Tool]
;torus_radius = 0.25
;speed = 1000.0
;shape = CylindricalCutter
;tool_radius = 2.0
;feedrate = 200.0
;
;[Process]
;engrave_offset = 2.0
;step_down = 0.75
;generator = EngraveCutter
;postprocessor = SimpleCutter
;milling_style = conventional
;material_allowance = 0.0
;pocketing_type = holes
;path_direction = x
;
;PYCAM_TOOLPATH_SETTINGS: END
T1 M6
G0 Z10.0000
M3 (start spindle)
G04 P3 (wait for 3 seconds)
 X36.3729 Y8.0000
G1 Z-0.7500
 X36.3657 Y7.9273
 X36.3445 Y7.8573
 X36.3101 Y7.7928
 X36.2637 Y7.7363
 X36.2072 Y7.6899
 X36.1427 Y7.6555
 X36.0727 Y7.6343
 X36.0000 Y7.6271
 X35.9273 Y7.6343
 X35.8573 Y7.6555
 X35.7928 Y7.6899
 X35.7363 Y7.7363
 X35.6899 Y7.7928
 X35.6555 Y7.8573
 X35.6343 Y7.9273
 X35.6271 Y8.0000
 X35.6343 Y8.0727
 X35.6555 Y8.1427
 X35.6899 Y8.2072
 X35.7363 Y8.2637
 X35.7928 Y8.3101
 X35.8573 Y8.3445
 X35.9273 Y8.3657
 X36.0000 Y8.3729
 X36.0727 Y8.3657
 X36.1427 Y8.3445
 X36.2072 Y8.3101
 X36.2637 Y8.2637
 X36.3101 Y8.2072
 X36.3445 Y8.1427
 X36.3657 Y8.0727
 X36.3729 Y8.0000
 X39.9903
 X39.9136 Y7.2215
 X39.6866 Y6.4730
 X39.3178 Y5.7831
 X38.8216 Y5.1784
 X38.2169 Y4.6822
 X37.5270 Y4.3134
 X36.7785 Y4.0864
 X36.0000 Y4.0097
 X35.2215 Y4.0864
 X34.4730 Y4.3134
 X33.7831 Y4.6822
 X33.1784 Y5.1784
 X32.6822 Y5.7831
 X32.3134 Y6.4730
 X32.0864 Y7.2215
 X32.0097 Y8.0000
 X32.0864 Y8.7785
 X32.3134 Y9.5270
 X32.6822 Y10.2169
 X33.1784 Y10.8216
 X33.7831 Y11.3178
 X34.4730 Y11.6866
 X35.2215 Y11.9136
 X36.0000 Y11.9903
 X36.7785 Y11.9136
 X37.5270 Y11.6866
 X38.2169 Y11.3178
 X38.8216 Y10.8216
 X39.3178 Y10.2169
 X39.6866 Y9.5270
 X39.9136 Y8.7785
 X39.9903 Y8.0000
G0 Z10.0000
 X22.3729
G1 Z-0.7500
 X22.3657 Y7.9273
 X22.3445 Y7.8573
 X22.3101 Y7.7928
 X22.2637 Y7.7363
 X22.2072 Y7.6899
 X22.1427 Y7.6555
 X22.0727 Y7.6343
 X22.0000 Y7.6271
 X21.9273 Y7.6343
 X21.8573 Y7.6555
 X21.7928 Y7.6899
 X21.7363 Y7.7363
 X21.6899 Y7.7928
 X21.6555 Y7.8573
 X21.6343 Y7.9273
 X21.6271 Y8.0000
 X21.6343 Y8.0727
 X21.6555 Y8.1427
 X21.6899 Y8.2072
 X21.7363 Y8.2637
 X21.7928 Y8.3101
 X21.8573 Y8.3445
 X21.9273 Y8.3657
 X22.0000 Y8.3729
 X22.0727 Y8.3657
 X22.1427 Y8.3445
 X22.2072 Y8.3101
 X22.2637 Y8.2637
 X22.3101 Y8.2072
 X22.3445 Y8.1427
 X22.3657 Y8.0727
 X22.3729 Y8.0000
 X25.9903
 X25.9136 Y7.2215
 X25.6866 Y6.4730
 X25.3178 Y5.7831
 X24.8216 Y5.1784
 X24.2169 Y4.6822
 X23.5270 Y4.3134
 X22.7785 Y4.0864
 X22.0000 Y4.0097
 X21.2215 Y4.0864
 X20.4730 Y4.3134
 X19.7831 Y4.6822
 X19.1784 Y5.1784
 X18.6822 Y5.7831
 X18.3134 Y6.4730
 X18.0864 Y7.2215
 X18.0097 Y8.0000
 X18.0864 Y8.7785
 X18.3134 Y9.5270
 X18.6822 Y10.2169
 X19.1784 Y10.8216
 X19.7831 Y11.3178
 X20.4730 Y11.6866
 X21.2215 Y11.9136
 X22.0000 Y11.9903
 X22.7785 Y11.9136
 X23.5270 Y11.6866
 X24.2169 Y11.3178
 X24.8216 Y10.8216
 X25.3178 Y10.2169
 X25.6866 Y9.5270
 X25.9136 Y8.7785
 X25.9903 Y8.0000
G0 Z10.0000
 X36.3729
G1 Z-1.5000
 X36.3657 Y7.9273
 X36.3445 Y7.8573
 X36.3101 Y7.7928
 X36.2637 Y7.7363
 X36.2072 Y7.6899
 X36.1427 Y7.6555
 X36.0727 Y7.6343
 X36.0000 Y7.6271
 X35.9273 Y7.6343
 X35.8573 Y7.6555
 X35.7928 Y7.6899
 X35.7363 Y7.7363
 X35.6899 Y7.7928
 X35.6555 Y7.8573
 X35.6343 Y7.9273
 X35.6271 Y8.0000
 X35.6343 Y8.0727
 X35.6555 Y8.1427
 X35.6899 Y8.2072
 X35.7363 Y8.2637
 X35.7928 Y8.3101
 X35.8573 Y8.3445
 X35.9273 Y8.3657
 X36.0000 Y8.3729
 X36.0727 Y8.3657
 X36.1427 Y8.3445
 X36.2072 Y8.3101
 X36.2637 Y8.2637
 X36.3101 Y8.2072
 X36.3445 Y8.1427
 X36.3657 Y8.0727
 X36.3729 Y8.0000
 X39.9903
 X39.9136 Y7.2215
 X39.6866 Y6.4730
 X39.3178 Y5.7831
 X38.8216 Y5.1784
 X38.2169 Y4.6822
 X37.5270 Y4.3134
 X36.7785 Y4.0864
 X36.0000 Y4.0097
 X35.2215 Y4.0864
 X34.4730 Y4.3134
 X33.7831 Y4.6822
 X33.1784 Y5.1784
 X32.6822 Y5.7831
 X32.3134 Y6.4730
 X32.0864 Y7.2215
 X32.0097 Y8.0000
 X32.0864 Y8.7785
 X32.3134 Y9.5270
 X32.6822 Y10.2169
 X33.1784 Y10.8216
 X33.7831 Y11.3178
 X34.4730 Y11.6866
 X35.2215 Y11.9136
 X36.0000 Y11.9903
 X36.7785 Y11.9136
 X37.5270 Y11.6866
 X38.2169 Y11.3178
 X38.8216 Y10.8216
 X39.3178 Y10.2169
 X39.6866 Y9.5270
 X39.9136 Y8.7785
 X39.9903 Y8.0000
G0 Z10.0000
 X22.3729
G1 Z-1.5000
 X22.3657 Y7.9273
 X22.3445 Y7.8573
 X22.3101 Y7.7928
 X22.2637 Y7.7363
 X22.2072 Y7.6899
 X22.1427 Y7.6555
 X22.0727 Y7.6343
 X22.0000 Y7.6271
 X21.9273 Y7.6343
 X21.8573 Y7.6555
 X21.7928 Y7.6899
 X21.7363 Y7.7363
 X21.6899 Y7.7928
 X21.6555 Y7.8573
 X21.6343 Y7.9273
 X21.6271 Y8.0000
 X21.6343 Y8.0727
 X21.6555 Y8.1427
 X21.6899 Y8.2072
 X21.7363 Y8.2637
 X21.7928 Y8.3101
 X21.8573 Y8.3445
 X21.9273 Y8.3657
 X22.0000 Y8.3729
 X22.0727 Y8.3657
 X22.1427 Y8.3445
 X22.2072 Y8.3101
 X22.2637 Y8.2637
 X22.3101 Y8.2072
 X22.3445 Y8.1427
 X22.3657 Y8.0727
 X22.3729 Y8.0000
 X25.9903
 X25.9136 Y7.2215
 X25.6866 Y6.4730
 X25.3178 Y5.7831
 X24.8216 Y5.1784
 X24.2169 Y4.6822
 X23.5270 Y4.3134
 X22.7785 Y4.0864
 X22.0000 Y4.0097
 X21.2215 Y4.0864
 X20.4730 Y4.3134
 X19.7831 Y4.6822
 X19.1784 Y5.1784
 X18.6822 Y5.7831
 X18.3134 Y6.4730
 X18.0864 Y7.2215
 X18.0097 Y8.0000
 X18.0864 Y8.7785
 X18.3134 Y9.5270
 X18.6822 Y10.2169
 X19.1784 Y10.8216
 X19.7831 Y11.3178
 X20.4730 Y11.6866
 X21.2215 Y11.9136
 X22.0000 Y11.9903
 X22.7785 Y11.9136
 X23.5270 Y11.6866
 X24.2169 Y11.3178
 X24.8216 Y10.8216
 X25.3178 Y10.2169
 X25.6866 Y9.5270
 X25.9136 Y8.7785
 X25.9903 Y8.0000
G0 Z10.0000
M5 (stop spindle)
G04 P3 (wait for 3 seconds)
G0 Z10.0000
M2 (end program)
