;PYCAM-META-DATA: Filename: /home/matt/cad/jewellery tests/engrave1.dxf
;PYCAM-META-DATA: Timestamp: 2012-01-17 13:52:04.834244
;PYCAM-META-DATA: Version: 0.5.1
;Estimated machine time: 1 minutes
G40 (disable tool radius compensation)
G49 (disable tool length compensation)
G80 (cancel modal motion)
G54 (select coordinate system 1)
G90 (disable incremental moves)
G21 (metric)
G61 (exact path mode)
F200.00000
S1000.00000
;PYCAM_TOOLPATH_SETTINGS: START
;[Bounds]
;maxz = 0.0
;maxx = 20.4
;maxy = 42.4374499645
;minx = -4.4
;miny = -5.41
;minz = 0.0
;
;[Tool]
;torus_radius = 0.25
;speed = 1000.0
;shape = CylindricalCutter
;tool_radius = 2.0
;feedrate = 200.0
;
;[Process]
;engrave_offset = 2.0
;step_down = 0.6
;generator = EngraveCutter
;postprocessor = SimpleCutter
;milling_style = conventional
;material_allowance = 0.0
;pocketing_type = none
;path_direction = x
;
;PYCAM_TOOLPATH_SETTINGS: END
T1 M6
G0 Z10.0000
M3 (start spindle)
G04 P3 (wait for 3 seconds)
 X2.0000 Y18.1231
G1 Z0.0000
 X18.0000
 Y2.1231
 X2.0000
 Y18.1231
G0 Z10.0000
 X7.5856 Y4.1231
G1 Z0.0000
 X7.5450 Y3.7108
 X7.4247 Y3.3143
 X7.2294 Y2.9489
 X6.9666 Y2.6287
 X6.6463 Y2.3659
 X6.2809 Y2.1706
 X5.8844 Y2.0503
 X5.4721 Y2.0097
 X5.0598 Y2.0503
 X4.6634 Y2.1706
 X4.2980 Y2.3659
 X3.9777 Y2.6287
 X3.7149 Y2.9489
 X3.5196 Y3.3143
 X3.3993 Y3.7108
 X3.3587 Y4.1231
 X3.3993 Y4.5354
 X3.5196 Y4.9319
 X3.7149 Y5.2973
 X3.9777 Y5.6175
 X4.2980 Y5.8804
 X4.6634 Y6.0757
 X5.0598 Y6.1959
 X5.4721 Y6.2365
 X5.8844 Y6.1959
 X6.2809 Y6.0757
 X6.6463 Y5.8804
 X6.9666 Y5.6175
 X7.2294 Y5.2973
 X7.4247 Y4.9319
 X7.5450 Y4.5354
 X7.5856 Y4.1231
G0 Z10.0000
 X20.4000 Y9.2866
G1 Z0.0000
 X20.0555 Y9.7064
 X19.0732 Y10.5125
 X17.9526 Y11.1115
 X16.7367 Y11.4804
 X15.4721 Y11.6049
 X14.2076 Y11.4804
 X12.9917 Y11.1115
 X11.8710 Y10.5125
 X10.8888 Y9.7064
 X10.0827 Y8.7242
 X9.4837 Y7.6036
 X9.1149 Y6.3876
 X8.9903 Y5.1231
 X9.1149 Y3.8586
 X9.4837 Y2.6426
 X10.0827 Y1.5220
 X10.8888 Y0.5398
 X11.8710 Y-0.2663
 X12.9917 Y-0.8653
 X14.2076 Y-1.2342
 X15.4721 Y-1.3587
 X16.7367 Y-1.2342
 X17.9526 Y-0.8653
 X19.0732 Y-0.2663
 X20.0555 Y0.5398
 X20.4000 Y0.9596
G0 Z10.0000
 X16.6462 Y13.7490
G1 Z0.0000
 X16.1720 Y15.3125
 X15.4018 Y16.7534
 X14.3653 Y18.0163
 X13.1024 Y19.0528
 X11.6615 Y19.8229
 X10.0981 Y20.2972
 X8.4721 Y20.4573
 X6.8462 Y20.2972
 X5.2828 Y19.8229
 X3.8419 Y19.0528
 X2.5789 Y18.0163
 X1.5425 Y16.7534
 X0.7723 Y15.3125
 X0.2980 Y13.7490
 X0.1379 Y12.1231
 X0.2980 Y10.4972
 X0.7723 Y8.9337
 X1.5425 Y7.4929
 X2.5789 Y6.2299
 X3.8419 Y5.1934
 X5.2828 Y4.4233
 X6.8462 Y3.9490
 X8.4721 Y3.7889
 X10.0981 Y3.9490
 X11.6615 Y4.4233
 X13.1024 Y5.1934
 X14.3653 Y6.2299
 X15.4018 Y7.4929
 X16.1720 Y8.9337
 X16.6462 Y10.4972
 X16.8064 Y12.1231
 X16.6462 Y13.7490
G0 Z10.0000
M5 (stop spindle)
G04 P3 (wait for 3 seconds)
G0 Z10.0000
M2 (end program)
