( Code generated by grill.py widget )
( by Lawrence Glaister VE7IT - 2008 )
G17 G20 G90 G64 P0.003 M3 S3000 M7
G0 Z0.2000 F5.0
( 9.0000x6.0000 rectangular grill at 4.5000,3.0000 )
G83 X1.0000 Y0.4019 Z-0.3540 Q0.3000 R0.2000
G83 X0.5000 Y1.2679
G83 X1.0000 Y2.1340
G83 X0.5000 Y3.0000
G83 X1.0000 Y3.8660
G83 X0.5000 Y4.7321
G83 X1.0000 Y5.5981
G83 X2.0000 Y0.4019
G83 X1.5000 Y1.2679
G83 X2.0000 Y2.1340
G83 X1.5000 Y3.0000
G83 X2.0000 Y3.8660
G83 X1.5000 Y4.7321
G83 X2.0000 Y5.5981
G83 X3.0000 Y0.4019
G83 X2.5000 Y1.2679
G83 X3.0000 Y2.1340
G83 X2.5000 Y3.0000
G83 X3.0000 Y3.8660
G83 X2.5000 Y4.7321
G83 X3.0000 Y5.5981
G83 X4.0000 Y0.4019
G83 X3.5000 Y1.2679
G83 X4.0000 Y2.1340
G83 X3.5000 Y3.0000
G83 X4.0000 Y3.8660
G83 X3.5000 Y4.7321
G83 X4.0000 Y5.5981
G83 X5.0000 Y0.4019
G83 X4.5000 Y1.2679
G83 X5.0000 Y2.1340
G83 X4.5000 Y3.0000
G83 X5.0000 Y3.8660
G83 X4.5000 Y4.7321
G83 X5.0000 Y5.5981
G83 X6.0000 Y0.4019
G83 X5.5000 Y1.2679
G83 X6.0000 Y2.1340
G83 X5.5000 Y3.0000
G83 X6.0000 Y3.8660
G83 X5.5000 Y4.7321
G83 X6.0000 Y5.5981
G83 X7.0000 Y0.4019
G83 X6.5000 Y1.2679
G83 X7.0000 Y2.1340
G83 X6.5000 Y3.0000
G83 X7.0000 Y3.8660
G83 X6.5000 Y4.7321
G83 X7.0000 Y5.5981
G83 X8.0000 Y0.4019
G83 X7.5000 Y1.2679
G83 X8.0000 Y2.1340
G83 X7.5000 Y3.0000
G83 X8.0000 Y3.8660
G83 X7.5000 Y4.7321
G83 X8.0000 Y5.5981
G83 X8.5000 Y1.2679
G83 X8.5000 Y3.0000
G83 X8.5000 Y4.7321
M5 M9 M2

