;PYCAM-META-DATA: Filename: /home/matt/cad/holes/scadtest.dxf
;PYCAM-META-DATA: Timestamp: 2012-01-31 13:26:13.805706
;PYCAM-META-DATA: Version: 0.5.1
;Estimated machine time: 2 minutes
G40 (disable tool radius compensation)
G49 (disable tool length compensation)
G80 (cancel modal motion)
G54 (select coordinate system 1)
G90 (disable incremental moves)
G21 (metric)
G61 (exact path mode)
F200.00000
S1000.00000
;PYCAM_TOOLPATH_SETTINGS: START
;[Bounds]
;maxz = 0.0
;maxx = 56.839
;maxy = 5.3532
;minx = -14.329
;miny = -5.3496
;minz = -2.0
;
;[Tool]
;torus_radius = 0.25
;speed = 1000.0
;shape = CylindricalCutter
;tool_radius = 0.6
;feedrate = 200.0
;
;[Process]
;engrave_offset = 0.6
;step_down = 2.0
;generator = EngraveCutter
;postprocessor = SimpleCutter
;milling_style = conventional
;material_allowance = 0.0
;pocketing_type = none
;path_direction = x
;
;PYCAM_TOOLPATH_SETTINGS: END
T1 M6
G0 Z10.0000
M3 (start spindle)
G04 P3 (wait for 3 seconds)
 X-0.0741 Y0.0000
G1 Z-2.0000
 X-0.0711 Y0.0212
 X-0.0629 Y0.0391
 X-0.0492 Y0.0548
 X-0.0303 Y0.0669
 X-0.0097 Y0.0730
 X0.0097
 X0.0303 Y0.0669
 X0.0492 Y0.0548
 X0.0629 Y0.0391
 X0.0711 Y0.0212
 X0.0741 Y0.0000
 X0.0711 Y-0.0212
 X0.0629 Y-0.0391
 X0.0492 Y-0.0548
 X0.0303 Y-0.0669
 X0.0097 Y-0.0730
 X-0.0097
 X-0.0303 Y-0.0669
 X-0.0492 Y-0.0548
 X-0.0629 Y-0.0391
 X-0.0711 Y-0.0212
 X-0.0741 Y0.0000
G0 Z10.0000
 X4.1769
G1 Z-2.0000
 X4.1799 Y0.0212
 X4.1881 Y0.0391
 X4.2018 Y0.0548
 X4.2207 Y0.0669
 X4.2413 Y0.0730
 X4.2607
 X4.2813 Y0.0669
 X4.3002 Y0.0548
 X4.3139 Y0.0391
 X4.3221 Y0.0212
 X4.3251 Y0.0000
 X4.3221 Y-0.0212
 X4.3139 Y-0.0391
 X4.3002 Y-0.0548
 X4.2813 Y-0.0669
 X4.2607 Y-0.0730
 X4.2413
 X4.2207 Y-0.0669
 X4.2018 Y-0.0548
 X4.1881 Y-0.0391
 X4.1799 Y-0.0212
 X4.1769 Y0.0000
G0 Z10.0000
 X8.4279
G1 Z-2.0000
 X8.4309 Y0.0212
 X8.4391 Y0.0391
 X8.4528 Y0.0548
 X8.4717 Y0.0669
 X8.4923 Y0.0730
 X8.5117
 X8.5323 Y0.0669
 X8.5512 Y0.0548
 X8.5649 Y0.0391
 X8.5731 Y0.0212
 X8.5761 Y0.0000
 X8.5731 Y-0.0212
 X8.5649 Y-0.0391
 X8.5512 Y-0.0548
 X8.5323 Y-0.0669
 X8.5117 Y-0.0730
 X8.4923
 X8.4717 Y-0.0669
 X8.4528 Y-0.0548
 X8.4391 Y-0.0391
 X8.4309 Y-0.0212
 X8.4279 Y0.0000
G0 Z10.0000
 X12.6789
G1 Z-2.0000
 X12.6819 Y0.0212
 X12.6901 Y0.0391
 X12.7038 Y0.0548
 X12.7227 Y0.0669
 X12.7433 Y0.0730
 X12.7627
 X12.7833 Y0.0669
 X12.8022 Y0.0548
 X12.8159 Y0.0391
 X12.8241 Y0.0212
 X12.8271 Y0.0000
 X12.8241 Y-0.0212
 X12.8159 Y-0.0391
 X12.8022 Y-0.0548
 X12.7833 Y-0.0669
 X12.7627 Y-0.0730
 X12.7433
 X12.7227 Y-0.0669
 X12.7038 Y-0.0548
 X12.6901 Y-0.0391
 X12.6819 Y-0.0212
 X12.6789 Y0.0000
G0 Z10.0000
 X16.9299
G1 Z-2.0000
 X16.9329 Y0.0212
 X16.9411 Y0.0391
 X16.9548 Y0.0548
 X16.9737 Y0.0669
 X16.9943 Y0.0730
 X17.0137
 X17.0343 Y0.0669
 X17.0532 Y0.0548
 X17.0669 Y0.0391
 X17.0751 Y0.0212
 X17.0781 Y0.0000
 X17.0751 Y-0.0212
 X17.0669 Y-0.0391
 X17.0532 Y-0.0548
 X17.0343 Y-0.0669
 X17.0137 Y-0.0730
 X16.9943
 X16.9737 Y-0.0669
 X16.9548 Y-0.0548
 X16.9411 Y-0.0391
 X16.9329 Y-0.0212
 X16.9299 Y0.0000
G0 Z10.0000
 X21.1809
G1 Z-2.0000
 X21.1839 Y0.0212
 X21.1921 Y0.0391
 X21.2058 Y0.0548
 X21.2247 Y0.0669
 X21.2453 Y0.0730
 X21.2647
 X21.2853 Y0.0669
 X21.3042 Y0.0548
 X21.3179 Y0.0391
 X21.3261 Y0.0212
 X21.3291 Y0.0000
 X21.3261 Y-0.0212
 X21.3179 Y-0.0391
 X21.3042 Y-0.0548
 X21.2853 Y-0.0669
 X21.2647 Y-0.0730
 X21.2453
 X21.2247 Y-0.0669
 X21.2058 Y-0.0548
 X21.1921 Y-0.0391
 X21.1839 Y-0.0212
 X21.1809 Y0.0000
G0 Z10.0000
 X25.4319
G1 Z-2.0000
 X25.4349 Y0.0212
 X25.4431 Y0.0391
 X25.4568 Y0.0548
 X25.4757 Y0.0669
 X25.4963 Y0.0730
 X25.5157
 X25.5363 Y0.0669
 X25.5552 Y0.0548
 X25.5689 Y0.0391
 X25.5771 Y0.0212
 X25.5801 Y0.0000
 X25.5771 Y-0.0212
 X25.5689 Y-0.0391
 X25.5552 Y-0.0548
 X25.5363 Y-0.0669
 X25.5157 Y-0.0730
 X25.4963
 X25.4757 Y-0.0669
 X25.4568 Y-0.0548
 X25.4431 Y-0.0391
 X25.4349 Y-0.0212
 X25.4319 Y0.0000
G0 Z10.0000
 X29.6829
G1 Z-2.0000
 X29.6859 Y0.0212
 X29.6941 Y0.0391
 X29.7078 Y0.0548
 X29.7267 Y0.0669
 X29.7473 Y0.0730
 X29.7667
 X29.7873 Y0.0669
 X29.8062 Y0.0548
 X29.8199 Y0.0391
 X29.8281 Y0.0212
 X29.8311 Y0.0000
 X29.8281 Y-0.0212
 X29.8199 Y-0.0391
 X29.8062 Y-0.0548
 X29.7873 Y-0.0669
 X29.7667 Y-0.0730
 X29.7473
 X29.7267 Y-0.0669
 X29.7078 Y-0.0548
 X29.6941 Y-0.0391
 X29.6859 Y-0.0212
 X29.6829 Y0.0000
G0 Z10.0000
 X33.9339
G1 Z-2.0000
 X33.9369 Y0.0212
 X33.9451 Y0.0391
 X33.9588 Y0.0548
 X33.9777 Y0.0669
 X33.9983 Y0.0730
 X34.0177
 X34.0383 Y0.0669
 X34.0572 Y0.0548
 X34.0709 Y0.0391
 X34.0791 Y0.0212
 X34.0821 Y0.0000
 X34.0791 Y-0.0212
 X34.0709 Y-0.0391
 X34.0572 Y-0.0548
 X34.0383 Y-0.0669
 X34.0177 Y-0.0730
 X33.9983
 X33.9777 Y-0.0669
 X33.9588 Y-0.0548
 X33.9451 Y-0.0391
 X33.9369 Y-0.0212
 X33.9339 Y0.0000
G0 Z10.0000
 X38.1849
G1 Z-2.0000
 X38.1879 Y0.0212
 X38.1961 Y0.0391
 X38.2098 Y0.0548
 X38.2287 Y0.0669
 X38.2493 Y0.0730
 X38.2687
 X38.2893 Y0.0669
 X38.3082 Y0.0548
 X38.3219 Y0.0391
 X38.3301 Y0.0212
 X38.3331 Y0.0000
 X38.3301 Y-0.0212
 X38.3219 Y-0.0391
 X38.3082 Y-0.0548
 X38.2893 Y-0.0669
 X38.2687 Y-0.0730
 X38.2493
 X38.2287 Y-0.0669
 X38.2098 Y-0.0548
 X38.1961 Y-0.0391
 X38.1879 Y-0.0212
 X38.1849 Y0.0000
G0 Z10.0000
 X42.4359
G1 Z-2.0000
 X42.4389 Y0.0212
 X42.4471 Y0.0391
 X42.4608 Y0.0548
 X42.4797 Y0.0669
 X42.5003 Y0.0730
 X42.5197
 X42.5403 Y0.0669
 X42.5592 Y0.0548
 X42.5729 Y0.0391
 X42.5811 Y0.0212
 X42.5841 Y0.0000
 X42.5811 Y-0.0212
 X42.5729 Y-0.0391
 X42.5592 Y-0.0548
 X42.5403 Y-0.0669
 X42.5197 Y-0.0730
 X42.5003
 X42.4797 Y-0.0669
 X42.4608 Y-0.0548
 X42.4471 Y-0.0391
 X42.4389 Y-0.0212
 X42.4359 Y0.0000
G0 Z10.0000
M5 (stop spindle)
G04 P3 (wait for 3 seconds)
G0 Z10.0000
M2 (end program)
