;PYCAM-META-DATA: Filename: /home/mattvenn/cad/openscad/cast/bellend.stl
;PYCAM-META-DATA: Timestamp: 2013-09-05 17:19:53.579834
;PYCAM-META-DATA: Version: 0.5.1
;Estimated machine time: 4 minutes
G40 (disable tool radius compensation)
G49 (disable tool length compensation)
G80 (cancel modal motion)
G54 (select coordinate system 1)
G90 (disable incremental moves)
G21 (metric)
G61 (exact path mode)
F1000.00000
S1000.00000
;PYCAM_TOOLPATH_SETTINGS: START
;[Bounds]
;maxz = 0.0
;maxx = 28.5
;maxy = 38.5
;minx = -28.5
;miny = -38.5
;minz = -12.0
;
;[Tool]
;torus_radius = 0.25
;speed = 1000.0
;shape = CylindricalCutter
;tool_radius = 1.5
;feedrate = 1000.0
;
;[Process]
;engrave_offset = 0.0
;step_down = 5.0
;generator = PushCutter
;postprocessor = SimpleCutter
;milling_style = ignore
;material_allowance = 0.5
;pocketing_type = none
;path_direction = x
;
;PYCAM_TOOLPATH_SETTINGS: END
T1 M6
G0 Z2.0000
M3 (start spindle)
G04 P3 (wait for 3 seconds)
 X-22.0000 Y-32.5769
G1 Z0.0000
 X22.0000
 Y-29.6154
 X-22.0000
 Y-26.6538
 X22.0000
 Y-23.6923
 X-22.0000
 Y-20.7308
 X22.0000
 Y-17.7692
 X-22.0000
 Y-14.8077
 X22.0000
 Y-11.8462
 X-22.0000
 Y-8.8846
 X22.0000
 Y-5.9231
 X-22.0000
 Y-2.9615
 X22.0000
 Y0.0000
 X-22.0000
 Y2.9615
 X22.0000
 Y5.9231
 X-22.0000
 Y8.8846
 X22.0000
 Y11.8462
 X-22.0000
 Y14.8077
 X22.0000
 Y17.7692
 X-22.0000
 Y20.7308
 X22.0000
 Y23.6923
 X-22.0000
 Y26.6538
 X22.0000
 Y29.6154
 X-22.0000
 Y32.5769
 X22.0000
 Z-4.0000
 X-22.0000
 Y29.6154
 X22.0000
 Y26.6538
 X-22.0000
 Y23.6923
 X22.0000
 Y20.7308
 X-22.0000
 Y17.7692
 X-2.0000
G0 Z2.0000
 X2.0000
G1 Z-4.0000
 X22.0000
 Y14.8077
 X2.0000
G0 Z2.0000
 X-2.0000
G1 Z-4.0000
 X-22.0000
 Y11.8462
 X-2.0000
G0 Z2.0000
 X2.0000
G1 Z-4.0000
 X22.0000
 Y8.8846
 X2.0000
G0 Z2.0000
 X-2.0000
G1 Z-4.0000
 X-22.0000
 Y5.9231
 X-2.0000
G0 Z2.0000
 X2.0000
G1 Z-4.0000
 X22.0000
 Y2.9615
 X2.0000
G0 Z2.0000
 X-2.0000
G1 Z-4.0000
 X-22.0000
 Y0.0000
 X-2.0000
G0 Z2.0000
 X2.0000
G1 Z-4.0000
 X22.0000
 Y-2.9615
 X2.0000
G0 Z2.0000
 X-2.0000
G1 Z-4.0000
 X-22.0000
 Y-5.9231
 X-2.0000
G0 Z2.0000
 X2.0000
G1 Z-4.0000
 X22.0000
 Y-8.8846
 X10.1442
G0 Z2.0000
 X3.8406
G1 Z-4.0000
 X2.0000
G0 Z2.0000
 X-2.0000
G1 Z-4.0000
 X-3.8558
G0 Z2.0000
 X-10.1594
G1 Z-4.0000
 X-22.0000
 Y-11.8462
 X-13.1115
G0 Z2.0000
 X13.1156
G1 Z-4.0000
 X22.0000
 Y-14.8077
 X13.8762
G0 Z2.0000
 X0.1240
G1 Z-4.0000
 X-0.1238
G0 Z2.0000
 X-6.0426
G1 Z-4.0000
 X-7.9574
G0 Z2.0000
 X-13.8759
G1 Z-4.0000
 X-22.0000
 Y-17.7692
 X-13.3005
G0 Z2.0000
 X-0.7055
G1 Z-4.0000
 X0.6995
G0 Z2.0000
 X13.2945
G1 Z-4.0000
 X22.0000
 Y-20.7308
 X10.8009
G0 Z2.0000
 X3.1885
G1 Z-4.0000
 X-3.1992
G0 Z2.0000
 X-10.8115
G1 Z-4.0000
 X-22.0000
 Y-23.6923
 X22.0000
 Y-26.6538
 X-22.0000
 Y-29.6154
 X22.0000
 Y-32.5769
 X-22.0000
G0 Z2.0000
 X19.0000 Y-29.6154
G1 Z-8.0000
 X-19.0000
 Y-26.6538
 X19.0000
 Y-23.6923
 X8.9766
G0 Z2.0000
 X5.0358
G1 Z-8.0000
 X-5.0234
G0 Z2.0000
 X-8.9642
G1 Z-8.0000
 X-19.0000
 Y-20.7308
 X-13.8225
G0 Z2.0000
 X-0.1669
G1 Z-8.0000
 X0.1775
G0 Z2.0000
 X13.8331
G1 Z-8.0000
 X19.0000
 Y-17.7692
 X15.4723
G0 Z2.0000
 X-15.4713
G1 Z-8.0000
 X-19.0000
 Y-14.8077
 X-15.9092
G0 Z2.0000
 X-7.9574
G1 Z-8.0000
 X-6.0426
G0 Z2.0000
 X15.9128
G1 Z-8.0000
 X19.0000
 Y-11.8462
 X15.3393
G0 Z2.0000
 X-15.3341
G1 Z-8.0000
 X-19.0000
 Y-8.8846
 X-13.4909
G0 Z2.0000
 X13.4801
G1 Z-8.0000
 X19.0000
 Y-5.9231
 X6.8861
G0 Z2.0000
 X-6.8861
G1 Z-8.0000
 X-19.0000
 Y-2.9615
 X-6.8861
G0 Z2.0000
 X6.8861
G1 Z-8.0000
 X19.0000
 Y0.0000
 X6.8861
G0 Z2.0000
 X-6.8861
G1 Z-8.0000
 X-19.0000
 Y2.9615
 X-6.8861
G0 Z2.0000
 X6.8861
G1 Z-8.0000
 X19.0000
 Y5.9231
 X6.8861
G0 Z2.0000
 X-6.8861
G1 Z-8.0000
 X-19.0000
 Y8.8846
 X-6.8861
G0 Z2.0000
 X6.8861
G1 Z-8.0000
 X19.0000
 Y11.8462
 X6.8861
G0 Z2.0000
 X-6.8861
G1 Z-8.0000
 X-19.0000
 Y14.8077
 X-6.8861
G0 Z2.0000
 X6.8861
G1 Z-8.0000
 X19.0000
 Y17.7692
 X6.8861
G0 Z2.0000
 X-6.8861
G1 Z-8.0000
 X-19.0000
 Y20.7308
 X-6.5149
G0 Z2.0000
 X6.5149
G1 Z-8.0000
 X19.0000
 Y23.6923
 X4.5038
G0 Z2.0000
 X-4.5038
G1 Z-8.0000
 X-19.0000
 Y26.6538
 X19.0000
 Y29.6154
 X-19.0000
G0 Z2.0000
M5 (stop spindle)
G04 P3 (wait for 3 seconds)
G0 Z2.0000
M2 (end program)
