;PYCAM-META-DATA: Filename: /home/mattvenn/cad/openscad/cast/bellend.stl
;PYCAM-META-DATA: Timestamp: 2013-09-05 17:48:41.140246
;PYCAM-META-DATA: Version: 0.5.1
;Estimated machine time: 15 minutes
G40 (disable tool radius compensation)
G49 (disable tool length compensation)
G80 (cancel modal motion)
G54 (select coordinate system 1)
G90 (disable incremental moves)
G21 (metric)
G61 (exact path mode)
F1000.00000
S1000.00000
;PYCAM_TOOLPATH_SETTINGS: START
;[Bounds]
;maxz = 0.0
;maxx = 28.5
;maxy = 38.5
;minx = -28.5
;miny = -38.5
;minz = -12.0
;
;[Tool]
;torus_radius = 0.25
;speed = 1000.0
;shape = CylindricalCutter
;tool_radius = 1.5
;feedrate = 1000.0
;
;[Process]
;engrave_offset = 0.0
;step_down = 0.1
;generator = DropCutter
;postprocessor = PathAccumulator
;milling_style = conventional
;material_allowance = 0.0
;pocketing_type = none
;path_direction = x
;
;PYCAM_TOOLPATH_SETTINGS: END
T1 M6
G0 Z2.0000
M3 (start spindle)
G04 P3 (wait for 3 seconds)
 X-28.5000 Y-38.5000
G1 Z0.0000
 X28.5000
G0 Z2.0000
 X-28.5000 Y-37.7524
G1 Z0.0000
 X28.5000
G0 Z2.0000
 X-28.5000 Y-37.0049
G1 Z0.0000
 X28.5000
G0 Z2.0000
 X-28.5000 Y-36.2573
G1 Z0.0000
 X28.5000
G0 Z2.0000
 X-28.5000 Y-35.5097
G1 Z0.0000
 X28.5000
G0 Z2.0000
 X-28.5000 Y-34.7621
G1 Z0.0000
 X28.5000
G0 Z2.0000
 X-28.5000 Y-34.0146
G1 Z0.0000
 X28.5000
G0 Z2.0000
 X-28.5000 Y-33.2670
G1 Z0.0000
 X-22.5000
 Z-5.0000
 X22.5000
 X22.5059 Z0.0000
 X28.5000
G0 Z2.0000
 X-28.5000 Y-32.5194
G1 Z0.0000
 X-22.5000
 Z-5.0000
 X22.5000
 X22.5059 Z0.0000
 X28.5000
G0 Z2.0000
 X-28.5000 Y-31.7718
G1 Z0.0000
 X-22.5000
 Z-5.0000
 X22.5000
 X22.5059 Z0.0000
 X28.5000
G0 Z2.0000
 X-28.5000 Y-31.0243
G1 Z0.0000
 X-22.5000
 Z-5.0000
 X22.5000
 X22.5059 Z0.0000
 X28.5000
G0 Z2.0000
 X-28.5000 Y-30.2767
G1 Z0.0000
 X-22.5000
 Z-5.0000
 X-19.5000
 Z-11.0000
 X19.5000
 X19.5059 Z-5.0000
 X22.5000
 X22.5059 Z0.0000
 X28.5000
G0 Z2.0000
 X-28.5000 Y-29.5291
G1 Z0.0000
 X-22.5000
 Z-5.0000
 X-19.5000
 Z-11.0000
 X19.5000
 X19.5059 Z-5.0000
 X22.5000
 X22.5059 Z0.0000
 X28.5000
G0 Z2.0000
 X-28.5000 Y-28.7816
G1 Z0.0000
 X-22.5000
 Z-5.0000
 X-19.5000
 Z-11.0000
 X19.5000
 X19.5059 Z-5.0000
 X22.5000
 X22.5059 Z0.0000
 X28.5000
G0 Z2.0000
 X-28.5000 Y-28.0340
G1 Z0.0000
 X-22.5000
 Z-5.0000
 X-19.5000
 Z-11.0000
 X19.5000
 X19.5059 Z-5.0000
 X22.5000
 X22.5059 Z0.0000
 X28.5000
G0 Z2.0000
 X-28.5000 Y-27.2864
G1 Z0.0000
 X-22.5000
 Z-5.0000
 X-19.5000
 Z-11.0000
 X19.5000
 X19.5059 Z-5.0000
 X22.5000
 X22.5059 Z0.0000
 X28.5000
G0 Z2.0000
 X-28.5000 Y-26.5388
G1 Z0.0000
 X-22.5000
 Z-5.0000
 X-19.5000
 Z-11.0000
 X19.5000
 X19.5059 Z-5.0000
 X22.5000
 X22.5059 Z0.0000
 X28.5000
G0 Z2.0000
 X-28.5000 Y-25.7913
G1 Z0.0000
 X-22.5000
 Z-5.0000
 X-19.5000
 Z-11.0000
 X19.5000
 X19.5059 Z-5.0000
 X22.5000
 X22.5059 Z0.0000
 X28.5000
G0 Z2.0000
 X-28.5000 Y-25.0437
G1 Z0.0000
 X-22.5000
 Z-5.0000
 X-19.5000
 Z-11.0000
 X19.5000
 X19.5059 Z-5.0000
 X22.5000
 X22.5059 Z0.0000
 X28.5000
G0 Z2.0000
 X-28.5000 Y-24.2961
G1 Z0.0000
 X-22.5000
 Z-5.0000
 X-19.5000
 Z-11.0000
 X19.5000
 X19.5059 Z-5.0000
 X22.5000
 X22.5059 Z0.0000
 X28.5000
G0 Z2.0000
 X-28.5000 Y-23.5485
G1 Z0.0000
 X-22.5000
 Z-5.0000
 X-19.5000
 Z-11.0000
 X19.5000
 X19.5059 Z-5.0000
 X22.5000
 X22.5059 Z0.0000
 X28.5000
G0 Z2.0000
 X-28.5000 Y-22.8010
G1 Z0.0000
 X-22.5000
 Z-5.0000
 X-19.5000
 Z-11.0000
 X-10.3594
 X-10.3359 Z-9.0000
 X-10.3271
 X-10.3257 Z-8.6071
 X-10.3125 Z-8.5584
 X-10.2188 Z-8.2121
 X-10.1309 Z-7.8875
 X-10.1279 Z-7.8768
 X-10.1250 Z-7.8660
 X-10.1191 Z-7.8446
 X-10.1162 Z-7.8339
 X-10.1155 Z-7.8313
 X-10.1151 Z-7.8299
 X-10.1149 Z-7.8293
 X-10.1148 Z-7.8289
 Z-7.8288
 X-10.1147 Z-7.8286
 X-10.1133 Z-7.8254
 X-10.1016 Z-7.8047
 X-10.0898 Z-7.7843
 X-10.0781 Z-7.7643
 X-10.0312 Z-7.6877
 X-9.9844 Z-7.6167
 X-9.9375 Z-7.5512
 X-9.7500 Z-7.2969
 X-9.6562 Z-7.1699
 X-9.5859 Z-7.0745
 X-9.5625 Z-7.0495
 X-9.3750 Z-6.8837
 X-9.1875 Z-6.7178
 X-9.0938 Z-6.6367
 X-9.0000 Z-6.5692
 X-8.8125 Z-6.4612
 X-8.7188 Z-6.4080
 X-8.6250 Z-6.3547
 X-8.4375 Z-6.2681
 X-8.3438 Z-6.2294
 X-8.2969 Z-6.2100
 X-8.2500 Z-6.1907
 X-7.8750 Z-6.0938
 X-7.5000 Z-6.0270
 X-7.3125 Z-5.9936
 X-7.2656 Z-5.9865
 X-7.2422 Z-5.9841
 X-7.2188 Z-5.9825
 X-7.1250 Z-5.9835
 X-6.7500 Z-6.0057
 X-6.5625 Z-6.0169
 X-6.4219 Z-6.0252
 X-6.3984 Z-6.0269
 X-6.3750 Z-6.0292
 X-6.0000 Z-6.1284
 X-5.6250 Z-6.2394
 X-5.5312 Z-6.2672
 X-5.4844 Z-6.2814
 X-5.4609 Z-6.2894
 X-5.4492 Z-6.2937
 X-5.4375 Z-6.2981
 X-5.2500 Z-6.4156
 X-4.8750 Z-6.6885
 X-4.5938 Z-6.8932
 X-4.5469 Z-6.9273
 X-4.5234 Z-6.9452
 X-4.5117 Z-6.9545
 X-4.5000 Z-6.9640
 X-4.4531 Z-7.0045
 X-4.4297 Z-7.0261
 X-4.4180 Z-7.0373
 X-4.4121 Z-7.0430
 X-4.4092 Z-7.0459
 X-4.4062 Z-7.0488
 X-4.3594 Z-7.1149
 X-3.9375 Z-7.7866
 X-3.8438 Z-8.0472
 X-3.7500 Z-8.3495
 X-3.6562 Z-9.0000
 X-3.6460
 X-3.6453 Z-11.0000
 X3.5625
 X3.6562 Z-9.0000
 X3.6738
 X3.6768 Z-8.5980
 X3.7031 Z-8.5006
 X3.7266 Z-8.4140
 X3.8672 Z-7.8947
 X3.8789 Z-7.8517
 X3.8818 Z-7.8410
 X3.8833 Z-7.8357
 X3.8840 Z-7.8330
 X3.8844 Z-7.8317
 X3.8846 Z-7.8310
 X3.8848 Z-7.8304
 X3.8906 Z-7.8185
 X3.9375 Z-7.7382
 X4.1250 Z-7.4664
 X4.3125 Z-7.2122
 X4.4062 Z-7.0851
 X4.5000 Z-6.9942
 X4.6875 Z-6.8284
 X4.8516 Z-6.6832
 X4.8750 Z-6.6627
 X4.9688 Z-6.5899
 X5.0156 Z-6.5595
 X5.0625 Z-6.5323
 X5.2500 Z-6.4257
 X5.4141 Z-6.3325
 X5.4375 Z-6.3197
 X5.6250 Z-6.2423
 X5.7188 Z-6.2036
 X5.7891 Z-6.1745
 X5.8125 Z-6.1652
 X6.0000 Z-6.1160
 X6.3750 Z-6.0493
 X6.5625 Z-6.0158
 X6.6562 Z-5.9992
 X6.7031 Z-5.9909
 X6.7266 Z-5.9875
 X6.7500 Z-5.9848
 X7.1250 Z-5.9983
 X7.3125 Z-6.0094
 X7.5000 Z-6.0206
 X7.5938 Z-6.0262
 X7.6406 Z-6.0312
 X7.6875 Z-6.0391
 X7.8750 Z-6.0914
 X8.2500 Z-6.2024
 X8.4375 Z-6.2579
 X8.4844 Z-6.2718
 X8.5312 Z-6.2867
 X8.5781 Z-6.3044
 X8.6016 Z-6.3143
 X8.6250 Z-6.3264
 X9.0000 Z-6.5976
 X9.3750 Z-6.8704
 X9.4688 Z-6.9391
 X9.5156 Z-6.9771
 X9.5391 Z-6.9975
 X9.5508 Z-7.0080
 X9.5566 Z-7.0134
 X9.5625 Z-7.0188
 X9.7500 Z-7.2891
 X10.0781 Z-7.8115
 X10.1250 Z-7.9464
 X10.2656 Z-8.3999
 X10.2891 Z-8.4757
 X10.3125 Z-8.5513
 X10.3359 Z-9.0000
 X10.3535
 X10.3550 Z-11.0000
 X19.5000
 X19.5059 Z-5.0000
 X22.5000
 X22.5059 Z0.0000
 X28.5000
G0 Z2.0000
 X-28.5000 Y-22.0534
G1 Z0.0000
 X-22.5000
 Z-5.0000
 X-19.5000
 Z-11.0000
 X-11.7305
 X-11.7246 Z-9.0000
 X-11.7202
 X-11.7195 Z-8.6050
 X-11.7188 Z-8.6015
 X-11.5781 Z-7.9559
 X-11.5664 Z-7.9020
 X-11.5547 Z-7.8482
 X-11.5312 Z-7.7845
 X-11.4375 Z-7.5721
 X-11.3438 Z-7.3597
 X-11.2500 Z-7.1472
 X-11.0625 Z-6.8405
 X-10.8750 Z-6.5633
 X-10.7812 Z-6.4258
 X-10.7344 Z-6.3607
 X-10.7227 Z-6.3450
 X-10.7168 Z-6.3372
 X-10.7139 Z-6.3333
 X-10.7109 Z-6.3294
 X-10.6875 Z-6.3051
 X-10.5000 Z-6.1410
 X-10.1250 Z-5.8170
 X-9.8906 Z-5.6145
 X-9.8672 Z-5.5988
 X-9.8438 Z-5.5833
 X-9.7500 Z-5.5248
 X-9.3750 Z-5.3359
 X-9.1875 Z-5.2435
 X-9.0000 Z-5.1511
 X-8.9062 Z-5.1055
 X-8.8125 Z-5.0671
 X-8.6250 Z-5.0067
 X-8.2500 Z-4.9010
 X-7.8750 Z-4.8272
 X-7.5000 Z-4.7869
 X-7.3125 Z-4.7667
 X-7.1250 Z-4.7576
 X-6.7500 Z-4.7710
 X-6.5625 Z-4.7777
 X-6.4688 Z-4.7811
 X-6.3750 Z-4.7890
 X-6.0000 Z-4.8542
 X-5.7188 Z-4.9045
 X-5.6719 Z-4.9129
 X-5.6484 Z-4.9171
 X-5.6250 Z-4.9217
 X-5.2500 Z-5.0560
 X-4.8750 Z-5.2080
 X-4.5000 Z-5.3960
 X-4.1250 Z-5.6129
 X-3.9375 Z-5.7541
 X-3.7500 Z-5.9042
 X-3.5625 Z-6.0838
 X-3.3750 Z-6.2658
 X-3.1875 Z-6.4953
 X-2.8594 Z-6.9337
 X-2.8359 Z-6.9649
 X-2.8242 Z-6.9809
 X-2.8125 Z-6.9970
 X-2.7891 Z-7.0298
 X-2.7773 Z-7.0465
 X-2.7715 Z-7.0549
 X-2.7686 Z-7.0591
 X-2.7656 Z-7.0640
 X-2.7422 Z-7.1167
 X-2.7188 Z-7.1706
 X-2.6719 Z-7.2818
 X-2.6484 Z-7.3392
 X-2.6250 Z-7.3973
 X-2.4609 Z-7.8037
 X-2.4375 Z-7.8970
 X-2.3906 Z-8.1322
 X-2.2969 Z-8.6027
 X-2.2734 Z-9.0000
 X-2.2709
 X-2.2707 Z-11.0000
 X2.2500
 X2.2734 Z-9.0000
 X2.2793
 X2.2822 Z-8.5970
 X2.4141 Z-7.9918
 X2.4258 Z-7.9378
 X2.4375 Z-7.8840
 X2.5312 Z-7.6429
 X2.6250 Z-7.4305
 X2.7188 Z-7.2180
 X2.7656 Z-7.1118
 X2.8125 Z-7.0252
 X3.1406 Z-6.5402
 X3.1875 Z-6.4710
 X3.2344 Z-6.4037
 X3.2578 Z-6.3713
 X3.2695 Z-6.3555
 X3.2754 Z-6.3476
 X3.2812 Z-6.3398
 X3.3750 Z-6.2489
 X3.7500 Z-5.9250
 X4.1016 Z-5.6213
 X4.1250 Z-5.6040
 X4.5000 Z-5.3974
 X4.8750 Z-5.2127
 X5.0625 Z-5.1203
 X5.2500 Z-5.0463
 X5.6250 Z-4.9322
 X5.8125 Z-4.8854
 X5.9062 Z-4.8620
 X6.0000 Z-4.8428
 X6.3750 Z-4.8003
 X6.5625 Z-4.7801
 X6.7031 Z-4.7650
 X6.7500 Z-4.7606
 X7.1250 Z-4.7665
 X7.3125 Z-4.7732
 X7.4062 Z-4.7766
 X7.5000 Z-4.7800
 X7.8750 Z-4.8319
 X8.2500 Z-4.8989
 X8.3438 Z-4.9157
 X8.3906 Z-4.9250
 X8.4141 Z-4.9304
 X8.4375 Z-4.9361
 X8.6250 Z-5.0054
 X9.1875 Z-5.2333
 X9.3750 Z-5.3237
 X9.7500 Z-5.5406
 X9.9375 Z-5.6597
 X10.1250 Z-5.8012
 X10.3125 Z-5.9625
 X10.5000 Z-6.1445
 X10.8750 Z-6.5788
 X11.0625 Z-6.8293
 X11.1562 Z-6.9545
 X11.1797 Z-6.9862
 X11.2031 Z-7.0188
 X11.2148 Z-7.0353
 X11.2207 Z-7.0437
 X11.2236 Z-7.0479
 X11.2266 Z-7.0521
 X11.2500 Z-7.0990
 X11.3438 Z-7.3200
 X11.3906 Z-7.4361
 X11.5312 Z-7.7844
 X11.6250 Z-8.2107
 X11.7188 Z-9.0000
 X11.7290
 X11.7297 Z-11.0000
 X19.5000
 X19.5059 Z-5.0000
 X22.5000
 X22.5059 Z0.0000
 X28.5000
G0 Z2.0000
 X-28.5000 Y-21.3058
G1 Z0.0000
 X-22.5000
 Z-5.0000
 X-19.5000
 Z-11.0000
 X-12.7500
 X-12.6562 Z-8.4883
 X-12.6094 Z-8.1979
 X-12.5859 Z-8.0525
 X-12.5742 Z-7.9798
 X-12.5684 Z-7.9436
 X-12.5625 Z-7.9075
 X-12.4688 Z-7.5899
 X-12.4219 Z-7.4569
 X-12.3750 Z-7.3275
 X-12.3281 Z-7.2014
 X-12.2930 Z-7.1072
 X-12.2871 Z-7.0914
 X-12.2812 Z-7.0757
 X-12.2344 Z-6.9891
 X-12.1875 Z-6.9071
 X-12.0000 Z-6.5794
 X-11.9062 Z-6.4155
 X-11.8125 Z-6.2707
 X-11.6250 Z-6.0326
 X-11.4375 Z-5.7945
 X-11.3438 Z-5.6778
 X-11.3203 Z-5.6499
 X-11.3086 Z-5.6361
 X-11.3027 Z-5.6293
 X-11.2969 Z-5.6225
 X-11.2500 Z-5.5797
 X-10.8750 Z-5.2704
 X-10.6875 Z-5.1160
 X-10.5000 Z-4.9616
 X-10.1250 Z-4.7415
 X-9.5625 Z-4.4480
 X-9.4688 Z-4.4013
 X-9.3750 Z-4.3609
 X-9.0000 Z-4.2397
 X-8.8125 Z-4.1816
 X-8.6250 Z-4.1282
 X-8.2500 Z-4.0526
 X-8.0625 Z-4.0153
 X-7.8750 Z-3.9826
 X-7.5000 Z-3.9495
 X-7.3125 Z-3.9334
 X-7.1250 Z-3.9239
 X-6.7500 Z-3.9344
 X-6.3750 Z-3.9546
 X-6.0000 Z-4.0080
 X-5.6250 Z-4.0724
 X-5.0625 Z-4.2156
 X-4.9688 Z-4.2411
 X-4.8750 Z-4.2717
 X-4.5000 Z-4.4263
 X-4.3125 Z-4.5117
 X-4.1250 Z-4.5999
 X-3.7500 Z-4.8164
 X-3.5625 Z-4.9263
 X-3.3750 Z-5.0595
 X-3.0000 Z-5.3693
 X-2.8125 Z-5.5380
 X-2.6250 Z-5.7349
 X-2.2734 Z-6.1476
 X-2.2500 Z-6.1751
 X-2.2031 Z-6.2309
 X-2.1797 Z-6.2595
 X-2.1562 Z-6.2886
 X-2.1094 Z-6.3584
 X-2.0625 Z-6.4431
 X-1.9688 Z-6.6183
 X-1.7812 Z-6.9697
 X-1.6875 Z-7.1899
 X-1.5938 Z-7.4593
 X-1.5000 Z-7.7288
 X-1.3125 Z-9.0000
 X-1.3096 Z-11.0000
 X1.1250
 X1.3125 Z-9.0000
 X1.3594 Z-8.3915
 X1.4062 Z-8.1011
 X1.4297 Z-7.9558
 X1.4414 Z-7.8837
 X1.4473 Z-7.8478
 X1.4531 Z-7.8199
 X1.5000 Z-7.6807
 X1.5938 Z-7.4134
 X1.6406 Z-7.2853
 X1.6641 Z-7.2224
 X1.6875 Z-7.1596
 X1.8750 Z-6.7979
 X2.0625 Z-6.4702
 X2.2500 Z-6.1913
 X2.4375 Z-5.9532
 X2.5781 Z-5.7746
 X2.6016 Z-5.7450
 X2.6250 Z-5.7158
 X3.0000 Z-5.3733
 X3.3750 Z-5.0646
 X3.5039 Z-4.9584
 X3.5156 Z-4.9489
 X3.5625 Z-4.9185
 X3.7500 Z-4.8068
 X4.1250 Z-4.6110
 X4.4062 Z-4.4643
 X4.4531 Z-4.4398
 X4.5000 Z-4.4161
 X4.8750 Z-4.2784
 X5.2500 Z-4.1623
 X5.6250 Z-4.0775
 X6.0000 Z-4.0029
 X6.3750 Z-3.9602
 X6.5625 Z-3.9441
 X6.7500 Z-3.9281
 X7.1250 Z-3.9308
 X7.4062 Z-3.9388
 X7.5000 Z-3.9422
 X7.8750 Z-3.9902
 X8.0625 Z-4.0169
 X8.2500 Z-4.0448
 X8.6250 Z-4.1361
 X8.9062 Z-4.2077
 X9.0000 Z-4.2321
 X9.3750 Z-4.3693
 X9.7500 Z-4.5402
 X10.1250 Z-4.7431
 X10.4062 Z-4.9079
 X10.5000 Z-4.9665
 X10.8750 Z-5.2571
 X11.0625 Z-5.4255
 X11.2500 Z-5.5942
 X11.4375 Z-5.8083
 X11.7188 Z-6.1384
 X11.7656 Z-6.1935
 X11.7891 Z-6.2214
 X11.8125 Z-6.2499
 X11.8359 Z-6.2788
 X11.8477 Z-6.2935
 X11.8594 Z-6.3082
 X11.8828 Z-6.3445
 X11.9062 Z-6.3863
 X12.0000 Z-6.5596
 X12.2344 Z-6.9990
 X12.2812 Z-7.1001
 X12.3281 Z-7.2349
 X12.3750 Z-7.3695
 X12.4688 Z-7.6390
 X12.5156 Z-7.7737
 X12.5625 Z-7.9916
 X12.6094 Z-8.2645
 X12.6562 Z-8.5373
 X12.6797 Z-9.0000
 X12.6881
 X12.6883 Z-11.0000
 X19.5000
 X19.5059 Z-5.0000
 X22.5000
 X22.5059 Z0.0000
 X28.5000
G0 Z2.0000
 X-28.5000 Y-20.5583
G1 Z0.0000
 X-22.5000
 Z-5.0000
 X-19.5000
 Z-11.0000
 X-13.5000
 X-13.4062 Z-9.0000
 X-13.3594 Z-8.2867
 X-13.3125 Z-7.9641
 X-13.2188 Z-7.5765
 X-13.1719 Z-7.4175
 X-13.1484 Z-7.3385
 X-13.1250 Z-7.2604
 X-12.9375 Z-6.8007
 X-12.8438 Z-6.6136
 X-12.7969 Z-6.5201
 X-12.7500 Z-6.4265
 X-12.5625 Z-6.1259
 X-12.3750 Z-5.8542
 X-12.2344 Z-5.6503
 X-12.1875 Z-5.5898
 X-12.0000 Z-5.3815
 X-11.8125 Z-5.1773
 X-11.7188 Z-5.0824
 X-11.6250 Z-4.9911
 X-11.2500 Z-4.6946
 X-11.0625 Z-4.5508
 X-10.9219 Z-4.4430
 X-10.8750 Z-4.4073
 X-10.5000 Z-4.1915
 X-10.1250 Z-3.9976
 X-9.9375 Z-3.9028
 X-9.7500 Z-3.8221
 X-9.3750 Z-3.6892
 X-9.0000 Z-3.5788
 X-8.6250 Z-3.4862
 X-8.2500 Z-3.4123
 X-7.8750 Z-3.3528
 X-7.5000 Z-3.3203
 X-7.1250 Z-3.2985
 X-6.7500 Z-3.3063
 X-6.3750 Z-3.3283
 X-6.0000 Z-3.3709
 X-5.6250 Z-3.4358
 X-5.2500 Z-3.5122
 X-4.8750 Z-3.6157
 X-4.5938 Z-3.6972
 X-4.5000 Z-3.7251
 X-4.1250 Z-3.8814
 X-3.7500 Z-4.0567
 X-3.3750 Z-4.2588
 X-3.0000 Z-4.5051
 X-2.8125 Z-4.6381
 X-2.6250 Z-4.7812
 X-2.2500 Z-5.1272
 X-1.9688 Z-5.4208
 X-1.9219 Z-5.4697
 X-1.8750 Z-5.5187
 X-1.6875 Z-5.7453
 X-1.5000 Z-6.0173
 X-1.4062 Z-6.1608
 X-1.3125 Z-6.3045
 X-1.1250 Z-6.6936
 X-0.9844 Z-6.9902
 X-0.9375 Z-7.1034
 X-0.8438 Z-7.4065
 X-0.7969 Z-7.5580
 X-0.7500 Z-7.7096
 X-0.6562 Z-8.2027
 X-0.6094 Z-8.5098
 X-0.5859 Z-9.0000
 X-0.5757
 X-0.5750 Z-11.0000
 X0.5625
 X0.6094 Z-8.5017
 X0.6562 Z-8.1792
 X0.7031 Z-7.8566
 X0.7500 Z-7.6827
 X0.8438 Z-7.3647
 X0.8906 Z-7.2086
 X0.9141 Z-7.1316
 X0.9258 Z-7.0934
 X0.9375 Z-7.0577
 X1.1250 Z-6.6759
 X1.2188 Z-6.4889
 X1.2656 Z-6.3953
 X1.2891 Z-6.3486
 X1.3125 Z-6.3071
 X1.5000 Z-6.0353
 X1.6875 Z-5.7635
 X1.8750 Z-5.5203
 X2.0625 Z-5.3120
 X2.1562 Z-5.2101
 X2.2500 Z-5.1135
 X2.6250 Z-4.7905
 X3.0000 Z-4.5029
 X3.0938 Z-4.4310
 X3.1406 Z-4.3956
 X3.1641 Z-4.3784
 X3.1875 Z-4.3615
 X3.3750 Z-4.2562
 X3.7500 Z-4.0622
 X3.9375 Z-3.9652
 X4.1250 Z-3.8745
 X4.5000 Z-3.7307
 X4.8750 Z-3.6103
 X5.2500 Z-3.5170
 X5.6250 Z-3.4321
 X6.0000 Z-3.3726
 X6.3750 Z-3.3288
 X6.7500 Z-3.3032
 X7.1250 Z-3.3035
 X7.5000 Z-3.3151
 X7.8750 Z-3.3567
 X8.2500 Z-3.4104
 X8.6250 Z-3.4865
 X9.0000 Z-3.5795
 X9.3750 Z-3.6882
 X9.4688 Z-3.7155
 X9.5625 Z-3.7456
 X9.7500 Z-3.8230
 X10.1250 Z-3.9983
 X10.5000 Z-4.1881
 X10.8750 Z-4.4165
 X11.2500 Z-4.6837
 X11.4375 Z-4.8325
 X11.6250 Z-4.9967
 X12.0000 Z-5.3882
 X12.0938 Z-5.4861
 X12.1875 Z-5.5840
 X12.3750 Z-5.8332
 X12.5625 Z-6.1129
 X12.6562 Z-6.2566
 X12.7500 Z-6.4300
 X12.9375 Z-6.8255
 X13.0312 Z-7.0232
 X13.0781 Z-7.1539
 X13.1250 Z-7.3055
 X13.2188 Z-7.6086
 X13.2656 Z-7.7602
 X13.3125 Z-7.9981
 X13.4062 Z-9.0000
 X13.4238
 X13.4253 Z-11.0000
 X19.5000
 X19.5059 Z-5.0000
 X22.5000
 X22.5059 Z0.0000
 X28.5000
G0 Z2.0000
 X-28.5000 Y-19.8107
G1 Z0.0000
 X-22.5000
 Z-5.0000
 X-19.5000
 Z-11.0000
 X-14.0625
 X-13.9688 Z-8.4808
 X-13.8867 Z-7.8673
 X-13.8750 Z-7.8039
 X-13.7812 Z-7.4577
 X-13.7344 Z-7.2852
 X-13.7109 Z-7.1997
 X-13.6992 Z-7.1572
 X-13.6875 Z-7.1148
 X-13.5938 Z-6.8786
 X-13.5000 Z-6.6665
 X-13.4062 Z-6.4585
 X-13.3594 Z-6.3547
 X-13.3125 Z-6.2701
 X-13.1250 Z-5.9682
 X-12.7500 Z-5.4226
 X-12.5625 Z-5.1913
 X-12.3750 Z-4.9599
 X-12.0000 Z-4.6164
 X-11.8125 Z-4.4523
 X-11.6250 Z-4.2978
 X-11.2500 Z-4.0362
 X-11.0625 Z-3.9143
 X-10.8750 Z-3.7996
 X-10.5000 Z-3.6128
 X-10.1250 Z-3.4423
 X-9.8438 Z-3.3262
 X-9.7500 Z-3.2883
 X-9.3750 Z-3.1768
 X-9.0000 Z-3.0788
 X-8.6250 Z-2.9973
 X-8.2500 Z-2.9265
 X-7.8750 Z-2.8785
 X-7.5000 Z-2.8519
 X-7.1250 Z-2.8379
 X-6.7500 Z-2.8422
 X-6.3750 Z-2.8590
 X-6.0000 Z-2.8908
 X-5.6250 Z-2.9500
 X-5.2500 Z-3.0228
 X-4.8750 Z-3.1085
 X-4.5000 Z-3.2139
 X-4.3125 Z-3.2689
 X-4.1250 Z-3.3339
 X-3.7500 Z-3.4999
 X-3.3750 Z-3.6690
 X-3.0000 Z-3.8789
 X-2.6250 Z-4.1249
 X-2.4375 Z-4.2479
 X-2.3906 Z-4.2791
 X-2.3438 Z-4.3111
 X-2.2500 Z-4.3880
 X-1.8750 Z-4.7346
 X-1.5000 Z-5.1172
 X-1.3125 Z-5.3374
 X-1.2188 Z-5.4477
 X-1.1719 Z-5.5039
 X-1.1250 Z-5.5610
 X-0.9375 Z-5.8547
 X-0.7500 Z-6.1702
 X-0.5625 Z-6.5476
 X-0.3750 Z-6.9818
 X-0.2812 Z-7.2718
 X-0.1406 Z-7.7711
 X-0.1172 Z-7.8819
 X-0.0234 Z-8.5561
 X-0.0117 Z-9.0000
 X-0.0033
 X-0.0031 Z-11.0000
 X0.0000
 X0.0938 Z-8.0134
 X0.1406 Z-7.7462
 X0.1875 Z-7.5731
 X0.2812 Z-7.2282
 X0.3047 Z-7.1431
 X0.3164 Z-7.1007
 X0.3223 Z-7.0796
 X0.3281 Z-7.0598
 X0.3750 Z-6.9506
 X0.5625 Z-6.5278
 X0.7500 Z-6.1694
 X0.9375 Z-5.8675
 X1.0312 Z-5.7166
 X1.1250 Z-5.5769
 X1.5000 Z-5.1141
 X1.8750 Z-4.7259
 X2.2500 Z-4.3976
 X2.6250 Z-4.1233
 X3.0000 Z-3.8761
 X3.3750 Z-3.6738
 X3.7500 Z-3.4946
 X4.1250 Z-3.3391
 X4.5000 Z-3.2101
 X4.8750 Z-3.1115
 X5.2500 Z-3.0217
 X5.6250 Z-2.9487
 X6.0000 Z-2.8942
 X6.3750 Z-2.8571
 X6.7500 Z-2.8415
 X7.1250 Z-2.8405
 X7.5000 Z-2.8505
 X7.8750 Z-2.8770
 X8.2500 Z-2.9300
 X8.6250 Z-2.9944
 X9.0000 Z-3.0799
 X9.3750 Z-3.1772
 X9.7500 Z-3.2873
 X10.1250 Z-3.4435
 X10.5000 Z-3.6126
 X10.6875 Z-3.6984
 X10.7812 Z-3.7448
 X10.8750 Z-3.7970
 X11.5312 Z-4.2274
 X11.5781 Z-4.2582
 X11.6250 Z-4.2897
 X12.0000 Z-4.6189
 X12.2812 Z-4.8791
 X12.3750 Z-4.9704
 X12.6562 Z-5.3007
 X12.7500 Z-5.4108
 X12.8438 Z-5.5229
 X12.8906 Z-5.5803
 X12.9375 Z-5.6462
 X13.1250 Z-5.9599
 X13.3125 Z-6.2754
 X13.4062 Z-6.4752
 X13.5000 Z-6.6923
 X13.5938 Z-6.9094
 X13.6875 Z-7.1609
 X13.8750 Z-7.8266
 X13.9688 Z-8.4999
 X13.9922 Z-9.0000
 X13.9966
 X13.9973 Z-11.0000
 X19.5000
 X19.5059 Z-5.0000
 X22.5000
 X22.5059 Z0.0000
 X28.5000
G0 Z2.0000
 X-28.5000 Y-19.0631
G1 Z0.0000
 X-22.5000
 Z-5.0000
 X-19.5000
 Z-11.0000
 X-14.6250
 X-14.4375 Z-8.5145
 X-14.3906 Z-8.1406
 X-14.3672 Z-7.9537
 X-14.3555 Z-7.8603
 X-14.3438 Z-7.7977
 X-14.2500 Z-7.4332
 X-14.0625 Z-6.8409
 X-13.9688 Z-6.6147
 X-13.9219 Z-6.5019
 X-13.8750 Z-6.3889
 X-13.6875 Z-6.0424
 X-13.5938 Z-5.8784
 X-13.5000 Z-5.7144
 X-13.1250 Z-5.1880
 X-12.7500 Z-4.7411
 X-12.5625 Z-4.5475
 X-12.4688 Z-4.4545
 X-12.3750 Z-4.3632
 X-12.0000 Z-4.0669
 X-11.8125 Z-3.9215
 X-11.6719 Z-3.8124
 X-11.6250 Z-3.7770
 X-11.2500 Z-3.5560
 X-10.8750 Z-3.3473
 X-10.5000 Z-3.1730
 X-10.1250 Z-3.0279
 X-9.9375 Z-2.9558
 X-9.8438 Z-2.9200
 X-9.7500 Z-2.8862
 X-9.3750 Z-2.7892
 X-9.1875 Z-2.7429
 X-9.0938 Z-2.7219
 X-9.0469 Z-2.7122
 X-9.0000 Z-2.7028
 X-8.6250 Z-2.6755
 X-8.2500 Z-2.6753
 X-6.7500
 X-6.3750 Z-2.6761
 X-5.2500
 X-4.8750 Z-2.7310
 X-4.5000 Z-2.8181
 X-4.1250 Z-2.9340
 X-3.7500 Z-3.0739
 X-3.3750 Z-3.2284
 X-3.0000 Z-3.4117
 X-2.6250 Z-3.6318
 X-2.2500 Z-3.8707
 X-1.8750 Z-4.1588
 X-1.5000 Z-4.4949
 X-1.2188 Z-4.7807
 X-1.1250 Z-4.8759
 X-0.9375 Z-5.0980
 X-0.7500 Z-5.3409
 X-0.6562 Z-5.4657
 X-0.6094 Z-5.5291
 X-0.5859 Z-5.5611
 X-0.5625 Z-5.5932
 X-0.3750 Z-5.9261
 X-0.1875 Z-6.2657
 X-0.0938 Z-6.4785
 X-0.0469 Z-6.5953
 X-0.0059 Z-6.6976
 X0.0000 Z-6.6900
 X0.0938 Z-6.4643
 X0.1875 Z-6.2612
 X0.3750 Z-5.9331
 X0.7500 Z-5.3556
 X0.9375 Z-5.1042
 X1.1250 Z-4.8732
 X1.3125 Z-4.6755
 X1.5000 Z-4.4852
 X1.8750 Z-4.1638
 X2.2500 Z-3.8730
 X2.6250 Z-3.6263
 X3.0000 Z-3.4168
 X3.1875 Z-3.3125
 X3.3750 Z-3.2257
 X3.7500 Z-3.0759
 X4.1250 Z-2.9318
 X4.5000 Z-2.8203
 X4.8750 Z-2.7286
 X5.2500 Z-2.6527
 X5.6250 Z-2.5882
 X6.0000 Z-2.5360
 X6.3750 Z-2.5092
 X6.7500 Z-2.4961
 X7.1250 Z-2.4945
 X7.5000 Z-2.5043
 X7.8750 Z-2.5252
 X8.2500 Z-2.5681
 X8.6250 Z-2.6300
 X9.0000 Z-2.7029
 X9.3750 Z-2.7874
 X9.7500 Z-2.8896
 X10.1250 Z-3.0241
 X10.5000 Z-3.1769
 X10.6875 Z-3.2542
 X10.8750 Z-3.3426
 X11.2500 Z-3.5582
 X11.6250 Z-3.7789
 X12.0000 Z-4.0589
 X12.1875 Z-4.2094
 X12.3750 Z-4.3679
 X12.7500 Z-4.7489
 X12.9375 Z-4.9394
 X13.1250 Z-5.1786
 X13.3125 Z-5.4238
 X13.4062 Z-5.5504
 X13.5000 Z-5.6998
 X13.7812 Z-6.2091
 X13.8750 Z-6.4007
 X14.0625 Z-6.8680
 X14.1094 Z-6.9848
 X14.1562 Z-7.1227
 X14.2500 Z-7.4809
 X14.4375 Z-8.5768
 X14.4609 Z-9.0000
 X14.4624 Z-11.0000
 X19.5000
 X19.5059 Z-5.0000
 X22.5000
 X22.5059 Z0.0000
 X28.5000
G0 Z2.0000
 X-28.5000 Y-18.3155
G1 Z0.0000
 X-22.5000
 Z-5.0000
 X-19.5000
 Z-11.0000
 X-15.0000
 X-14.8125 Z-8.5898
 X-14.7656 Z-8.2087
 X-14.7422 Z-8.0189
 X-14.7305 Z-7.9242
 X-14.7246 Z-7.8769
 X-14.7188 Z-7.8296
 X-14.6250 Z-7.4574
 X-14.4375 Z-6.8383
 X-14.2969 Z-6.4771
 X-14.2500 Z-6.3567
 X-14.0625 Z-5.9970
 X-13.9688 Z-5.8221
 X-13.8750 Z-5.6471
 X-13.5000 Z-5.1029
 X-13.1250 Z-4.6476
 X-12.9375 Z-4.4374
 X-12.7500 Z-4.2544
 X-12.3750 Z-3.9382
 X-12.0000 Z-3.6543
 X-11.6250 Z-3.4029
 X-11.2500 Z-3.1934
 X-10.8750 Z-3.0107
 X-10.6875 Z-2.9196
 X-10.5000 Z-2.8428
 X-10.3125 Z-2.7798
 X-10.2188 Z-2.7482
 X-10.1719 Z-2.7325
 X-10.1484 Z-2.7246
 X-10.0137 Z-2.6793
 X-10.0122 Z-2.6788
 X-10.0115 Z-2.6786
 X-10.0107 Z-2.6783
 X-10.0100 Z-2.6781
 X-10.0096 Z-2.6780
 X-10.0095 Z-2.6779
 X-10.0094
 X-10.0093
 X-10.0078 Z-2.6777
 X-9.9844 Z-2.6776
 X-9.9375 Z-2.6774
 X-9.7500 Z-2.6773
 X-9.3750 Z-2.6755
 X-9.0000
 X-8.6250 Z-2.6753
 X-6.3750
 X-6.0000 Z-2.6752
 X-4.0371
 X-4.0312
 X-4.0078 Z-2.6778
 X-3.9961 Z-2.6793
 X-3.9902 Z-2.6802
 X-3.9844 Z-2.6812
 X-3.9375 Z-2.6953
 X-3.7500 Z-2.7563
 X-3.3750 Z-2.8936
 X-3.0000 Z-3.0680
 X-2.8125 Z-3.1605
 X-2.6250 Z-3.2559
 X-2.2500 Z-3.4888
 X-2.0625 Z-3.6100
 X-1.9688 Z-3.6706
 X-1.8750 Z-3.7324
 X-1.5000 Z-4.0436
 X-1.3125 Z-4.2071
 X-1.1250 Z-4.3795
 X-0.7500 Z-4.7896
 X-0.5625 Z-5.0069
 X-0.3750 Z-5.2678
 X-0.2812 Z-5.4003
 X-0.1875 Z-5.5346
 X-0.0938 Z-5.6881
 X-0.0469 Z-5.7778
 X0.0000 Z-5.8676
 X0.3750 Z-5.2817
 X0.7500 Z-4.7885
 X0.9375 Z-4.5772
 X1.0312 Z-4.4721
 X1.0781 Z-4.4202
 X1.1250 Z-4.3688
 X1.5000 Z-4.0435
 X1.6875 Z-3.8855
 X1.8750 Z-3.7383
 X2.2500 Z-3.4863
 X2.4375 Z-3.3623
 X2.6250 Z-3.2543
 X3.1875 Z-2.9802
 X3.2812 Z-2.9346
 X3.3750 Z-2.8901
 X3.7500 Z-2.7587
 X4.1250 Z-2.6338
 X4.5000 Z-2.5251
 X4.8750 Z-2.4495
 X5.2500 Z-2.3825
 X5.6250 Z-2.3270
 X6.0000 Z-2.2832
 X6.3750 Z-2.2596
 X6.7500 Z-2.2484
 X7.1250 Z-2.2468
 X7.5000 Z-2.2549
 X7.8750 Z-2.2723
 X8.2500 Z-2.3116
 X8.6250 Z-2.3633
 X9.0000 Z-2.4255
 X9.3750 Z-2.4988
 X9.7500 Z-2.5966
 X10.1250 Z-2.7151
 X10.5000 Z-2.8445
 X10.8750 Z-3.0095
 X11.2500 Z-3.1923
 X11.6250 Z-3.4080
 X12.0000 Z-3.6503
 X12.3750 Z-3.9345
 X12.7500 Z-4.2616
 X13.1250 Z-4.6529
 X13.3125 Z-4.8580
 X13.5000 Z-5.0937
 X13.6875 Z-5.3559
 X13.7812 Z-5.4896
 X13.8750 Z-5.6285
 X14.0625 Z-5.9873
 X14.2031 Z-6.2567
 X14.2500 Z-6.3561
 X14.4375 Z-6.8505
 X14.4844 Z-6.9741
 X14.5312 Z-7.1166
 X14.6250 Z-7.4955
 X14.8125 Z-9.0000
 X14.8169
 X14.8176 Z-11.0000
 X19.5000
 X19.5059 Z-5.0000
 X22.5000
 X22.5059 Z0.0000
 X28.5000
G0 Z2.0000
 X-28.5000 Y-17.5680
G1 Z0.0000
 X-22.5000
 Z-5.0000
 X-19.5000
 Z-11.0000
 X-15.1875
 X-15.0938 Z-9.0000
 X-15.0469 Z-8.2898
 X-15.0117 Z-7.9955
 X-15.0000 Z-7.8973
 X-14.9062 Z-7.4743
 X-14.8594 Z-7.2806
 X-14.8359 Z-7.1837
 X-14.8125 Z-7.0868
 X-14.6250 Z-6.5728
 X-14.4375 Z-6.1367
 X-14.2500 Z-5.7694
 X-14.0625 Z-5.4516
 X-13.8750 Z-5.1701
 X-13.5000 Z-4.6797
 X-13.3125 Z-4.4579
 X-13.1250 Z-4.2577
 X-12.7500 Z-3.9170
 X-12.3750 Z-3.6205
 X-12.0000 Z-3.3517
 X-11.6250 Z-3.1275
 X-11.2500 Z-2.9258
 X-11.0625 Z-2.8375
 X-10.9688 Z-2.7994
 X-10.9219 Z-2.7804
 X-10.8750 Z-2.7614
 X-10.7812 Z-2.7233
 X-10.6934 Z-2.6877
 X-10.6904 Z-2.6865
 X-10.6875 Z-2.6853
 X-10.5000 Z-2.6757
 X-10.1250 Z-2.6752
 X-9.3750
 X-9.0000 Z-2.6755
 X-8.6250 Z-2.6753
 X-6.7500
 X-6.3750 Z-2.6752
 X-3.7500
 X-3.5625 Z-2.6759
 X-3.3750
 X-3.1875 Z-2.7351
 X-3.0000 Z-2.8096
 X-2.6250 Z-2.9941
 X-2.2500 Z-3.1996
 X-1.8750 Z-3.4363
 X-1.6875 Z-3.5704
 X-1.5000 Z-3.7078
 X-1.1250 Z-4.0353
 X-0.9375 Z-4.2083
 X-0.7500 Z-4.3929
 X-0.3750 Z-4.8268
 X-0.1875 Z-5.0691
 X-0.0938 Z-5.2068
 X-0.0469 Z-5.2756
 X-0.0234 Z-5.3101
 X-0.0117 Z-5.3274
 X-0.0059 Z-5.3360
 X-0.0029 Z-5.3403
 X-0.0015 Z-5.3425
 X-0.0007 Z-5.3436
 X-0.0002 Z-5.3444
 X0.0000 Z-5.3447
 X0.3750 Z-4.8275
 X0.6562 Z-4.4948
 X0.7031 Z-4.4394
 X0.7500 Z-4.3841
 X1.1250 Z-4.0294
 X1.5000 Z-3.7101
 X1.8750 Z-3.4413
 X2.2500 Z-3.1977
 X2.6250 Z-2.9920
 X3.0000 Z-2.8121
 X3.3750 Z-2.6601
 X3.5625 Z-2.5871
 X3.7500 Z-2.5213
 X4.1250 Z-2.4197
 X4.5000 Z-2.3259
 X4.8750 Z-2.2499
 X5.2500 Z-2.1982
 X5.6250 Z-2.1538
 X6.0000 Z-2.1179
 X6.3750 Z-2.0956
 X6.7500 Z-2.0887
 X7.1250 Z-2.0876
 X7.5000 Z-2.0926
 X7.8750 Z-2.1082
 X8.2500 Z-2.1410
 X8.6250 Z-2.1827
 X9.0000 Z-2.2318
 X9.3750 Z-2.2951
 X9.7500 Z-2.3884
 X10.1250 Z-2.4859
 X10.5000 Z-2.6132
 X10.8750 Z-2.7596
 X11.2500 Z-2.9256
 X11.8125 Z-3.2339
 X12.0000 Z-3.3489
 X12.3750 Z-3.6160
 X12.7500 Z-3.9200
 X13.1250 Z-4.2660
 X13.5000 Z-4.6821
 X13.5938 Z-4.7906
 X13.6875 Z-4.8991
 X13.8750 Z-5.1609
 X14.0625 Z-5.4371
 X14.1094 Z-5.5067
 X14.1562 Z-5.5766
 X14.2500 Z-5.7486
 X14.4375 Z-6.1196
 X14.4844 Z-6.2132
 X14.5312 Z-6.3067
 X14.6250 Z-6.5588
 X14.7656 Z-6.9451
 X14.8125 Z-7.0800
 X15.0000 Z-7.9122
 X15.0938 Z-9.0000
 X15.0952 Z-11.0000
 X19.5000
 X19.5059 Z-5.0000
 X22.5000
 X22.5059 Z0.0000
 X28.5000
G0 Z2.0000
 X-28.5000 Y-16.8204
G1 Z0.0000
 X-22.5000
 Z-5.0000
 X-19.5000
 Z-11.0000
 X-15.3750
 X-15.2812 Z-9.0000
 X-15.2344 Z-8.2085
 X-15.2109 Z-8.0053
 X-15.1875 Z-7.8151
 X-15.0938 Z-7.4144
 X-15.0469 Z-7.2139
 X-15.0234 Z-7.1137
 X-15.0000 Z-7.0305
 X-14.8125 Z-6.5077
 X-14.6250 Z-6.0770
 X-14.4375 Z-5.6971
 X-14.2500 Z-5.3865
 X-13.8750 Z-4.8350
 X-13.5938 Z-4.4910
 X-13.5000 Z-4.3762
 X-13.1250 Z-4.0060
 X-12.7500 Z-3.6771
 X-12.3750 Z-3.3950
 X-12.0000 Z-3.1506
 X-11.6250 Z-2.9283
 X-11.4375 Z-2.8305
 X-11.3438 Z-2.7886
 X-11.2969 Z-2.7678
 X-11.2734 Z-2.7574
 X-11.2617 Z-2.7522
 X-11.2500 Z-2.7470
 X-11.1562 Z-2.7059
 X-11.1328 Z-2.6957
 X-11.1211 Z-2.6906
 X-11.1152 Z-2.6881
 X-11.1123 Z-2.6868
 X-11.1108 Z-2.6862
 X-11.1094 Z-2.6855
 X-11.0977 Z-2.6805
 X-11.0918 Z-2.6779
 X-11.0889 Z-2.6767
 X-11.0874 Z-2.6760
 X-11.0863 Z-2.6755
 X-11.0861
 X-11.0859 Z-2.6754
 X-11.0625 Z-2.6752
 X-8.6250
 X-8.2500 Z-2.6753
 X-6.7500
 X-6.3750 Z-2.6752
 X-4.1250
 X-3.7500 Z-2.6756
 X-3.3750 Z-2.6759
 X-3.1875 Z-2.6761
 X-3.0938 Z-2.6770
 X-2.9414
 X-2.9355
 X-2.9297 Z-2.6771
 X-2.9238 Z-2.6772
 X-2.9209 Z-2.6773
 X-2.9194 Z-2.6774
 X-2.9187
 X-2.9180
 X-2.9150 Z-2.6775
 X-2.9136 Z-2.6776
 X-2.9128
 X-2.9125 Z-2.6777
 X-2.9123
 X-2.9122
 X-2.9121
 X-2.9062 Z-2.6800
 X-2.8594 Z-2.7008
 X-2.8125 Z-2.7216
 X-2.6250 Z-2.8050
 X-2.2500 Z-3.0015
 X-1.8750 Z-3.2207
 X-1.5000 Z-3.4876
 X-1.1250 Z-3.7750
 X-0.7500 Z-4.1340
 X-0.3750 Z-4.5347
 X-0.0469 Z-4.9301
 X-0.0234 Z-4.9608
 X0.0000 Z-4.9966
 X0.3750 Z-4.5292
 X0.7500 Z-4.1258
 X0.9375 Z-3.9464
 X1.0312 Z-3.8573
 X1.1250 Z-3.7711
 X1.5000 Z-3.4890
 X1.8750 Z-3.2247
 X2.2500 Z-3.0024
 X2.6250 Z-2.8025
 X3.0000 Z-2.6382
 X3.3750 Z-2.4914
 X3.7500 Z-2.3741
 X3.9375 Z-2.3177
 X4.1250 Z-2.2663
 X4.5000 Z-2.1948
 X4.8750 Z-2.1279
 X5.2500 Z-2.0825
 X5.6250 Z-2.0550
 X6.0000 Z-2.0318
 X6.3750 Z-2.0147
 X6.7500 Z-2.0110
 X7.5000
 X7.8750 Z-2.0254
 X8.2500 Z-2.0467
 X8.6250 Z-2.0729
 X9.0000 Z-2.1066
 X9.3750 Z-2.1722
 X9.7500 Z-2.2417
 X10.1250 Z-2.3372
 X10.5000 Z-2.4517
 X10.8750 Z-2.5828
 X11.2500 Z-2.7494
 X11.6250 Z-2.9290
 X12.0000 Z-3.1470
 X12.3750 Z-3.3918
 X12.7500 Z-3.6792
 X13.1250 Z-4.0138
 X13.3125 Z-4.1940
 X13.5000 Z-4.3840
 X13.8750 Z-4.8359
 X14.0625 Z-5.0922
 X14.3438 Z-5.5224
 X14.4375 Z-5.6816
 X14.6250 Z-6.0569
 X14.8125 Z-6.4773
 X14.9062 Z-6.7386
 X14.9531 Z-6.8695
 X14.9766 Z-6.9351
 X15.0000 Z-7.0007
 X15.0938 Z-7.3710
 X15.1406 Z-7.5730
 X15.1875 Z-7.7753
 X15.2812 Z-8.5432
 X15.2930 Z-9.0000
 X15.2985
 X15.2986 Z-11.0000
 X19.5000
 X19.5059 Z-5.0000
 X22.5000
 X22.5059 Z0.0000
 X28.5000
G0 Z2.0000
 X-28.5000 Y-16.0728
G1 Z0.0000
 X-22.5000
 Z-5.0000
 X-19.5000
 Z-11.0000
 X-15.7500
 X-15.3750 Z-8.2976
 X-15.2812 Z-7.6507
 X-15.1875 Z-7.2419
 X-15.0938 Z-6.9128
 X-15.0000 Z-6.6463
 X-14.8125 Z-6.1699
 X-14.6250 Z-5.7825
 X-14.4375 Z-5.4462
 X-14.2500 Z-5.1493
 X-13.8750 Z-4.6389
 X-13.5000 Z-4.2047
 X-13.3125 Z-4.0192
 X-13.2188 Z-3.9267
 X-13.1250 Z-3.8344
 X-12.7500 Z-3.5303
 X-12.5625 Z-3.3844
 X-12.3750 Z-3.2497
 X-11.8125 Z-2.9049
 X-11.7188 Z-2.8535
 X-11.6250 Z-2.8094
 X-11.5312 Z-2.7654
 X-11.4434 Z-2.7241
 X-11.4375 Z-2.7213
 X-11.3672 Z-2.6883
 X-11.3613 Z-2.6857
 X-11.3555 Z-2.6837
 X-11.3496 Z-2.6820
 X-11.3467 Z-2.6812
 X-11.3438 Z-2.6805
 X-11.2500 Z-2.6759
 X-10.8750 Z-2.6752
 X-8.2500
 X-8.1562 Z-2.6757
 X-8.0684
 X-8.0625 Z-2.6761
 X-8.0508 Z-2.6771
 X-8.0449 Z-2.6775
 X-8.0391
 X-8.0332
 X-8.0273 Z-2.6776
 X-8.0215 Z-11.0000
 X-5.9766
 X-5.9707 Z-2.6768
 X-5.9678 Z-2.6762
 X-5.9663 Z-2.6759
 X-5.9648 Z-2.6757
 X-5.9531 Z-2.6752
 X-4.5000
 X-4.1250 Z-2.6754
 X-2.7422
 X-2.7188 Z-2.6762
 X-2.6953 Z-2.6772
 X-2.6836 Z-2.6783
 X-2.6777 Z-2.6787
 X-2.6748 Z-2.6789
 X-2.6719 Z-2.6791
 X-2.6602 Z-2.6801
 X-2.6543 Z-2.6806
 X-2.6514 Z-2.6809
 X-2.6499 Z-2.6811
 X-2.6492 Z-2.6812
 X-2.6484 Z-2.6813
 X-2.6250 Z-2.6901
 X-2.4375 Z-2.7776
 X-2.3438 Z-2.8215
 X-2.2500 Z-2.8657
 X-1.8750 Z-3.0952
 X-1.6875 Z-3.2115
 X-1.5000 Z-3.3376
 X-1.1250 Z-3.6328
 X-0.7500 Z-3.9654
 X-0.3750 Z-4.3355
 X-0.1875 Z-4.5675
 X-0.0469 Z-4.7416
 X-0.0234 Z-4.7706
 X-0.0029 Z-4.7960
 X0.0000 Z-4.7949
 X0.2812 Z-4.4439
 X0.3750 Z-4.3287
 X0.7500 Z-3.9575
 X1.1250 Z-3.6278
 X1.3125 Z-3.4817
 X1.5000 Z-3.3358
 X1.8750 Z-3.0964
 X2.1562 Z-2.9240
 X2.2500 Z-2.8681
 X2.8125 Z-2.6039
 X3.0000 Z-2.5204
 X3.3750 Z-2.3935
 X3.5625 Z-2.3309
 X3.6562 Z-2.2999
 X3.7500 Z-2.2706
 X4.1250 Z-2.1898
 X4.3125 Z-2.1495
 X4.5000 Z-2.1098
 X4.8750 Z-2.0661
 X5.2500 Z-2.0291
 X5.6250 Z-2.0110
 X8.2500
 X8.6250 Z-2.0172
 X9.0000 Z-2.0536
 X9.3750 Z-2.0915
 X9.7500 Z-2.1629
 X10.1250 Z-2.2431
 X10.5000 Z-2.3527
 X10.8750 Z-2.4788
 X11.2500 Z-2.6321
 X11.6250 Z-2.8069
 X12.0000 Z-3.0177
 X12.3750 Z-3.2503
 X12.7500 Z-3.5344
 X12.9375 Z-3.6820
 X13.1250 Z-3.8420
 X13.5000 Z-4.2121
 X13.8750 Z-4.6449
 X14.0625 Z-4.8769
 X14.2500 Z-5.1520
 X14.4375 Z-5.4465
 X14.4844 Z-5.5201
 X14.5312 Z-5.5938
 X14.6250 Z-5.7798
 X14.8125 Z-6.1640
 X14.9062 Z-6.3692
 X15.0938 Z-6.8981
 X15.1875 Z-7.2161
 X15.3750 Z-8.2313
 X15.4219 Z-9.0000
 X15.4248 Z-11.0000
 X19.5000
 X19.5059 Z-5.0000
 X22.5000
 X22.5059 Z0.0000
 X28.5000
G0 Z2.0000
 X-28.5000 Y-15.3252
G1 Z0.0000
 X-22.5000
 Z-5.0000
 X-19.5000
 Z-11.0000
 X-15.5625
 X-15.4688 Z-8.5290
 X-15.3984 Z-7.9039
 X-15.3750 Z-7.7624
 X-15.2812 Z-7.3510
 X-15.1875 Z-6.9821
 X-15.0000 Z-6.4453
 X-14.8125 Z-6.0215
 X-14.6719 Z-5.7290
 X-14.6250 Z-5.6315
 X-14.4375 Z-5.3285
 X-14.2500 Z-5.0296
 X-13.8750 Z-4.5417
 X-13.5000 Z-4.1248
 X-13.3125 Z-3.9373
 X-13.2188 Z-3.8436
 X-13.1250 Z-3.7561
 X-12.7500 Z-3.4573
 X-12.3750 Z-3.1869
 X-12.0000 Z-2.9519
 X-11.8125 Z-2.8436
 X-11.7188 Z-2.7986
 X-11.6719 Z-2.7761
 X-11.6484 Z-2.7649
 X-11.6250 Z-2.7536
 X-11.5312 Z-2.7087
 X-11.5078 Z-2.6974
 X-11.4844 Z-2.6862
 X-11.4697 Z-2.6792
 X-11.4690 Z-2.6789
 X-11.4683 Z-2.6788
 X-11.4668 Z-2.6786
 X-11.4609 Z-2.6781
 X-11.4375 Z-2.6769
 X-11.2500 Z-2.6763
 X-10.8750 Z-2.6752
 X-8.4961
 X-8.4902 Z-2.6754
 X-8.4844 Z-2.6761
 X-8.4727 Z-2.6763
 X-8.4492
 X-8.4434 Z-11.0000
 X-5.5562
 X-5.5554 Z-2.6783
 X-5.5551 Z-2.6781
 X-5.5549 Z-2.6779
 X-5.5547 Z-2.6778
 X-5.5532 Z-2.6773
 X-5.5525 Z-2.6770
 X-5.5518 Z-2.6768
 X-5.5488 Z-2.6761
 X-5.5474 Z-2.6759
 X-5.5466 Z-2.6757
 X-5.5459 Z-2.6756
 X-5.5430 Z-2.6754
 X-2.5448
 X-2.5444
 X-2.5430 Z-2.6758
 X-2.5312 Z-2.6803
 X-2.4375 Z-2.7254
 X-2.2500 Z-2.8157
 X-1.8750 Z-3.0337
 X-1.5000 Z-3.2694
 X-1.1250 Z-3.5626
 X-0.7500 Z-3.8822
 X-0.3750 Z-4.2572
 X-0.2812 Z-4.3549
 X-0.0938 Z-4.5900
 X-0.0469 Z-4.5908
 X-0.0234 Z-4.5905
 X-0.0117
 X-0.0059 Z-4.5904
 X-0.0029
 X-0.0015
 X0.0000
 X0.3750 Z-4.2498
 X0.7500 Z-3.8748
 X1.1250 Z-3.5569
 X1.3125 Z-3.4076
 X1.5000 Z-3.2653
 X1.8750 Z-3.0302
 X2.2500 Z-2.8136
 X2.6250 Z-2.6337
 X3.0000 Z-2.4756
 X3.3750 Z-2.3450
 X3.7500 Z-2.2350
 X4.1250 Z-2.1498
 X4.5000 Z-2.0820
 X4.8750 Z-2.0400
 X5.2500 Z-2.0110
 X8.6250
 X9.0000 Z-2.0262
 X9.3750 Z-2.0679
 X9.7500 Z-2.1210
 X10.1250 Z-2.2061
 X10.5000 Z-2.3010
 X10.8750 Z-2.4322
 X11.2500 Z-2.5749
 X11.6250 Z-2.7555
 X12.0000 Z-2.9552
 X12.3750 Z-3.1908
 X12.7500 Z-3.4629
 X12.9375 Z-3.6124
 X13.1250 Z-3.7620
 X13.5000 Z-4.1322
 X13.8750 Z-4.5508
 X14.0625 Z-4.7859
 X14.2500 Z-5.0404
 X14.5312 Z-5.4880
 X14.6250 Z-5.6442
 X14.8125 Z-6.0336
 X14.9062 Z-6.2283
 X15.0000 Z-6.4612
 X15.0938 Z-6.7291
 X15.1406 Z-6.8631
 X15.1875 Z-6.9971
 X15.2812 Z-7.3731
 X15.3750 Z-7.7838
 X15.4688 Z-8.5713
 X15.4805 Z-9.0000
 X15.4849
 X15.4856 Z-11.0000
 X19.5000
 X19.5059 Z-5.0000
 X22.5000
 X22.5059 Z0.0000
 X28.5000
G0 Z2.0000
 X-28.5000 Y-14.5777
G1 Z0.0000
 X-22.5000
 Z-5.0000
 X-19.5000
 Z-11.0000
 X-15.5625
 X-15.4688 Z-8.5306
 X-15.3984 Z-7.9065
 X-15.3750 Z-7.7637
 X-15.2812 Z-7.3526
 X-15.1875 Z-6.9835
 X-15.0938 Z-6.7157
 X-15.0000 Z-6.4479
 X-14.8125 Z-6.0241
 X-14.7188 Z-5.8295
 X-14.6719 Z-5.7323
 X-14.6250 Z-5.6350
 X-14.4375 Z-5.3321
 X-14.3438 Z-5.1832
 X-14.2500 Z-5.0343
 X-13.8750 Z-4.5471
 X-13.5000 Z-4.1304
 X-13.3125 Z-3.9437
 X-13.2188 Z-3.8503
 X-13.1250 Z-3.7617
 X-12.7500 Z-3.4641
 X-12.3750 Z-3.1929
 X-12.0000 Z-2.9584
 X-11.8125 Z-2.8487
 X-11.7188 Z-2.8038
 X-11.6719 Z-2.7813
 X-11.4573 Z-2.6785
 X-11.4569 Z-2.6783
 X-11.4565 Z-2.6782
 X-11.4551 Z-2.6780
 X-11.4521 Z-2.6776
 X-11.4492 Z-2.6774
 X-11.4375 Z-2.6767
 X-11.2500 Z-2.6763
 X-10.8750 Z-2.6752
 X-8.4331
 X-8.4324
 X-8.4316 Z-2.6754
 X-8.4258 Z-2.6767
 X-8.4199 Z-11.0000
 X-6.0000
 X-5.6250 Z-8.1957
 X-5.5796 Z-7.9505
 X-5.5789 Z-2.6770
 X-5.5781
 X-5.5312 Z-2.6754
 X-2.5474
 X-2.5466 Z-2.6755
 X-2.5459 Z-2.6759
 X-2.5312 Z-2.6829
 X-2.2500 Z-2.8184
 X-1.8750 Z-3.0372
 X-1.6875 Z-3.1550
 X-1.5938 Z-3.2139
 X-1.5000 Z-3.2729
 X-1.1250 Z-3.5670
 X-0.7500 Z-3.8878
 X-0.3750 Z-4.2628
 X0.0000 Z-4.2715
 X0.0938 Z-4.2725
 X0.1406 Z-4.2736
 X0.2812 Z-4.2772
 X0.3047 Z-4.2778
 X0.3508 Z-4.2790
 X0.3516 Z-4.2784
 X0.3750 Z-4.2550
 X0.7500 Z-3.8814
 X1.1250 Z-3.5633
 X1.4062 Z-3.3401
 X1.5000 Z-3.2711
 X1.8750 Z-3.0366
 X2.2500 Z-2.8188
 X2.6250 Z-2.6391
 X3.0000 Z-2.4794
 X3.3750 Z-2.3489
 X3.7500 Z-2.2375
 X4.1250 Z-2.1524
 X4.5000 Z-2.0835
 X4.8750 Z-2.0419
 X5.2500 Z-2.0110
 X8.6250
 X9.0000 Z-2.0281
 X9.3750 Z-2.0697
 X9.7500 Z-2.1243
 X10.1250 Z-2.2088
 X10.5000 Z-2.3042
 X10.8750 Z-2.4346
 X11.2500 Z-2.5777
 X11.6250 Z-2.7582
 X12.0000 Z-2.9587
 X12.3750 Z-3.1943
 X12.7500 Z-3.4673
 X12.9375 Z-3.6169
 X13.1250 Z-3.7664
 X13.5000 Z-4.1378
 X13.8750 Z-4.5578
 X14.0625 Z-4.7929
 X14.2500 Z-5.0492
 X14.4375 Z-5.3476
 X14.5312 Z-5.4968
 X14.6250 Z-5.6558
 X14.8125 Z-6.0451
 X14.9062 Z-6.2398
 X15.0000 Z-6.4770
 X15.0938 Z-6.7450
 X15.1875 Z-7.0129
 X15.2812 Z-7.3975
 X15.3750 Z-7.8082
 X15.4688 Z-9.0000
 X15.4805
 X15.4834 Z-11.0000
 X19.5000
 X19.5059 Z-5.0000
 X22.5000
 X22.5059 Z0.0000
 X28.5000
G0 Z2.0000
 X-28.5000 Y-13.8301
G1 Z0.0000
 X-22.5000
 Z-5.0000
 X-19.5000
 Z-11.0000
 X-15.7500
 X-15.3750 Z-8.3958
 X-15.2812 Z-7.6994
 X-15.1875 Z-7.2906
 X-15.0938 Z-6.9445
 X-15.0000 Z-6.6779
 X-14.8125 Z-6.1930
 X-14.6250 Z-5.8056
 X-14.4375 Z-5.4638
 X-14.2500 Z-5.1669
 X-13.8750 Z-4.6547
 X-13.5000 Z-4.2211
 X-13.1250 Z-3.8546
 X-12.7500 Z-3.5478
 X-12.5625 Z-3.4020
 X-12.3750 Z-3.2635
 X-12.0000 Z-3.0336
 X-11.8125 Z-2.9187
 X-11.7188 Z-2.8641
 X-11.6250 Z-2.8200
 X-11.5312 Z-2.7760
 X-11.4844 Z-2.7540
 X-11.4609 Z-2.7429
 X-11.4492 Z-2.7374
 X-11.3379 Z-2.6851
 X-11.3364 Z-2.6844
 X-11.3357 Z-2.6841
 X-11.3353 Z-2.6839
 X-11.3351
 Z-2.6838
 X-11.3350
 X-11.3320 Z-2.6831
 X-11.3203 Z-2.6817
 X-11.3086 Z-2.6805
 X-11.2969 Z-2.6789
 X-11.2500 Z-2.6759
 X-10.8750 Z-2.6752
 X-8.2500
 X-8.1562 Z-2.6757
 X-8.0625
 X-8.0156 Z-2.6761
 X-7.9922 Z-2.6773
 X-7.9219
 X-7.9102
 X-7.9043 Z-2.6774
 X-7.8984 Z-2.6775
 X-7.8926 Z-11.0000
 X-6.1055
 X-6.0996 Z-2.6752
 X-4.5000
 X-4.1250 Z-2.6754
 X-2.8125
 X-2.7656 Z-2.6766
 X-2.7422 Z-2.6770
 X-2.7188
 X-2.6953 Z-2.6788
 X-2.6895 Z-2.6800
 X-2.6836 Z-2.6811
 X-2.6777 Z-2.6816
 X-2.6748 Z-2.6818
 X-2.6741 Z-2.6819
 X-2.6737
 X-2.6733
 X-2.6719 Z-2.6822
 X-2.6250 Z-2.7031
 X-2.3438 Z-2.8333
 X-2.2500 Z-2.8777
 X-1.8750 Z-3.1065
 X-1.5000 Z-3.3509
 X-1.1250 Z-3.6460
 X-1.0312 Z-3.7198
 X-0.9375 Z-3.7969
 X-0.6328 Z-4.0976
 X-0.6094 Z-4.0975
 X-0.5625 Z-4.0958
 X-0.3750 Z-4.0895
 X0.0000 Z-4.0848
 X0.1875 Z-4.0864
 X0.2812 Z-4.0876
 X0.3281 Z-4.0884
 X0.3516 Z-4.0889
 X0.3633 Z-4.0892
 X0.3691 Z-4.0893
 X0.3750 Z-4.0895
 X0.4688 Z-4.0923
 X0.5156 Z-4.0941
 X0.6094 Z-4.0975
 X0.6152 Z-4.0977
 X0.6255 Z-4.0981
 X0.6270 Z-4.0967
 X0.6328 Z-4.0910
 X0.6562 Z-4.0681
 X0.7500 Z-3.9766
 X1.1250 Z-3.6451
 X1.5000 Z-3.3533
 X1.8750 Z-3.1103
 X2.2500 Z-2.8804
 X2.6250 Z-2.7026
 X2.8125 Z-2.6146
 X2.9062 Z-2.5709
 X3.0000 Z-2.5289
 X3.3750 Z-2.4042
 X3.7500 Z-2.2804
 X4.1250 Z-2.1974
 X4.5000 Z-2.1193
 X4.8750 Z-2.0711
 X5.2500 Z-2.0350
 X5.6250 Z-2.0110
 X8.2500
 X8.6250 Z-2.0235
 X9.0000 Z-2.0590
 X9.1875 Z-2.0774
 X9.2812 Z-2.0867
 X9.3750 Z-2.0961
 X9.7500 Z-2.1716
 X10.1250 Z-2.2506
 X10.5000 Z-2.3623
 X10.8750 Z-2.4884
 X11.2500 Z-2.6453
 X11.6250 Z-2.8188
 X12.0000 Z-3.0299
 X12.1875 Z-3.1449
 X12.2812 Z-3.2027
 X12.3750 Z-3.2607
 X12.7500 Z-3.5476
 X13.1250 Z-3.8586
 X13.5000 Z-4.2287
 X13.8750 Z-4.6656
 X14.0625 Z-4.8977
 X14.2500 Z-5.1784
 X14.4375 Z-5.4729
 X14.6250 Z-5.8142
 X14.8125 Z-6.1984
 X14.9062 Z-6.4167
 X15.0000 Z-6.6811
 X15.3750 Z-8.3785
 X15.3984 Z-8.5838
 X15.4102 Z-9.0000
 X15.4131
 X15.4146 Z-11.0000
 X19.5000
 X19.5059 Z-5.0000
 X22.5000
 X22.5059 Z0.0000
 X28.5000
G0 Z2.0000
 X-28.5000 Y-13.0825
G1 Z0.0000
 X-22.5000
 Z-5.0000
 X-19.5000
 Z-11.0000
 X-15.2812
 X-15.2344 Z-8.4037
 X-15.1875 Z-7.9979
 X-15.0938 Z-7.5108
 X-15.0469 Z-7.3105
 X-15.0000 Z-7.1101
 X-14.8125 Z-6.5707
 X-14.7422 Z-6.3747
 X-14.7188 Z-6.3126
 X-14.6250 Z-6.1227
 X-14.4375 Z-5.7428
 X-14.2500 Z-5.4216
 X-14.0625 Z-5.1305
 X-13.8750 Z-4.8626
 X-13.6875 Z-4.6340
 X-13.5938 Z-4.5205
 X-13.5000 Z-4.4076
 X-13.1250 Z-4.0373
 X-12.7500 Z-3.7032
 X-12.3750 Z-3.4210
 X-12.0000 Z-3.1712
 X-11.6250 Z-2.9494
 X-11.4375 Z-2.8486
 X-11.3438 Z-2.8076
 X-11.2969 Z-2.7873
 X-11.0625 Z-2.6859
 X-10.8750 Z-2.6752
 X-8.6250
 X-8.2500 Z-2.6753
 X-6.7500
 X-6.3750 Z-2.6752
 X-3.7500
 X-3.3750 Z-2.6759
 X-3.1875 Z-2.6761
 X-3.0938 Z-2.6770
 X-3.0117
 X-3.0059
 X-3.0000
 X-2.9766 Z-2.6774
 X-2.9648 Z-2.6776
 X-2.9590 Z-2.6777
 X-2.9561 Z-2.6778
 X-2.9546 Z-2.6779
 X-2.9539
 X-2.9531 Z-2.6780
 X-2.9062 Z-2.6982
 X-2.8594 Z-2.7190
 X-2.6250 Z-2.8232
 X-2.2500 Z-3.0253
 X-2.0625 Z-3.1340
 X-1.8750 Z-3.2427
 X-1.5000 Z-3.5099
 X-1.3125 Z-3.6531
 X-1.2188 Z-3.7250
 X-1.1719 Z-3.7609
 X-1.1484 Z-3.7788
 X-1.1367 Z-3.7897
 X-0.9023 Z-4.0149
 X-0.8906 Z-4.0154
 X0.8906
 X0.9375 Z-3.9783
 X1.1250 Z-3.8014
 X1.5000 Z-3.5151
 X1.8750 Z-3.2453
 X2.2500 Z-3.0230
 X2.6250 Z-2.8212
 X3.0000 Z-2.6588
 X3.3750 Z-2.5064
 X3.7500 Z-2.3914
 X3.9375 Z-2.3361
 X4.1250 Z-2.2808
 X4.5000 Z-2.2083
 X4.8750 Z-2.1422
 X5.2500 Z-2.0904
 X5.6250 Z-2.0637
 X6.0000 Z-2.0414
 X6.3750 Z-2.0251
 X6.7500 Z-2.0157
 X7.1250 Z-2.0143
 X7.5000 Z-2.0211
 X7.8750 Z-2.0353
 X8.2500 Z-2.0558
 X8.6250 Z-2.0811
 X9.0000 Z-2.1216
 X9.3750 Z-2.1856
 X9.7500 Z-2.2546
 X10.1250 Z-2.3539
 X10.5000 Z-2.4684
 X10.8750 Z-2.6025
 X11.2500 Z-2.7676
 X11.6250 Z-2.9528
 X12.0000 Z-3.1702
 X12.3750 Z-3.4156
 X12.7500 Z-3.7010
 X13.1250 Z-4.0412
 X13.3125 Z-4.2214
 X13.5000 Z-4.4184
 X13.8750 Z-4.8703
 X14.0625 Z-5.1358
 X14.2500 Z-5.4226
 X14.4375 Z-5.7385
 X14.6250 Z-6.1127
 X14.8125 Z-6.5492
 X14.9062 Z-6.8068
 X14.9531 Z-6.9358
 X14.9766 Z-7.0004
 X15.0000 Z-7.0666
 X15.0938 Z-7.4638
 X15.1406 Z-7.6628
 X15.1875 Z-7.8979
 X15.2344 Z-8.3026
 X15.2578 Z-8.5053
 X15.2695 Z-8.6066
 X15.2725 Z-9.0000
 X15.2739
 X15.2747 Z-11.0000
 X19.5000
 X19.5059 Z-5.0000
 X22.5000
 X22.5059 Z0.0000
 X28.5000
G0 Z2.0000
 X-28.5000 Y-12.3350
G1 Z0.0000
 X-22.5000
 Z-5.0000
 X-19.5000
 Z-11.0000
 X-15.0938
 X-15.0469 Z-8.5799
 X-15.0234 Z-8.3834
 X-15.0000 Z-8.1872
 X-14.9062 Z-7.6175
 X-14.8125 Z-7.2300
 X-14.7188 Z-6.9189
 X-14.6250 Z-6.6662
 X-14.4375 Z-6.2046
 X-14.2500 Z-5.8373
 X-14.0625 Z-5.5037
 X-13.8750 Z-5.2221
 X-13.5000 Z-4.7207
 X-13.3125 Z-4.5018
 X-13.2188 Z-4.3939
 X-13.1250 Z-4.2970
 X-12.7500 Z-3.9599
 X-12.3750 Z-3.6548
 X-12.0000 Z-3.3860
 X-11.6250 Z-3.1577
 X-11.2500 Z-2.9588
 X-11.0625 Z-2.8628
 X-10.9688 Z-2.8247
 X-10.8750 Z-2.7867
 X-10.7812 Z-2.7487
 X-10.7344 Z-2.7300
 X-10.7109 Z-2.7207
 X-10.6992 Z-2.7161
 X-10.6875 Z-2.7115
 X-10.6406 Z-2.6932
 X-10.6172 Z-2.6842
 X-10.6055 Z-2.6797
 X-10.5996 Z-2.6775
 X-10.5981 Z-2.6769
 X-10.5974 Z-2.6766
 X-10.5970 Z-2.6765
 X-10.5967 Z-2.6764
 X-10.5938 Z-2.6757
 X-10.1250
 X-9.7500 Z-2.6755
 X-9.3750
 X-9.0000
 X-8.6250 Z-2.6753
 X-6.7500
 X-6.3750 Z-2.6752
 X-3.7500
 X-3.5625 Z-2.6759
 X-3.4219
 X-3.3750 Z-2.6895
 X-3.1875 Z-2.7627
 X-3.0000 Z-2.8358
 X-2.6250 Z-3.0242
 X-2.2500 Z-3.2297
 X-1.8750 Z-3.4740
 X-1.5000 Z-3.7387
 X-1.4062 Z-3.8137
 X-1.3594 Z-3.8569
 X-1.2045 Z-3.9999
 X-1.2043 Z-4.0000
 X1.1250
 X1.5000 Z-3.7444
 X2.0625 Z-3.3411
 X2.2500 Z-3.2257
 X2.6250 Z-3.0250
 X3.0000 Z-2.8374
 X3.3750 Z-2.6872
 X3.7500 Z-2.5466
 X4.1250 Z-2.4424
 X4.5000 Z-2.3503
 X4.8750 Z-2.2675
 X5.2500 Z-2.2168
 X5.6250 Z-2.1734
 X6.0000 Z-2.1386
 X6.3750 Z-2.1139
 X6.7500 Z-2.1003
 X7.1250 Z-2.0985
 X7.5000 Z-2.1079
 X7.8750 Z-2.1291
 X8.2500 Z-2.1608
 X8.6250 Z-2.2014
 X9.0000 Z-2.2495
 X9.3750 Z-2.3208
 X9.7500 Z-2.4115
 X10.1250 Z-2.5083
 X10.5000 Z-2.6407
 X10.8750 Z-2.7870
 X11.2500 Z-2.9559
 X11.6250 Z-3.1612
 X12.0000 Z-3.3870
 X12.3750 Z-3.6490
 X12.7500 Z-3.9579
 X12.9375 Z-4.1308
 X13.0312 Z-4.2173
 X13.1250 Z-4.3038
 X13.5000 Z-4.7296
 X13.6875 Z-4.9465
 X13.8750 Z-5.2211
 X14.0625 Z-5.4964
 X14.2500 Z-5.8199
 X14.4375 Z-6.1829
 X14.5312 Z-6.3835
 X14.6250 Z-6.6381
 X14.7188 Z-6.8947
 X14.7656 Z-7.0233
 X14.8125 Z-7.2001
 X15.0000 Z-8.1557
 X15.0469 Z-8.5555
 X15.0586 Z-9.0000
 X15.0615
 X15.0630 Z-11.0000
 X19.5000
 X19.5059 Z-5.0000
 X22.5000
 X22.5059 Z0.0000
 X28.5000
G0 Z2.0000
 X-28.5000 Y-11.5874
G1 Z0.0000
 X-22.5000
 Z-5.0000
 X-19.5000
 Z-11.0000
 X-14.8125
 X-14.7656 Z-8.5809
 X-14.7188 Z-8.2068
 X-14.6719 Z-7.8328
 X-14.6250 Z-7.6454
 X-14.5312 Z-7.2762
 X-14.4375 Z-6.9610
 X-14.3438 Z-6.7201
 X-14.2500 Z-6.4792
 X-14.0625 Z-6.0861
 X-13.9688 Z-5.9111
 X-13.8750 Z-5.7362
 X-13.5000 Z-5.1712
 X-13.1250 Z-4.7023
 X-12.9375 Z-4.4980
 X-12.8438 Z-4.3985
 X-12.7500 Z-4.3067
 X-12.3750 Z-3.9908
 X-12.0000 Z-3.6962
 X-11.6250 Z-3.4486
 X-11.2500 Z-3.2321
 X-10.8750 Z-3.0493
 X-10.6875 Z-2.9604
 X-10.5000 Z-2.8772
 X-10.3125 Z-2.8133
 X-10.2188 Z-2.7818
 X-10.1719 Z-2.7661
 X-10.1250 Z-2.7503
 X-10.0312 Z-2.7189
 X-9.9844 Z-2.7037
 X-9.9609 Z-2.6963
 X-9.9492 Z-2.6926
 X-9.9434 Z-2.6907
 X-9.9375 Z-2.6889
 X-9.7500 Z-2.6773
 X-9.3750 Z-2.6755
 X-9.0000
 X-8.6250 Z-2.6753
 X-6.3750
 X-6.0000 Z-2.6752
 X-4.1250
 X-3.7500 Z-2.7902
 X-3.3750 Z-2.9349
 X-3.0000 Z-3.1088
 X-2.8125 Z-3.1976
 X-2.7188 Z-3.2442
 X-2.6250 Z-3.2921
 X-1.8750 Z-3.7767
 X-1.7812 Z-3.8522
 X-1.7344 Z-3.8910
 X-1.7109 Z-3.9106
 X-1.6992 Z-3.9204
 X-1.6934 Z-3.9253
 X-1.6904 Z-3.9278
 X-1.6890 Z-3.9290
 X-1.6875 Z-3.9302
 X-1.6406 Z-3.9699
 X-1.6172 Z-3.9899
 X-1.6113 Z-3.9949
 X-1.6084 Z-3.9974
 X-1.6069 Z-3.9987
 X-1.6055 Z-3.9999
 X-1.6025 Z-4.0024
 X-1.6011 Z-4.0037
 X-1.6003 Z-4.0043
 X-1.6000 Z-4.0046
 X-1.5998 Z-4.0048
 X-1.5996 Z-4.0050
 X-1.5981 Z-4.0062
 X-1.5974 Z-4.0069
 X-1.5970 Z-4.0072
 X-1.5969 Z-4.0073
 X-1.5967 Z-4.0075
 X-1.5938 Z-4.0076
 X-1.5000 Z-4.0002
 X-1.1250 Z-4.0000
 X1.4971
 X1.4985 Z-4.0001
 X1.5000 Z-4.0002
 X1.8750 Z-3.7802
 X2.2500 Z-3.5290
 X2.4375 Z-3.4094
 X2.5312 Z-3.3514
 X2.6250 Z-3.2935
 X3.0000 Z-3.1103
 X3.3750 Z-2.9322
 X3.7500 Z-2.7923
 X4.1250 Z-2.6698
 X4.5000 Z-2.5592
 X4.8750 Z-2.4786
 X5.2500 Z-2.4127
 X5.6250 Z-2.3582
 X6.0000 Z-2.3156
 X6.3750 Z-2.2855
 X6.7500 Z-2.2706
 X7.1250 Z-2.2690
 X7.5000 Z-2.2786
 X7.8750 Z-2.3045
 X8.2500 Z-2.3433
 X8.6250 Z-2.3935
 X9.0000 Z-2.4549
 X9.3750 Z-2.5269
 X9.7500 Z-2.6320
 X10.1250 Z-2.7505
 X10.3125 Z-2.8108
 X10.5000 Z-2.8770
 X10.8750 Z-3.0509
 X11.0625 Z-3.1379
 X11.2500 Z-3.2285
 X11.6250 Z-3.4536
 X12.0000 Z-3.6959
 X12.3750 Z-3.9832
 X12.5625 Z-4.1459
 X12.6562 Z-4.2277
 X12.7500 Z-4.3094
 X13.1250 Z-4.7129
 X13.5000 Z-5.1698
 X13.6875 Z-5.4300
 X13.7812 Z-5.5603
 X13.8750 Z-5.7158
 X14.0625 Z-6.0667
 X14.1562 Z-6.2455
 X14.2500 Z-6.4642
 X14.3906 Z-6.8350
 X14.4375 Z-6.9586
 X14.5312 Z-7.2825
 X14.6250 Z-7.6614
 X14.6484 Z-7.7562
 X14.6719 Z-7.8749
 X14.7188 Z-8.2587
 X14.7656 Z-9.0000
 X14.7766
 X14.7770 Z-11.0000
 X19.5000
 X19.5059 Z-5.0000
 X22.5000
 X22.5059 Z0.0000
 X28.5000
G0 Z2.0000
 X-28.5000 Y-10.8398
G1 Z0.0000
 X-22.5000
 Z-5.0000
 X-19.5000
 Z-11.0000
 X-14.4375
 X-14.3906 Z-8.5379
 X-14.3438 Z-8.1754
 X-14.3203 Z-7.9954
 X-14.3086 Z-7.9057
 X-14.3027 Z-7.8609
 X-14.2969 Z-7.8219
 X-14.2500 Z-7.6462
 X-14.1562 Z-7.2989
 X-14.1094 Z-7.1258
 X-14.0625 Z-6.9908
 X-13.8750 Z-6.5393
 X-13.6875 Z-6.1516
 X-13.5000 Z-5.8235
 X-13.1250 Z-5.2717
 X-12.9375 Z-5.0203
 X-12.7500 Z-4.8092
 X-12.3750 Z-4.4404
 X-12.0000 Z-4.1284
 X-11.6719 Z-3.8740
 X-11.6250 Z-3.8378
 X-11.2500 Z-3.6116
 X-10.8750 Z-3.4029
 X-10.5000 Z-3.2204
 X-10.1250 Z-3.0762
 X-9.7500 Z-2.9377
 X-9.3750 Z-2.8293
 X-9.0000 Z-2.7454
 X-8.8125 Z-2.7078
 X-8.7188 Z-2.6890
 X-8.6953 Z-2.6844
 X-8.6836 Z-2.6821
 X-8.6719 Z-2.6799
 X-8.6250 Z-2.6755
 X-8.2500 Z-2.6753
 X-6.7500
 X-6.3750 Z-2.6766
 X-6.0000 Z-2.6761
 X-5.4375
 X-5.3906
 X-5.3672 Z-2.6767
 X-5.3438 Z-2.6791
 X-5.2500 Z-2.6955
 X-4.8750 Z-2.7724
 X-4.5938 Z-2.8357
 X-4.5000 Z-2.8578
 X-4.1250 Z-2.9845
 X-3.7500 Z-3.1206
 X-3.3750 Z-3.2746
 X-3.0000 Z-3.4671
 X-2.6250 Z-3.6842
 X-2.5312 Z-3.7394
 X-2.4375 Z-3.7981
 X-2.2969 Z-3.9019
 X-2.2734 Z-3.9192
 X-2.1006 Z-4.0467
 X-2.0999 Z-4.0472
 X-2.0918 Z-4.0466
 X-2.0859 Z-4.0461
 X-2.0625 Z-4.0443
 X-1.8750 Z-4.0295
 X-1.5000 Z-4.0003
 X-1.1250 Z-4.0000
 X1.1250
 X1.5000 Z-4.0120
 X1.6875 Z-4.0148
 X1.7344 Z-4.0154
 X1.7578
 X1.7812 Z-4.0166
 X1.8281 Z-4.0236
 X1.8516 Z-4.0271
 X1.8633 Z-4.0286
 X1.8691 Z-4.0291
 X1.8750 Z-4.0295
 X1.9688 Z-4.0369
 X2.0156 Z-4.0406
 X2.0391 Z-4.0424
 X2.0508 Z-4.0433
 X2.0610 Z-4.0442
 X2.0618
 X2.0625 Z-4.0443
 X2.2500 Z-3.9346
 X2.6250 Z-3.6812
 X3.0000 Z-3.4724
 X3.1875 Z-3.3681
 X3.2812 Z-3.3159
 X3.3750 Z-3.2705
 X3.7500 Z-3.1243
 X4.1250 Z-2.9809
 X4.5000 Z-2.8604
 X4.8750 Z-2.7705
 X5.2500 Z-2.6953
 X5.6250 Z-2.6327
 X6.0000 Z-2.5818
 X6.3750 Z-2.5465
 X6.7500 Z-2.5300
 X7.1250 Z-2.5285
 X7.5000 Z-2.5399
 X7.8750 Z-2.5678
 X8.2500 Z-2.6133
 X8.6250 Z-2.6736
 X9.0000 Z-2.7443
 X9.3750 Z-2.8287
 X9.7500 Z-2.9401
 X10.1250 Z-3.0733
 X10.5000 Z-3.2231
 X10.8750 Z-3.4009
 X11.2500 Z-3.6107
 X11.6250 Z-3.8442
 X12.0000 Z-4.1213
 X12.1875 Z-4.2667
 X12.3750 Z-4.4396
 X12.7500 Z-4.8206
 X13.1250 Z-5.2695
 X13.3125 Z-5.5113
 X13.3594 Z-5.5721
 X13.4062 Z-5.6395
 X13.5000 Z-5.8025
 X13.6875 Z-6.1386
 X13.7344 Z-6.2235
 X13.7578 Z-6.2660
 X13.7812 Z-6.3084
 X13.8750 Z-6.5373
 X13.9688 Z-6.7710
 X14.0156 Z-6.8878
 X14.0625 Z-7.0047
 X14.1562 Z-7.3322
 X14.2500 Z-7.6904
 X14.2969 Z-7.9128
 X14.3438 Z-8.2757
 X14.3906 Z-9.0000
 X14.4052
 Z-11.0000
 X19.5000
 X19.5059 Z-5.0000
 X22.5000
 X22.5059 Z0.0000
 X28.5000
G0 Z2.0000
 X-28.5000 Y-10.0922
G1 Z0.0000
 X-22.5000
 Z-5.0000
 X-19.5000
 Z-11.0000
 X-13.9688
 X-13.9219 Z-8.5970
 X-13.8984 Z-8.4217
 X-13.8750 Z-8.2470
 X-13.8281 Z-7.9010
 X-13.7812 Z-7.6953
 X-13.7344 Z-7.5290
 X-13.6875 Z-7.3649
 X-13.6406 Z-7.2031
 X-13.6172 Z-7.1230
 X-13.6055 Z-7.0831
 X-13.5938 Z-7.0499
 X-13.5000 Z-6.8422
 X-13.3125 Z-6.4267
 X-13.1250 Z-6.0960
 X-12.9375 Z-5.7941
 X-12.7500 Z-5.5206
 X-12.5625 Z-5.2892
 X-12.4688 Z-5.1735
 X-12.4219 Z-5.1164
 X-12.3750 Z-5.0602
 X-12.0000 Z-4.7039
 X-11.6250 Z-4.3756
 X-11.2500 Z-4.1083
 X-10.8750 Z-3.8766
 X-10.5000 Z-3.6742
 X-10.1250 Z-3.5087
 X-9.7500 Z-3.3540
 X-9.3750 Z-3.2324
 X-9.0000 Z-3.1344
 X-8.6250 Z-3.0555
 X-8.2500 Z-2.9858
 X-7.8750 Z-2.9384
 X-7.5000 Z-2.9062
 X-7.1250 Z-2.8881
 X-6.7500 Z-2.8938
 X-6.3750 Z-2.9151
 X-6.0000 Z-2.9505
 X-5.6250 Z-3.0091
 X-5.2500 Z-3.0797
 X-4.8750 Z-3.1654
 X-4.5000 Z-3.2679
 X-4.1250 Z-3.4015
 X-3.7500 Z-3.5639
 X-3.5625 Z-3.6484
 X-3.3750 Z-3.7330
 X-3.0000 Z-3.9525
 X-2.8125 Z-4.0754
 X-2.7656 Z-4.1062
 X-2.6865 Z-4.1581
 X-2.6858 Z-4.1585
 X-2.6719 Z-4.1551
 X-2.6250 Z-4.1439
 X-2.3438 Z-4.0763
 X-2.2500 Z-4.0590
 X-1.8750 Z-4.0295
 X-1.5000 Z-4.0006
 X-1.1250 Z-4.0000
 X1.1250
 X1.5000 Z-4.0143
 X1.8750 Z-4.0295
 X2.0625 Z-4.0443
 X2.2266 Z-4.0572
 X2.2500 Z-4.0590
 X2.4375 Z-4.0989
 X2.5312 Z-4.1214
 X2.5781 Z-4.1326
 X2.6016 Z-4.1382
 X2.6133 Z-4.1411
 X2.6191 Z-4.1425
 X2.6250 Z-4.1439
 X3.0000 Z-3.9530
 X3.1875 Z-3.8384
 X3.3750 Z-3.7352
 X3.7500 Z-3.5602
 X4.1250 Z-3.4055
 X4.3125 Z-3.3282
 X4.5000 Z-3.2651
 X4.8750 Z-3.1670
 X5.2500 Z-3.0798
 X5.6250 Z-3.0068
 X6.0000 Z-2.9541
 X6.3750 Z-2.9129
 X6.7500 Z-2.8927
 X7.1250 Z-2.8916
 X7.5000 Z-2.9040
 X7.8750 Z-2.9375
 X8.2500 Z-2.9891
 X8.6250 Z-3.0519
 X9.0000 Z-3.1368
 X9.3750 Z-3.2312
 X9.7500 Z-3.3549
 X10.1250 Z-3.5075
 X10.5000 Z-3.6766
 X10.6406 Z-3.7400
 X10.6875 Z-3.7612
 X10.8750 Z-3.8705
 X11.2500 Z-4.1164
 X11.5312 Z-4.3009
 X11.6250 Z-4.3692
 X12.0000 Z-4.7013
 X12.3750 Z-5.0750
 X12.5625 Z-5.2953
 X12.7500 Z-5.5155
 X12.9375 Z-5.7742
 X13.0312 Z-5.9239
 X13.1250 Z-6.0786
 X13.2188 Z-6.2363
 X13.3125 Z-6.4215
 X13.4531 Z-6.7472
 X13.5000 Z-6.8557
 X13.5703 Z-7.0185
 X13.5938 Z-7.0785
 X13.6875 Z-7.4113
 X13.8750 Z-8.3329
 X13.9219 Z-9.0000
 X13.9292
 X13.9299 Z-11.0000
 X19.5000
 X19.5059 Z-5.0000
 X22.5000
 X22.5059 Z0.0000
 X28.5000
G0 Z2.0000
 X-28.5000 Y-9.3447
G1 Z0.0000
 X-22.5000
 Z-5.0000
 X-19.5000
 Z-11.0000
 X-13.3594
 X-13.3359 Z-9.0000
 X-13.3242 Z-8.5912
 X-13.3125 Z-8.5105
 X-13.2656 Z-8.1887
 X-13.2422 Z-8.0297
 X-13.2305 Z-7.9508
 X-13.2246 Z-7.9115
 X-13.2188 Z-7.8723
 X-13.1719 Z-7.6962
 X-13.1250 Z-7.5457
 X-13.0312 Z-7.2535
 X-12.9844 Z-7.1101
 X-12.9375 Z-6.9998
 X-12.7500 Z-6.6258
 X-12.6094 Z-6.3453
 X-12.5625 Z-6.2708
 X-12.3750 Z-5.9990
 X-12.1875 Z-5.7272
 X-12.1406 Z-5.6593
 X-12.0938 Z-5.5966
 X-12.0000 Z-5.4925
 X-11.6250 Z-5.1137
 X-11.2500 Z-4.7912
 X-11.0625 Z-4.6474
 X-10.8750 Z-4.5062
 X-10.5000 Z-4.2748
 X-10.1250 Z-4.0809
 X-9.7500 Z-3.9106
 X-9.5625 Z-3.8325
 X-9.3750 Z-3.7598
 X-9.0000 Z-3.6525
 X-8.6250 Z-3.5600
 X-8.2500 Z-3.4882
 X-7.8750 Z-3.4289
 X-7.5000 Z-3.3976
 X-7.1250 Z-3.3759
 X-6.7500 Z-3.3838
 X-6.3750 Z-3.4050
 X-6.0000 Z-3.4477
 X-5.6250 Z-3.5108
 X-5.2500 Z-3.5869
 X-4.8750 Z-3.6880
 X-4.5938 Z-3.7695
 X-4.5000 Z-3.8008
 X-4.1250 Z-3.9674
 X-3.7500 Z-4.1427
 X-3.5625 Z-4.2343
 X-3.4688 Z-4.2860
 X-3.4219 Z-4.3125
 X-3.3838 Z-4.3341
 X-3.3809 Z-4.3358
 X-3.3750 Z-4.3399
 X-3.0000 Z-4.2339
 X-2.6250 Z-4.1439
 X-2.3438 Z-4.0763
 X-2.2500 Z-4.0590
 X-1.8750 Z-4.0295
 X-1.5000 Z-4.0010
 X-1.1250 Z-4.0000
 X1.1250
 X1.5000 Z-4.0139
 X1.8750 Z-4.0295
 X2.0625 Z-4.0443
 X2.2031 Z-4.0553
 X2.2266 Z-4.0572
 X2.2500 Z-4.0590
 X2.6250 Z-4.1439
 X3.0000 Z-4.2339
 X3.0938 Z-4.2649
 X3.1875 Z-4.3037
 X3.2344 Z-4.3231
 X3.2812 Z-4.3425
 X3.3047 Z-4.3523
 X3.3281 Z-4.3620
 X3.3750 Z-4.3405
 X3.7500 Z-4.1455
 X4.1250 Z-3.9626
 X4.5000 Z-3.8065
 X4.8750 Z-3.6834
 X5.2500 Z-3.5908
 X5.6250 Z-3.5081
 X6.0000 Z-3.4486
 X6.3750 Z-3.4061
 X6.7500 Z-3.3805
 X7.1250 Z-3.3810
 X7.5000 Z-3.3922
 X7.8750 Z-3.4334
 X8.2500 Z-3.4854
 X8.6250 Z-3.5615
 X9.0000 Z-3.6518
 X9.1875 Z-3.7061
 X9.3750 Z-3.7604
 X9.7500 Z-3.9090
 X10.3125 Z-4.1719
 X10.4062 Z-4.2180
 X10.5000 Z-4.2684
 X10.8750 Z-4.5172
 X11.0625 Z-4.6501
 X11.2500 Z-4.7830
 X11.6250 Z-5.1137
 X11.8125 Z-5.3094
 X11.9062 Z-5.4073
 X12.0000 Z-5.5051
 X12.1875 Z-5.7274
 X12.2812 Z-5.8551
 X12.3750 Z-5.9828
 X12.4688 Z-6.1135
 X12.5156 Z-6.1812
 X12.5391 Z-6.2157
 X12.5625 Z-6.2505
 X12.6562 Z-6.4202
 X12.9375 Z-7.0134
 X13.0312 Z-7.2905
 X13.0781 Z-7.4421
 X13.1250 Z-7.5936
 X13.1719 Z-7.7451
 X13.2188 Z-7.9677
 X13.2656 Z-8.2746
 X13.3125 Z-8.5816
 X13.3359 Z-9.0000
 X13.3374 Z-11.0000
 X19.5000
 X19.5059 Z-5.0000
 X22.5000
 X22.5059 Z0.0000
 X28.5000
G0 Z2.0000
 X-28.5000 Y-8.5971
G1 Z0.0000
 X-22.5000
 Z-5.0000
 X-19.5000
 Z-11.0000
 X-12.5859
 X-12.5742 Z-9.0000
 X-12.5684 Z-8.5773
 X-12.5625 Z-8.5429
 X-12.5156 Z-8.2718
 X-12.4922 Z-8.1390
 X-12.4688 Z-8.0081
 X-12.4453 Z-7.8791
 X-12.4395 Z-7.8471
 X-12.4380 Z-7.8391
 X-12.4373 Z-7.8351
 X-12.4369 Z-7.8331
 X-12.4365 Z-7.8312
 X-12.4336 Z-7.8214
 X-12.4219 Z-7.7901
 X-12.1875 Z-7.1620
 X-12.0000 Z-6.7996
 X-11.8125 Z-6.4718
 X-11.7422 Z-6.3489
 X-11.7188 Z-6.3116
 X-11.6250 Z-6.1925
 X-11.4375 Z-5.9553
 X-11.3438 Z-5.8443
 X-11.2500 Z-5.7414
 X-10.8750 Z-5.4029
 X-10.5000 Z-5.0942
 X-10.4062 Z-5.0190
 X-10.3594 Z-4.9840
 X-10.3359 Z-4.9672
 X-10.3125 Z-4.9509
 X-10.1250 Z-4.8524
 X-9.7500 Z-4.6567
 X-9.3750 Z-4.4768
 X-9.0000 Z-4.3321
 X-8.6250 Z-4.2228
 X-8.2500 Z-4.1479
 X-8.0625 Z-4.1106
 X-7.8750 Z-4.0790
 X-7.5000 Z-4.0463
 X-7.3125 Z-4.0303
 X-7.1250 Z-4.0211
 X-6.7500 Z-4.0315
 X-6.5625 Z-4.0369
 X-6.3750 Z-4.0509
 X-6.0000 Z-4.1043
 X-5.6250 Z-4.1665
 X-5.2500 Z-4.2619
 X-5.0156 Z-4.3216
 X-4.9922 Z-4.3277
 X-4.9688 Z-4.3341
 X-4.8750 Z-4.3698
 X-4.5000 Z-4.5399
 X-4.3125 Z-4.6254
 X-4.1719 Z-4.6894
 X-4.1484 Z-4.7003
 X-4.1367 Z-4.7058
 X-4.1309 Z-4.7087
 X-4.1279 Z-4.7101
 X-4.1265 Z-4.7108
 X-4.1257 Z-4.7111
 X-4.1250 Z-4.7115
 X-3.7500 Z-4.5367
 X-3.3750 Z-4.3814
 X-3.1875 Z-4.3037
 X-3.0938 Z-4.2649
 X-3.0000 Z-4.2339
 X-2.6250 Z-4.1439
 X-2.3438 Z-4.0763
 X-2.2500 Z-4.0590
 X-1.8750 Z-4.0295
 X-1.5000 Z-4.0014
 X-1.1250 Z-4.0000
 X1.1250
 X1.5000 Z-4.0136
 X1.8750 Z-4.0295
 X2.0625 Z-4.0443
 X2.2031 Z-4.0553
 X2.2266 Z-4.0572
 X2.2500 Z-4.0590
 X2.6250 Z-4.1439
 X2.9531 Z-4.2226
 X3.0000 Z-4.2339
 X3.3750 Z-4.3814
 X3.7500 Z-4.5367
 X3.8438 Z-4.5902
 X3.9141 Z-4.6333
 X3.9258 Z-4.6405
 X4.0547 Z-4.7195
 X4.0664 Z-4.7266
 X4.0891 Z-4.7406
 X4.0898 Z-4.7403
 X4.3125 Z-4.6241
 X4.5000 Z-4.5289
 X4.8750 Z-4.3798
 X5.0625 Z-4.3128
 X5.2500 Z-4.2549
 X5.6250 Z-4.1728
 X6.0000 Z-4.0982
 X6.3750 Z-4.0571
 X6.5625 Z-4.0410
 X6.7500 Z-4.0250
 X7.1250 Z-4.0280
 X7.3125 Z-4.0333
 X7.5000 Z-4.0391
 X7.8750 Z-4.0865
 X8.0625 Z-4.1132
 X8.2500 Z-4.1404
 X8.6250 Z-4.2301
 X8.9766 Z-4.3196
 X9.0000 Z-4.3256
 X9.3750 Z-4.4830
 X9.7500 Z-4.6538
 X9.9375 Z-4.7433
 X10.1250 Z-4.8509
 X10.5000 Z-5.1034
 X10.6875 Z-5.2429
 X10.7812 Z-5.3128
 X10.8750 Z-5.3875
 X10.9688 Z-5.4689
 X11.0625 Z-5.5533
 X11.2500 Z-5.7549
 X11.4375 Z-5.9750
 X11.7188 Z-6.3052
 X11.7656 Z-6.3748
 X11.8125 Z-6.4506
 X11.9062 Z-6.6056
 X11.9531 Z-6.6869
 X12.0000 Z-6.7709
 X12.0938 Z-6.9454
 X12.1875 Z-7.1528
 X12.3281 Z-7.5569
 X12.3750 Z-7.6917
 X12.5625 Z-9.0000
 X12.5830
 X12.5845 Z-11.0000
 X19.5000
 X19.5059 Z-5.0000
 X22.5000
 X22.5059 Z0.0000
 X28.5000
G0 Z2.0000
 X-28.5000 Y-7.8495
G1 Z0.0000
 X-22.5000
 Z-5.0000
 X-19.5000
 Z-11.0000
 X-11.6250
 X-11.5781 Z-9.0000
 X-11.5605
 X-11.5576 Z-8.6010
 X-11.5312 Z-8.4800
 X-11.4844 Z-8.2647
 X-11.3906 Z-7.8343
 X-11.3672 Z-7.7777
 X-11.2500 Z-7.5122
 X-11.1562 Z-7.2997
 X-11.0625 Z-7.0872
 X-10.8750 Z-6.8014
 X-10.6875 Z-6.5490
 X-10.5938 Z-6.4374
 X-10.5000 Z-6.3260
 X-10.1250 Z-6.0006
 X-9.9375 Z-5.8386
 X-9.8438 Z-5.7583
 X-9.7969 Z-5.7209
 X-9.7734 Z-5.7032
 X-9.7500 Z-5.6862
 X-9.3750 Z-5.4830
 X-9.0000 Z-5.2983
 X-8.6250 Z-5.1584
 X-8.2500 Z-5.0397
 X-8.1562 Z-5.0100
 X-8.1094 Z-4.9952
 X-8.0625 Z-4.9817
 X-7.8750 Z-4.9487
 X-7.3125 Z-4.8882
 X-7.1250 Z-4.8795
 X-6.7500 Z-4.8929
 X-6.5625 Z-4.8996
 X-6.4688 Z-4.9030
 X-6.3750 Z-4.9102
 X-6.0000 Z-4.9818
 X-5.8125 Z-5.0244
 X-5.7188 Z-5.0456
 X-5.6719 Z-5.0563
 X-5.6250 Z-5.0670
 X-5.2500 Z-5.2057
 X-5.1562 Z-5.2437
 X-5.1094 Z-5.2627
 X-4.8992 Z-5.3479
 X-4.8984 Z-5.3474
 X-4.8750 Z-5.3274
 X-4.5469 Z-5.0471
 X-4.5000 Z-5.0071
 X-4.1250 Z-4.7625
 X-3.8438 Z-4.5902
 X-3.7969 Z-4.5615
 X-3.7500 Z-4.5367
 X-3.3750 Z-4.3814
 X-3.1875 Z-4.3037
 X-3.0938 Z-4.2649
 X-3.0000 Z-4.2339
 X-2.6250 Z-4.1439
 X-2.3438 Z-4.0763
 X-2.2500 Z-4.0590
 X-1.8750 Z-4.0295
 X-1.5000 Z-4.0017
 X-1.1250 Z-4.0000
 X1.1250
 X1.5000 Z-4.0132
 X1.8750 Z-4.0295
 X2.0625 Z-4.0443
 X2.1562 Z-4.0516
 X2.2031 Z-4.0553
 X2.2266 Z-4.0572
 X2.2500 Z-4.0590
 X2.6250 Z-4.1439
 X2.9062 Z-4.2114
 X2.9531 Z-4.2226
 X3.0000 Z-4.2339
 X3.3750 Z-4.3814
 X3.6562 Z-4.4979
 X3.7031 Z-4.5173
 X3.7266 Z-4.5270
 X3.7500 Z-4.5367
 X4.1250 Z-4.7625
 X4.3125 Z-4.8774
 X4.3594 Z-4.9062
 X4.3828 Z-4.9205
 X4.4062 Z-4.9349
 X4.5000 Z-5.0071
 X4.7812 Z-5.2473
 X4.8281 Z-5.2873
 X4.8750 Z-5.3274
 X5.2500 Z-5.1979
 X5.8125 Z-5.0199
 X5.9062 Z-4.9904
 X5.9531 Z-4.9777
 X6.0000 Z-4.9674
 X6.3750 Z-4.9218
 X6.7031 Z-4.8866
 X6.7500 Z-4.8822
 X7.1250 Z-4.8884
 X7.5000 Z-4.9019
 X7.8750 Z-4.9535
 X8.2500 Z-5.0385
 X8.6250 Z-5.1550
 X9.1875 Z-5.3830
 X9.2812 Z-5.4221
 X9.3750 Z-5.4686
 X9.7500 Z-5.7064
 X10.1250 Z-5.9894
 X10.3125 Z-6.1423
 X10.4062 Z-6.2320
 X10.4531 Z-6.2775
 X10.5000 Z-6.3237
 X11.0391 Z-7.0438
 X11.0625 Z-7.0819
 X11.1562 Z-7.2740
 X11.2031 Z-7.3699
 X11.2266 Z-7.4182
 X11.2500 Z-7.4675
 X11.3438 Z-7.6766
 X11.3672 Z-7.7318
 X11.3789 Z-7.7599
 X11.3848 Z-7.7740
 X11.3906 Z-7.7882
 X11.4375 Z-7.9822
 X11.5312 Z-8.4526
 X11.5781 Z-9.0000
 X11.5869
 X11.5884 Z-11.0000
 X19.5000
 X19.5059 Z-5.0000
 X22.5000
 X22.5059 Z0.0000
 X28.5000
G0 Z2.0000
 X-28.5000 Y-7.1019
G1 Z0.0000
 X-22.5000
 Z-5.0000
 X-19.5000
 Z-11.0000
 X-10.1250
 X-10.1016 Z-8.5756
 X-10.0898 Z-8.5366
 X-10.0781 Z-8.4983
 X-10.0312 Z-8.3523
 X-9.9844 Z-8.2175
 X-9.9375 Z-8.0888
 X-9.8438 Z-7.8313
 X-9.7500 Z-7.7022
 X-9.5625 Z-7.4479
 X-9.4688 Z-7.3208
 X-9.2812 Z-7.0665
 X-9.2344 Z-7.0235
 X-9.1875 Z-6.9821
 X-9.1406 Z-6.9411
 X-9.0938 Z-6.9036
 X-9.0000 Z-6.8404
 X-8.6250 Z-6.6271
 X-8.4375 Z-6.5205
 X-8.3438 Z-6.4672
 X-8.2500 Z-6.4139
 X-8.2031 Z-6.3876
 X-8.1562 Z-6.3647
 X-8.1094 Z-6.3458
 X-8.0859 Z-6.3380
 X-8.0625 Z-6.3311
 X-7.8750 Z-6.2949
 X-7.3359 Z-6.1990
 X-7.3125 Z-6.1948
 X-7.2656 Z-6.1879
 X-7.2422 Z-6.1856
 X-7.2188 Z-6.1841
 X-7.1250 Z-6.1853
 X-6.4219 Z-6.2271
 X-6.3984 Z-6.2285
 X-6.3750 Z-6.2306
 X-6.1875 Z-6.2727
 X-6.0293 Z-6.3196
 X-6.0234 Z-6.3213
 X-5.8125 Z-6.4073
 X-5.6250 Z-6.1915
 X-5.4375 Z-5.9351
 X-5.2500 Z-5.7156
 X-5.1562 Z-5.6058
 X-5.1094 Z-5.5509
 X-5.0859 Z-5.5235
 X-5.0625 Z-5.4960
 X-4.8750 Z-5.3274
 X-4.5469 Z-5.0471
 X-4.5000 Z-5.0071
 X-4.1250 Z-4.7625
 X-3.8438 Z-4.5902
 X-3.7969 Z-4.5615
 X-3.7500 Z-4.5367
 X-3.3750 Z-4.3814
 X-3.1875 Z-4.3037
 X-3.0938 Z-4.2649
 X-3.0000 Z-4.2339
 X-2.6250 Z-4.1439
 X-2.3438 Z-4.0763
 X-2.2500 Z-4.0590
 X-1.8750 Z-4.0295
 X-1.5000 Z-4.0021
 X-1.1250 Z-4.0000
 X1.1250
 X1.5000 Z-4.0128
 X1.8750 Z-4.0295
 X2.0625 Z-4.0443
 X2.1562 Z-4.0516
 X2.2031 Z-4.0553
 X2.2266 Z-4.0572
 X2.2500 Z-4.0590
 X2.6250 Z-4.1439
 X2.9062 Z-4.2114
 X2.9531 Z-4.2226
 X3.0000 Z-4.2339
 X3.3750 Z-4.3814
 X3.6562 Z-4.4979
 X3.7031 Z-4.5173
 X3.7266 Z-4.5270
 X3.7500 Z-4.5367
 X4.1250 Z-4.7625
 X4.3125 Z-4.8774
 X4.3594 Z-4.9062
 X4.3828 Z-4.9205
 X4.4062 Z-4.9349
 X4.5000 Z-5.0071
 X4.6875 Z-5.1672
 X4.9688 Z-5.4074
 X4.9922 Z-5.4274
 X5.0039 Z-5.4375
 X5.0156 Z-5.4475
 X5.0625 Z-5.4960
 X5.4844 Z-5.9900
 X5.5078 Z-6.0174
 X5.5195 Z-6.0312
 X5.5312 Z-6.0449
 X5.5781 Z-6.1150
 X5.6191 Z-6.1819
 X5.6221 Z-6.1867
 X5.6719 Z-6.2680
 X5.6953 Z-6.3062
 X5.7583 Z-6.4090
 X5.7598 Z-6.4083
 X5.7656 Z-6.4050
 X5.7891 Z-6.3918
 X5.8008 Z-6.3855
 X5.8125 Z-6.3795
 X5.8594 Z-6.3579
 X5.8828 Z-6.3487
 X5.9062 Z-6.3405
 X6.0000 Z-6.3172
 X6.6562 Z-6.2004
 X6.7031 Z-6.1922
 X6.7266 Z-6.1888
 X6.7500 Z-6.1863
 X7.1250 Z-6.2002
 X7.5000 Z-6.2224
 X7.5938 Z-6.2280
 X7.6406 Z-6.2324
 X7.6875 Z-6.2398
 X7.8750 Z-6.2912
 X8.2500 Z-6.4327
 X8.4375 Z-6.5091
 X8.4844 Z-6.5282
 X8.5312 Z-6.5476
 X8.5781 Z-6.5703
 X8.6250 Z-6.5970
 X9.0000 Z-6.8663
 X9.2578 Z-7.0539
 X9.2812 Z-7.0756
 X9.3750 Z-7.1802
 X9.4688 Z-7.2848
 X9.5156 Z-7.3391
 X9.5625 Z-7.3992
 X9.6562 Z-7.5369
 X9.7031 Z-7.6115
 X9.7500 Z-7.6861
 X9.7969 Z-7.7608
 X9.8320 Z-7.8167
 X9.8438 Z-7.8435
 X9.9844 Z-8.2971
 X10.0078 Z-8.3727
 X10.0781 Z-8.5995
 X10.1016 Z-9.0000
 X10.1191
 X10.1206 Z-11.0000
 X19.5000
 X19.5059 Z-5.0000
 X22.5000
 X22.5059 Z0.0000
 X28.5000
G0 Z2.0000
 X-28.5000 Y-6.3544
G1 Z0.0000
 X-22.5000
 Z-5.0000
 X-19.5000
 Z-11.0000
 X-6.5625
 X-6.4688 Z-8.6029
 X-6.4453 Z-8.3051
 X-6.4219 Z-8.1488
 X-6.2637 Z-7.4899
 X-6.2607 Z-7.4777
 X-6.2593 Z-7.4716
 X-6.2578 Z-7.4655
 X-6.2344 Z-7.4044
 X-6.0000 Z-6.8386
 X-5.8125 Z-6.4975
 X-5.6250 Z-6.1915
 X-5.4375 Z-5.9351
 X-5.2500 Z-5.7156
 X-5.1562 Z-5.6058
 X-5.1094 Z-5.5509
 X-5.0625 Z-5.4960
 X-4.8750 Z-5.3274
 X-4.5469 Z-5.0471
 X-4.5000 Z-5.0071
 X-4.1250 Z-4.7625
 X-3.7969 Z-4.5615
 X-3.7500 Z-4.5367
 X-3.3750 Z-4.3814
 X-3.1875 Z-4.3037
 X-3.0938 Z-4.2649
 X-3.0000 Z-4.2339
 X-2.6250 Z-4.1439
 X-2.3438 Z-4.0763
 X-2.2500 Z-4.0590
 X-1.8750 Z-4.0295
 X-1.5000 Z-4.0025
 X-1.1250 Z-4.0000
 X1.1250
 X1.5000 Z-4.0124
 X1.8750 Z-4.0295
 X2.0625 Z-4.0443
 X2.1562 Z-4.0516
 X2.2031 Z-4.0553
 X2.2266 Z-4.0572
 X2.2500 Z-4.0590
 X2.6250 Z-4.1439
 X2.9062 Z-4.2114
 X2.9531 Z-4.2226
 X3.0000 Z-4.2339
 X3.3750 Z-4.3814
 X3.7031 Z-4.5173
 X3.7266 Z-4.5270
 X3.7500 Z-4.5367
 X4.1250 Z-4.7625
 X4.3125 Z-4.8774
 X4.3594 Z-4.9062
 X4.3828 Z-4.9205
 X4.4062 Z-4.9349
 X4.5000 Z-5.0071
 X4.6875 Z-5.1672
 X4.9922 Z-5.4274
 X5.0039 Z-5.4375
 X5.0156 Z-5.4475
 X5.0625 Z-5.4960
 X5.4844 Z-5.9900
 X5.5078 Z-6.0174
 X5.5195 Z-6.0312
 X5.5312 Z-6.0449
 X5.6250 Z-6.1915
 X5.9297 Z-6.6887
 X5.9473 Z-6.7174
 X5.9531 Z-6.7269
 X6.0000 Z-6.8386
 X6.2344 Z-7.4044
 X6.2461 Z-7.4327
 X6.2520 Z-7.4469
 X6.2578 Z-7.4655
 X6.3750 Z-7.9536
 X6.4688 Z-8.6029
 X6.4995 Z-8.9938
 X6.5002 Z-11.0000
 X19.5000
 X19.5059 Z-5.0000
 X22.5000
 X22.5059 Z0.0000
 X28.5000
G0 Z2.0000
 X-28.5000 Y-5.6068
G1 Z0.0000
 X-22.5000
 Z-5.0000
 X-19.5000
 Z-11.0000
 X-6.5625
 X-6.4688 Z-8.6029
 X-6.4453 Z-8.3051
 X-6.4219 Z-8.1488
 X-6.2695 Z-7.5143
 X-6.2637 Z-7.4899
 X-6.2607 Z-7.4777
 X-6.2593 Z-7.4716
 X-6.2578 Z-7.4655
 X-6.2344 Z-7.4044
 X-6.0000 Z-6.8386
 X-5.8125 Z-6.4975
 X-5.6250 Z-6.1915
 X-5.4375 Z-5.9351
 X-5.2500 Z-5.7156
 X-5.1562 Z-5.6058
 X-5.0625 Z-5.4960
 X-4.8750 Z-5.3274
 X-4.5938 Z-5.0871
 X-4.5469 Z-5.0471
 X-4.5000 Z-5.0071
 X-4.1250 Z-4.7625
 X-3.7969 Z-4.5615
 X-3.7500 Z-4.5367
 X-3.3750 Z-4.3814
 X-3.1875 Z-4.3037
 X-3.0938 Z-4.2649
 X-3.0000 Z-4.2339
 X-2.6250 Z-4.1439
 X-2.4375 Z-4.0989
 X-2.3438 Z-4.0763
 X-2.2500 Z-4.0590
 X-1.8750 Z-4.0295
 X-1.5000 Z-4.0029
 X-1.1250 Z-4.0000
 X1.1250
 X1.5000 Z-4.0120
 X1.8750 Z-4.0295
 X2.0625 Z-4.0443
 X2.1562 Z-4.0516
 X2.2031 Z-4.0553
 X2.2266 Z-4.0572
 X2.2500 Z-4.0590
 X2.6250 Z-4.1439
 X2.8125 Z-4.1889
 X2.9062 Z-4.2114
 X3.0000 Z-4.2339
 X3.3750 Z-4.3814
 X3.7031 Z-4.5173
 X3.7266 Z-4.5270
 X3.7500 Z-4.5367
 X4.1250 Z-4.7625
 X4.3125 Z-4.8774
 X4.3594 Z-4.9062
 X4.3828 Z-4.9205
 X4.4062 Z-4.9349
 X4.5000 Z-5.0071
 X4.6875 Z-5.1672
 X4.9688 Z-5.4074
 X4.9922 Z-5.4274
 X5.0156 Z-5.4475
 X5.0625 Z-5.4960
 X5.4375 Z-5.9351
 X5.4844 Z-5.9900
 X5.5078 Z-6.0174
 X5.5195 Z-6.0312
 X5.5312 Z-6.0449
 X5.6250 Z-6.1915
 X5.9062 Z-6.6504
 X5.9297 Z-6.6887
 X5.9414 Z-6.7078
 X5.9473 Z-6.7174
 X5.9531 Z-6.7269
 X6.0000 Z-6.8386
 X6.2344 Z-7.4044
 X6.2461 Z-7.4327
 X6.2520 Z-7.4469
 X6.2578 Z-7.4655
 X6.3750 Z-7.9536
 X6.4688 Z-8.6029
 X6.4995 Z-8.9938
 X6.5002 Z-11.0000
 X19.5000
 X19.5059 Z-5.0000
 X22.5000
 X22.5059 Z0.0000
 X28.5000
G0 Z2.0000
 X-28.5000 Y-4.8592
G1 Z0.0000
 X-22.5000
 Z-5.0000
 X-19.5000
 Z-11.0000
 X-6.5625
 X-6.4688 Z-8.6029
 X-6.4453 Z-8.3051
 X-6.4219 Z-8.1488
 X-6.2695 Z-7.5143
 X-6.2637 Z-7.4899
 X-6.2607 Z-7.4777
 X-6.2578 Z-7.4655
 X-6.2344 Z-7.4044
 X-6.0000 Z-6.8386
 X-5.8125 Z-6.4975
 X-5.6250 Z-6.1915
 X-5.4375 Z-5.9351
 X-5.2500 Z-5.7156
 X-5.1562 Z-5.6058
 X-5.0625 Z-5.4960
 X-4.8750 Z-5.3274
 X-4.5938 Z-5.0871
 X-4.5469 Z-5.0471
 X-4.5000 Z-5.0071
 X-4.1250 Z-4.7625
 X-3.7969 Z-4.5615
 X-3.7500 Z-4.5367
 X-3.3750 Z-4.3814
 X-3.1875 Z-4.3037
 X-3.0938 Z-4.2649
 X-3.0000 Z-4.2339
 X-2.6250 Z-4.1439
 X-2.4375 Z-4.0989
 X-2.3438 Z-4.0763
 X-2.2500 Z-4.0590
 X-1.8750 Z-4.0295
 X-1.5000 Z-4.0032
 X-1.1250 Z-4.0000
 X1.1250
 X1.5000 Z-4.0117
 X1.8750 Z-4.0295
 X2.0625 Z-4.0443
 X2.2031 Z-4.0553
 X2.2266 Z-4.0572
 X2.2500 Z-4.0590
 X2.6250 Z-4.1439
 X2.8125 Z-4.1889
 X2.9531 Z-4.2226
 X3.0000 Z-4.2339
 X3.3750 Z-4.3814
 X3.6562 Z-4.4979
 X3.7031 Z-4.5173
 X3.7266 Z-4.5270
 X3.7500 Z-4.5367
 X4.1250 Z-4.7625
 X4.3594 Z-4.9062
 X4.3828 Z-4.9205
 X4.4062 Z-4.9349
 X4.5000 Z-5.0071
 X4.6875 Z-5.1672
 X4.9688 Z-5.4074
 X4.9922 Z-5.4274
 X5.0156 Z-5.4475
 X5.0625 Z-5.4960
 X5.4375 Z-5.9351
 X5.4844 Z-5.9900
 X5.5078 Z-6.0174
 X5.5195 Z-6.0312
 X5.5312 Z-6.0449
 X5.6250 Z-6.1915
 X5.9062 Z-6.6504
 X5.9414 Z-6.7078
 X5.9531 Z-6.7269
 X6.0000 Z-6.8386
 X6.2344 Z-7.4044
 X6.2461 Z-7.4327
 X6.2520 Z-7.4469
 X6.2578 Z-7.4655
 X6.3750 Z-7.9536
 X6.4688 Z-8.6029
 X6.4995 Z-8.9938
 X6.5002 Z-11.0000
 X19.5000
 X19.5059 Z-5.0000
 X22.5000
 X22.5059 Z0.0000
 X28.5000
G0 Z2.0000
 X-28.5000 Y-4.1117
G1 Z0.0000
 X-22.5000
 Z-5.0000
 X-19.5000
 Z-11.0000
 X-6.5625
 X-6.4688 Z-8.6029
 X-6.4453 Z-8.3051
 X-6.4219 Z-8.1488
 X-6.2637 Z-7.4899
 X-6.2607 Z-7.4777
 X-6.2578 Z-7.4655
 X-6.2344 Z-7.4044
 X-6.0000 Z-6.8386
 X-5.8125 Z-6.4975
 X-5.6250 Z-6.1915
 X-5.4375 Z-5.9351
 X-5.2500 Z-5.7156
 X-5.1562 Z-5.6058
 X-5.0625 Z-5.4960
 X-4.8750 Z-5.3274
 X-4.5938 Z-5.0871
 X-4.5469 Z-5.0471
 X-4.5000 Z-5.0071
 X-4.1250 Z-4.7625
 X-3.7969 Z-4.5615
 X-3.7500 Z-4.5367
 X-3.3750 Z-4.3814
 X-3.1875 Z-4.3037
 X-3.0938 Z-4.2649
 X-3.0000 Z-4.2339
 X-2.6250 Z-4.1439
 X-2.4375 Z-4.0989
 X-2.3438 Z-4.0763
 X-2.2500 Z-4.0590
 X-1.8750 Z-4.0295
 X-1.5000 Z-4.0036
 X-1.1250 Z-4.0000
 X1.1250
 X1.5000 Z-4.0113
 X1.8750 Z-4.0295
 X2.0625 Z-4.0443
 X2.1562 Z-4.0516
 X2.2031 Z-4.0553
 X2.2266 Z-4.0572
 X2.2500 Z-4.0590
 X2.6250 Z-4.1439
 X2.8125 Z-4.1889
 X2.9062 Z-4.2114
 X2.9531 Z-4.2226
 X3.0000 Z-4.2339
 X3.3750 Z-4.3814
 X3.7031 Z-4.5173
 X3.7266 Z-4.5270
 X3.7500 Z-4.5367
 X4.1250 Z-4.7625
 X4.3125 Z-4.8774
 X4.3594 Z-4.9062
 X4.4062 Z-4.9349
 X4.5000 Z-5.0071
 X4.6875 Z-5.1672
 X4.9688 Z-5.4074
 X4.9922 Z-5.4274
 X5.0156 Z-5.4475
 X5.0625 Z-5.4960
 X5.4375 Z-5.9351
 X5.4844 Z-5.9900
 X5.5078 Z-6.0174
 X5.5195 Z-6.0312
 X5.5312 Z-6.0449
 X5.6250 Z-6.1915
 X5.9062 Z-6.6504
 X5.9414 Z-6.7078
 X5.9531 Z-6.7269
 X6.0000 Z-6.8386
 X6.2344 Z-7.4044
 X6.2461 Z-7.4327
 X6.2520 Z-7.4469
 X6.2578 Z-7.4655
 X6.3750 Z-7.9536
 X6.4688 Z-8.6029
 X6.4995 Z-8.9938
 X6.5002 Z-11.0000
 X19.5000
 X19.5059 Z-5.0000
 X22.5000
 X22.5059 Z0.0000
 X28.5000
G0 Z2.0000
 X-28.5000 Y-3.3641
G1 Z0.0000
 X-22.5000
 Z-5.0000
 X-19.5000
 Z-11.0000
 X-6.5625
 X-6.4688 Z-8.6029
 X-6.4453 Z-8.3051
 X-6.4219 Z-8.1488
 X-6.2695 Z-7.5143
 X-6.2637 Z-7.4899
 X-6.2578 Z-7.4655
 X-6.2344 Z-7.4044
 X-6.0000 Z-6.8386
 X-5.8125 Z-6.4975
 X-5.6250 Z-6.1915
 X-5.4375 Z-5.9351
 X-5.1562 Z-5.6058
 X-5.0859 Z-5.5235
 X-5.0625 Z-5.4960
 X-4.8750 Z-5.3274
 X-4.5938 Z-5.0871
 X-4.5469 Z-5.0471
 X-4.5000 Z-5.0071
 X-4.1250 Z-4.7625
 X-3.9375 Z-4.6476
 X-3.8438 Z-4.5902
 X-3.7969 Z-4.5615
 X-3.7500 Z-4.5367
 X-3.3750 Z-4.3814
 X-3.1875 Z-4.3037
 X-3.0938 Z-4.2649
 X-3.0000 Z-4.2339
 X-2.4375 Z-4.0989
 X-2.3438 Z-4.0763
 X-2.2500 Z-4.0590
 X-1.8750 Z-4.0295
 X-1.5000 Z-4.0040
 X-1.1250 Z-4.0000
 X1.1250
 X1.5000 Z-4.0109
 X1.8750 Z-4.0295
 X2.0625 Z-4.0443
 X2.1562 Z-4.0517
 X2.2031 Z-4.0553
 X2.2266 Z-4.0572
 X2.2500 Z-4.0590
 X2.6250 Z-4.1439
 X2.8125 Z-4.1889
 X2.9062 Z-4.2114
 X2.9531 Z-4.2226
 X3.0000 Z-4.2339
 X3.3750 Z-4.3814
 X3.7031 Z-4.5173
 X3.7266 Z-4.5270
 X3.7500 Z-4.5367
 X4.1250 Z-4.7625
 X4.3125 Z-4.8774
 X4.3594 Z-4.9062
 X4.4062 Z-4.9349
 X4.5000 Z-5.0071
 X4.6875 Z-5.1672
 X4.9922 Z-5.4274
 X5.0156 Z-5.4475
 X5.0625 Z-5.4960
 X5.4844 Z-5.9900
 X5.5078 Z-6.0174
 X5.5195 Z-6.0312
 X5.5312 Z-6.0449
 X5.6250 Z-6.1915
 X5.9062 Z-6.6504
 X5.9414 Z-6.7078
 X5.9531 Z-6.7269
 X6.0000 Z-6.8386
 X6.2344 Z-7.4044
 X6.2461 Z-7.4327
 X6.2520 Z-7.4469
 X6.2578 Z-7.4655
 X6.3750 Z-7.9536
 X6.4688 Z-8.6029
 X6.4995 Z-8.9938
 X6.5002 Z-11.0000
 X19.5000
 X19.5059 Z-5.0000
 X22.5000
 X22.5059 Z0.0000
 X28.5000
G0 Z2.0000
 X-28.5000 Y-2.6165
G1 Z0.0000
 X-22.5000
 Z-5.0000
 X-19.5000
 Z-11.0000
 X-6.5625
 X-6.4688 Z-8.6029
 X-6.4453 Z-8.3051
 X-6.4219 Z-8.1488
 X-6.2695 Z-7.5143
 X-6.2637 Z-7.4899
 X-6.2578 Z-7.4655
 X-6.2344 Z-7.4044
 X-6.0000 Z-6.8386
 X-5.8125 Z-6.4975
 X-5.6250 Z-6.1915
 X-5.4375 Z-5.9351
 X-5.2500 Z-5.7156
 X-5.0859 Z-5.5235
 X-5.0625 Z-5.4960
 X-4.8750 Z-5.3274
 X-4.5469 Z-5.0471
 X-4.5000 Z-5.0071
 X-4.1250 Z-4.7625
 X-3.9375 Z-4.6476
 X-3.8438 Z-4.5902
 X-3.7969 Z-4.5615
 X-3.7500 Z-4.5367
 X-3.0938 Z-4.2649
 X-3.0000 Z-4.2339
 X-2.4375 Z-4.0989
 X-2.3438 Z-4.0763
 X-2.2500 Z-4.0590
 X-1.8750 Z-4.0295
 X-1.5000 Z-4.0044
 X-1.1250 Z-4.0000
 X1.1250
 X1.5000 Z-4.0105
 X1.8750 Z-4.0295
 X2.0625 Z-4.0443
 X2.1562 Z-4.0517
 X2.2031 Z-4.0553
 X2.2266 Z-4.0572
 X2.2500 Z-4.0590
 X2.6250 Z-4.1439
 X2.8125 Z-4.1889
 X2.9062 Z-4.2114
 X2.9531 Z-4.2226
 X3.0000 Z-4.2339
 X3.3750 Z-4.3814
 X3.5625 Z-4.4590
 X3.6562 Z-4.4979
 X3.7031 Z-4.5173
 X3.7266 Z-4.5270
 X3.7500 Z-4.5367
 X4.1250 Z-4.7625
 X4.3125 Z-4.8774
 X4.3594 Z-4.9062
 X4.4062 Z-4.9349
 X4.5000 Z-5.0071
 X4.6875 Z-5.1672
 X4.9922 Z-5.4274
 X5.0156 Z-5.4475
 X5.0625 Z-5.4960
 X5.4375 Z-5.9351
 X5.4844 Z-5.9900
 X5.5078 Z-6.0174
 X5.5195 Z-6.0312
 X5.5312 Z-6.0449
 X5.6250 Z-6.1915
 X5.9062 Z-6.6504
 X5.9414 Z-6.7078
 X5.9531 Z-6.7269
 X6.0000 Z-6.8386
 X6.2344 Z-7.4044
 X6.2461 Z-7.4327
 X6.2520 Z-7.4469
 X6.2578 Z-7.4655
 X6.3750 Z-7.9536
 X6.4688 Z-8.6029
 X6.4995 Z-8.9938
 X6.5002 Z-11.0000
 X19.5000
 X19.5059 Z-5.0000
 X22.5000
 X22.5059 Z0.0000
 X28.5000
G0 Z2.0000
 X-28.5000 Y-1.8689
G1 Z0.0000
 X-22.5000
 Z-5.0000
 X-19.5000
 Z-11.0000
 X-6.5625
 X-6.4688 Z-8.6029
 X-6.4453 Z-8.3051
 X-6.4219 Z-8.1488
 X-6.2695 Z-7.5143
 X-6.2637 Z-7.4899
 X-6.2578 Z-7.4655
 X-6.2344 Z-7.4044
 X-6.0000 Z-6.8386
 X-5.8125 Z-6.4975
 X-5.6250 Z-6.1915
 X-5.4375 Z-5.9351
 X-5.2500 Z-5.7156
 X-5.0859 Z-5.5235
 X-5.0625 Z-5.4960
 X-4.8750 Z-5.3274
 X-4.5469 Z-5.0471
 X-4.5000 Z-5.0071
 X-4.1250 Z-4.7625
 X-3.9375 Z-4.6476
 X-3.8438 Z-4.5902
 X-3.7969 Z-4.5615
 X-3.7500 Z-4.5367
 X-3.0938 Z-4.2649
 X-3.0000 Z-4.2339
 X-2.4375 Z-4.0989
 X-2.3438 Z-4.0763
 X-2.2500 Z-4.0590
 X-1.8750 Z-4.0295
 X-1.5000 Z-4.0047
 X-1.1250 Z-4.0000
 X1.1250
 X1.5000 Z-4.0102
 X1.8750 Z-4.0295
 X2.0625 Z-4.0443
 X2.1562 Z-4.0517
 X2.2031 Z-4.0553
 X2.2266 Z-4.0572
 X2.2500 Z-4.0590
 X2.6250 Z-4.1439
 X2.9062 Z-4.2114
 X2.9531 Z-4.2226
 X3.0000 Z-4.2339
 X3.3750 Z-4.3814
 X3.5625 Z-4.4590
 X3.6562 Z-4.4979
 X3.7031 Z-4.5173
 X3.7266 Z-4.5270
 X3.7500 Z-4.5367
 X4.1250 Z-4.7625
 X4.3125 Z-4.8774
 X4.3594 Z-4.9062
 X4.4062 Z-4.9349
 X4.5000 Z-5.0071
 X4.6875 Z-5.1672
 X4.8750 Z-5.3274
 X4.9922 Z-5.4274
 X5.0156 Z-5.4475
 X5.0625 Z-5.4960
 X5.4375 Z-5.9351
 X5.4844 Z-5.9900
 X5.5078 Z-6.0174
 X5.5195 Z-6.0312
 X5.5312 Z-6.0449
 X5.6250 Z-6.1915
 X5.9531 Z-6.7269
 X6.0000 Z-6.8386
 X6.2344 Z-7.4044
 X6.2461 Z-7.4327
 X6.2520 Z-7.4469
 X6.2578 Z-7.4655
 X6.3750 Z-7.9536
 X6.4688 Z-8.6029
 X6.4995 Z-8.9938
 X6.5002 Z-11.0000
 X19.5000
 X19.5059 Z-5.0000
 X22.5000
 X22.5059 Z0.0000
 X28.5000
G0 Z2.0000
 X-28.5000 Y-1.1214
G1 Z0.0000
 X-22.5000
 Z-5.0000
 X-19.5000
 Z-11.0000
 X-6.5625
 X-6.4688 Z-8.6029
 X-6.4453 Z-8.3051
 X-6.4219 Z-8.1488
 X-6.2695 Z-7.5143
 X-6.2637 Z-7.4899
 X-6.2578 Z-7.4655
 X-6.2344 Z-7.4044
 X-6.0000 Z-6.8386
 X-5.8125 Z-6.4975
 X-5.6250 Z-6.1915
 X-5.4375 Z-5.9351
 X-5.2500 Z-5.7156
 X-5.0859 Z-5.5235
 X-5.0625 Z-5.4960
 X-4.8750 Z-5.3274
 X-4.5469 Z-5.0471
 X-4.5000 Z-5.0071
 X-4.1250 Z-4.7625
 X-3.9375 Z-4.6476
 X-3.8438 Z-4.5902
 X-3.7969 Z-4.5615
 X-3.7500 Z-4.5367
 X-3.3750 Z-4.3814
 X-3.1875 Z-4.3037
 X-3.0938 Z-4.2649
 X-3.0000 Z-4.2339
 X-2.4375 Z-4.0989
 X-2.3438 Z-4.0763
 X-2.2500 Z-4.0590
 X-1.8750 Z-4.0295
 X-1.5000 Z-4.0051
 X-1.1250 Z-4.0000
 X1.1250
 X1.5000 Z-4.0098
 X1.8750 Z-4.0295
 X2.0625 Z-4.0443
 X2.1562 Z-4.0517
 X2.2031 Z-4.0553
 X2.2500 Z-4.0590
 X2.6250 Z-4.1439
 X2.8125 Z-4.1889
 X2.9062 Z-4.2114
 X2.9531 Z-4.2226
 X3.0000 Z-4.2339
 X3.3750 Z-4.3814
 X3.5625 Z-4.4590
 X3.6562 Z-4.4979
 X3.7031 Z-4.5173
 X3.7266 Z-4.5270
 X3.7500 Z-4.5367
 X4.1250 Z-4.7625
 X4.3125 Z-4.8774
 X4.3594 Z-4.9062
 X4.4062 Z-4.9349
 X4.5000 Z-5.0071
 X4.6875 Z-5.1672
 X4.8750 Z-5.3274
 X4.9688 Z-5.4074
 X4.9922 Z-5.4274
 X5.0156 Z-5.4475
 X5.0625 Z-5.4960
 X5.4375 Z-5.9351
 X5.4844 Z-5.9900
 X5.5312 Z-6.0449
 X5.6250 Z-6.1915
 X5.9531 Z-6.7269
 X6.0000 Z-6.8386
 X6.2344 Z-7.4044
 X6.2461 Z-7.4327
 X6.2520 Z-7.4469
 X6.2578 Z-7.4655
 X6.3750 Z-7.9536
 X6.4688 Z-8.6029
 X6.4995 Z-8.9938
 X6.5002 Z-11.0000
 X19.5000
 X19.5059 Z-5.0000
 X22.5000
 X22.5059 Z0.0000
 X28.5000
G0 Z2.0000
 X-28.5000 Y-0.3738
G1 Z0.0000
 X-22.5000
 Z-5.0000
 X-19.5000
 Z-11.0000
 X-6.5625
 X-6.4688 Z-8.6029
 X-6.4453 Z-8.3051
 X-6.4219 Z-8.1488
 X-6.2695 Z-7.5143
 X-6.2637 Z-7.4899
 X-6.2578 Z-7.4655
 X-6.2344 Z-7.4044
 X-6.0234 Z-6.8952
 X-6.0000 Z-6.8386
 X-5.8125 Z-6.4975
 X-5.6250 Z-6.1915
 X-5.4375 Z-5.9351
 X-5.2500 Z-5.7156
 X-5.0859 Z-5.5235
 X-5.0625 Z-5.4960
 X-4.8750 Z-5.3274
 X-4.5469 Z-5.0471
 X-4.5000 Z-5.0071
 X-4.1250 Z-4.7625
 X-3.9375 Z-4.6476
 X-3.8438 Z-4.5902
 X-3.7969 Z-4.5615
 X-3.7500 Z-4.5367
 X-3.3750 Z-4.3814
 X-3.1875 Z-4.3037
 X-3.0938 Z-4.2649
 X-3.0000 Z-4.2339
 X-2.4375 Z-4.0989
 X-2.3438 Z-4.0763
 X-2.2500 Z-4.0590
 X-1.8750 Z-4.0295
 X-1.5000 Z-4.0055
 X-1.1250 Z-4.0000
 X1.1250
 X1.5000 Z-4.0094
 X1.8750 Z-4.0295
 X2.1562 Z-4.0516
 X2.2031 Z-4.0553
 X2.2500 Z-4.0590
 X2.6250 Z-4.1439
 X2.8125 Z-4.1889
 X2.9062 Z-4.2114
 X2.9531 Z-4.2226
 X3.0000 Z-4.2339
 X3.3750 Z-4.3814
 X3.5625 Z-4.4590
 X3.6562 Z-4.4979
 X3.7031 Z-4.5173
 X3.7500 Z-4.5367
 X4.1250 Z-4.7625
 X4.3125 Z-4.8774
 X4.4062 Z-4.9349
 X4.5000 Z-5.0071
 X4.6875 Z-5.1672
 X4.8750 Z-5.3274
 X4.9688 Z-5.4074
 X4.9922 Z-5.4274
 X5.0156 Z-5.4475
 X5.0625 Z-5.4960
 X5.4375 Z-5.9351
 X5.4844 Z-5.9900
 X5.5312 Z-6.0449
 X5.6250 Z-6.1915
 X5.9531 Z-6.7269
 X6.0000 Z-6.8386
 X6.2520 Z-7.4469
 X6.2578 Z-7.4655
 X6.3750 Z-7.9536
 X6.4688 Z-8.6029
 X6.4995 Z-8.9938
 X6.5002 Z-11.0000
 X19.5000
 X19.5059 Z-5.0000
 X22.5000
 X22.5059 Z0.0000
 X28.5000
G0 Z2.0000
 X-28.5000 Y0.3738
G1 Z0.0000
 X-22.5000
 Z-5.0000
 X-19.5000
 Z-11.0000
 X-6.5625
 X-6.4688 Z-8.6029
 X-6.4453 Z-8.3051
 X-6.4219 Z-8.1488
 X-6.2812 Z-7.5631
 X-6.2695 Z-7.5143
 X-6.2578 Z-7.4655
 X-6.2344 Z-7.4044
 X-6.0234 Z-6.8952
 X-6.0000 Z-6.8386
 X-5.8125 Z-6.4975
 X-5.6250 Z-6.1915
 X-5.4375 Z-5.9351
 X-5.2500 Z-5.7156
 X-5.0859 Z-5.5235
 X-5.0625 Z-5.4960
 X-4.8750 Z-5.3274
 X-4.5938 Z-5.0871
 X-4.5469 Z-5.0471
 X-4.5000 Z-5.0071
 X-4.1250 Z-4.7625
 X-3.7969 Z-4.5615
 X-3.7500 Z-4.5367
 X-3.3750 Z-4.3814
 X-3.1875 Z-4.3037
 X-3.0938 Z-4.2649
 X-3.0000 Z-4.2339
 X-2.4375 Z-4.0989
 X-2.3438 Z-4.0763
 X-2.2500 Z-4.0590
 X-1.8750 Z-4.0295
 X-1.5000 Z-4.0059
 X-1.1250 Z-4.0000
 X1.1250
 X1.5000 Z-4.0090
 X1.8750 Z-4.0295
 X2.1562 Z-4.0516
 X2.2031 Z-4.0553
 X2.2266 Z-4.0572
 X2.2500 Z-4.0590
 X2.6250 Z-4.1439
 X2.8125 Z-4.1889
 X2.9062 Z-4.2114
 X2.9531 Z-4.2226
 X3.0000 Z-4.2339
 X3.3750 Z-4.3814
 X3.6562 Z-4.4979
 X3.7031 Z-4.5173
 X3.7500 Z-4.5367
 X4.1250 Z-4.7625
 X4.3125 Z-4.8774
 X4.4062 Z-4.9349
 X4.5000 Z-5.0071
 X4.6875 Z-5.1672
 X4.8750 Z-5.3274
 X4.9688 Z-5.4074
 X4.9922 Z-5.4274
 X5.0156 Z-5.4475
 X5.0625 Z-5.4960
 X5.4375 Z-5.9351
 X5.4844 Z-5.9900
 X5.5312 Z-6.0449
 X5.6250 Z-6.1915
 X5.9531 Z-6.7269
 X6.0000 Z-6.8386
 X6.2520 Z-7.4469
 X6.2578 Z-7.4655
 X6.3750 Z-7.9536
 X6.4688 Z-8.6029
 X6.4995 Z-8.9938
 X6.5002 Z-11.0000
 X19.5000
 X19.5059 Z-5.0000
 X22.5000
 X22.5059 Z0.0000
 X28.5000
G0 Z2.0000
 X-28.5000 Y1.1214
G1 Z0.0000
 X-22.5000
 Z-5.0000
 X-19.5000
 Z-11.0000
 X-6.5625
 X-6.4688 Z-8.6029
 X-6.4453 Z-8.3051
 X-6.4219 Z-8.1488
 X-6.2812 Z-7.5631
 X-6.2695 Z-7.5143
 X-6.2578 Z-7.4655
 X-6.2344 Z-7.4044
 X-6.0234 Z-6.8952
 X-6.0000 Z-6.8386
 X-5.8125 Z-6.4975
 X-5.6250 Z-6.1915
 X-5.4375 Z-5.9351
 X-5.2500 Z-5.7156
 X-5.0859 Z-5.5235
 X-5.0625 Z-5.4960
 X-4.8750 Z-5.3274
 X-4.5938 Z-5.0871
 X-4.5469 Z-5.0471
 X-4.5000 Z-5.0071
 X-4.1250 Z-4.7625
 X-3.7969 Z-4.5615
 X-3.7500 Z-4.5367
 X-3.3750 Z-4.3814
 X-3.1875 Z-4.3037
 X-3.0938 Z-4.2649
 X-3.0000 Z-4.2339
 X-2.4375 Z-4.0989
 X-2.3438 Z-4.0763
 X-2.2500 Z-4.0590
 X-1.8750 Z-4.0295
 X-1.5000 Z-4.0062
 X-1.1250 Z-4.0000
 X1.1250
 X1.5000 Z-4.0086
 X1.8750 Z-4.0295
 X2.0625 Z-4.0443
 X2.2500 Z-4.0590
 X2.6250 Z-4.1439
 X2.8125 Z-4.1889
 X2.9062 Z-4.2114
 X2.9531 Z-4.2226
 X3.0000 Z-4.2339
 X3.3750 Z-4.3814
 X3.6562 Z-4.4979
 X3.7031 Z-4.5173
 X3.7500 Z-4.5367
 X4.1250 Z-4.7625
 X4.3125 Z-4.8774
 X4.4062 Z-4.9349
 X4.5000 Z-5.0071
 X4.6875 Z-5.1672
 X4.8750 Z-5.3274
 X4.9688 Z-5.4074
 X4.9922 Z-5.4274
 X5.0156 Z-5.4475
 X5.0625 Z-5.4960
 X5.4375 Z-5.9351
 X5.4844 Z-5.9900
 X5.5312 Z-6.0449
 X5.6250 Z-6.1915
 X5.9531 Z-6.7269
 X6.0000 Z-6.8386
 X6.2520 Z-7.4469
 X6.2578 Z-7.4655
 X6.3750 Z-7.9536
 X6.4688 Z-8.6029
 X6.4995 Z-8.9938
 X6.5002 Z-11.0000
 X19.5000
 X19.5059 Z-5.0000
 X22.5000
 X22.5059 Z0.0000
 X28.5000
G0 Z2.0000
 X-28.5000 Y1.8689
G1 Z0.0000
 X-22.5000
 Z-5.0000
 X-19.5000
 Z-11.0000
 X-6.5625
 X-6.4688 Z-8.6029
 X-6.4453 Z-8.3051
 X-6.4219 Z-8.1488
 X-6.2812 Z-7.5631
 X-6.2695 Z-7.5143
 X-6.2578 Z-7.4655
 X-6.2344 Z-7.4044
 X-6.0234 Z-6.8952
 X-6.0000 Z-6.8386
 X-5.8125 Z-6.4975
 X-5.6719 Z-6.2680
 X-5.6250 Z-6.1915
 X-5.4375 Z-5.9351
 X-5.2500 Z-5.7156
 X-5.1094 Z-5.5509
 X-5.0859 Z-5.5235
 X-5.0625 Z-5.4960
 X-4.8750 Z-5.3274
 X-4.5938 Z-5.0871
 X-4.5469 Z-5.0471
 X-4.5000 Z-5.0071
 X-4.1250 Z-4.7625
 X-3.7969 Z-4.5615
 X-3.7500 Z-4.5367
 X-3.3750 Z-4.3814
 X-3.1875 Z-4.3037
 X-3.0938 Z-4.2649
 X-3.0000 Z-4.2339
 X-2.3438 Z-4.0763
 X-2.2500 Z-4.0590
 X-1.8750 Z-4.0295
 X-1.5000 Z-4.0066
 X-1.1250 Z-4.0000
 X1.1250
 X1.5000 Z-4.0083
 X1.8750 Z-4.0295
 X2.0625 Z-4.0443
 X2.1562 Z-4.0516
 X2.2031 Z-4.0553
 X2.2500 Z-4.0590
 X2.6250 Z-4.1439
 X2.8125 Z-4.1889
 X2.9062 Z-4.2114
 X2.9531 Z-4.2226
 X3.0000 Z-4.2339
 X3.3750 Z-4.3814
 X3.6562 Z-4.4979
 X3.7031 Z-4.5173
 X3.7500 Z-4.5367
 X4.1250 Z-4.7625
 X4.3125 Z-4.8774
 X4.4062 Z-4.9349
 X4.5000 Z-5.0071
 X4.9688 Z-5.4074
 X4.9922 Z-5.4274
 X5.0156 Z-5.4475
 X5.0625 Z-5.4960
 X5.4375 Z-5.9351
 X5.4844 Z-5.9900
 X5.5312 Z-6.0449
 X5.6250 Z-6.1915
 X5.9531 Z-6.7269
 X6.0000 Z-6.8386
 X6.2520 Z-7.4469
 X6.2578 Z-7.4655
 X6.3750 Z-7.9536
 X6.4688 Z-8.6029
 X6.4995 Z-8.9938
 X6.5002 Z-11.0000
 X19.5000
 X19.5059 Z-5.0000
 X22.5000
 X22.5059 Z0.0000
 X28.5000
G0 Z2.0000
 X-28.5000 Y2.6165
G1 Z0.0000
 X-22.5000
 Z-5.0000
 X-19.5000
 Z-11.0000
 X-6.5625
 X-6.4688 Z-8.6029
 X-6.4453 Z-8.3051
 X-6.4219 Z-8.1488
 X-6.2812 Z-7.5631
 X-6.2695 Z-7.5143
 X-6.2578 Z-7.4655
 X-6.2344 Z-7.4044
 X-6.0234 Z-6.8952
 X-6.0000 Z-6.8386
 X-5.8125 Z-6.4975
 X-5.7188 Z-6.3445
 X-5.6719 Z-6.2680
 X-5.6250 Z-6.1915
 X-5.4375 Z-5.9351
 X-5.1094 Z-5.5509
 X-5.0859 Z-5.5235
 X-5.0625 Z-5.4960
 X-4.8750 Z-5.3274
 X-4.5938 Z-5.0871
 X-4.5469 Z-5.0471
 X-4.5000 Z-5.0071
 X-4.1250 Z-4.7625
 X-3.7969 Z-4.5615
 X-3.7500 Z-4.5367
 X-3.3750 Z-4.3814
 X-3.1875 Z-4.3037
 X-3.0938 Z-4.2649
 X-3.0000 Z-4.2339
 X-2.3438 Z-4.0763
 X-2.2500 Z-4.0590
 X-1.8750 Z-4.0295
 X-1.5000 Z-4.0070
 X-1.1250 Z-4.0000
 X1.1250
 X1.5000 Z-4.0079
 X1.8750 Z-4.0295
 X2.0625 Z-4.0443
 X2.1562 Z-4.0516
 X2.2031 Z-4.0553
 X2.2500 Z-4.0590
 X2.6250 Z-4.1439
 X2.8125 Z-4.1889
 X2.9062 Z-4.2114
 X2.9531 Z-4.2226
 X3.0000 Z-4.2339
 X3.3750 Z-4.3814
 X3.6562 Z-4.4979
 X3.7031 Z-4.5173
 X3.7500 Z-4.5367
 X4.1250 Z-4.7625
 X4.3125 Z-4.8774
 X4.4062 Z-4.9349
 X4.5000 Z-5.0071
 X4.9688 Z-5.4074
 X4.9922 Z-5.4274
 X5.0156 Z-5.4475
 X5.0625 Z-5.4960
 X5.4844 Z-5.9900
 X5.5312 Z-6.0449
 X5.6250 Z-6.1915
 X5.9531 Z-6.7269
 X6.0000 Z-6.8386
 X6.2520 Z-7.4469
 X6.2578 Z-7.4655
 X6.3750 Z-7.9536
 X6.4688 Z-8.6029
 X6.4995 Z-8.9938
 X6.5002 Z-11.0000
 X19.5000
 X19.5059 Z-5.0000
 X22.5000
 X22.5059 Z0.0000
 X28.5000
G0 Z2.0000
 X-28.5000 Y3.3641
G1 Z0.0000
 X-22.5000
 Z-5.0000
 X-19.5000
 Z-11.0000
 X-6.5625
 X-6.4688 Z-8.6029
 X-6.4453 Z-8.3051
 X-6.4219 Z-8.1488
 X-6.2812 Z-7.5631
 X-6.2695 Z-7.5143
 X-6.2578 Z-7.4655
 X-6.2344 Z-7.4044
 X-6.0234 Z-6.8952
 X-6.0000 Z-6.8386
 X-5.8125 Z-6.4975
 X-5.6719 Z-6.2680
 X-5.6250 Z-6.1915
 X-5.4375 Z-5.9351
 X-5.1094 Z-5.5509
 X-5.0859 Z-5.5235
 X-5.0625 Z-5.4960
 X-4.8750 Z-5.3274
 X-4.5938 Z-5.0871
 X-4.5469 Z-5.0471
 X-4.5000 Z-5.0071
 X-4.1250 Z-4.7625
 X-3.7969 Z-4.5615
 X-3.7500 Z-4.5367
 X-3.3750 Z-4.3814
 X-3.1875 Z-4.3037
 X-3.0938 Z-4.2649
 X-3.0000 Z-4.2339
 X-2.6250 Z-4.1439
 X-2.4375 Z-4.0988
 X-2.3438 Z-4.0763
 X-2.2500 Z-4.0590
 X-1.8750 Z-4.0295
 X-1.5000 Z-4.0074
 X-1.1250 Z-4.0000
 X1.1250
 X1.5000 Z-4.0075
 X1.8750 Z-4.0295
 X2.0625 Z-4.0443
 X2.1562 Z-4.0516
 X2.2031 Z-4.0553
 X2.2500 Z-4.0590
 X2.6250 Z-4.1439
 X2.8125 Z-4.1889
 X2.9062 Z-4.2114
 X2.9531 Z-4.2226
 X3.0000 Z-4.2339
 X3.3750 Z-4.3814
 X3.6562 Z-4.4979
 X3.7031 Z-4.5173
 X3.7500 Z-4.5367
 X4.1250 Z-4.7625
 X4.4062 Z-4.9349
 X4.5000 Z-5.0071
 X5.0156 Z-5.4475
 X5.0625 Z-5.4960
 X5.4844 Z-5.9900
 X5.5312 Z-6.0449
 X5.6250 Z-6.1915
 X5.9531 Z-6.7269
 X6.0000 Z-6.8386
 X6.2520 Z-7.4469
 X6.2578 Z-7.4655
 X6.3750 Z-7.9536
 X6.4688 Z-8.6029
 X6.4995 Z-8.9938
 X6.5002 Z-11.0000
 X19.5000
 X19.5059 Z-5.0000
 X22.5000
 X22.5059 Z0.0000
 X28.5000
G0 Z2.0000
 X-28.5000 Y4.1117
G1 Z0.0000
 X-22.5000
 Z-5.0000
 X-19.5000
 Z-11.0000
 X-6.5625
 X-6.4688 Z-8.6029
 X-6.4453 Z-8.3051
 X-6.4219 Z-8.1488
 X-6.2812 Z-7.5631
 X-6.2695 Z-7.5143
 X-6.2578 Z-7.4655
 X-6.2344 Z-7.4044
 X-6.0469 Z-6.9518
 X-6.0234 Z-6.8952
 X-6.0000 Z-6.8386
 X-5.8125 Z-6.4975
 X-5.6719 Z-6.2680
 X-5.6250 Z-6.1915
 X-5.4375 Z-5.9351
 X-5.1094 Z-5.5509
 X-5.0859 Z-5.5235
 X-5.0625 Z-5.4960
 X-4.8750 Z-5.3274
 X-4.5938 Z-5.0871
 X-4.5469 Z-5.0471
 X-4.5000 Z-5.0071
 X-4.1250 Z-4.7625
 X-3.7969 Z-4.5615
 X-3.7500 Z-4.5367
 X-3.3750 Z-4.3814
 X-3.1875 Z-4.3037
 X-3.0938 Z-4.2649
 X-3.0000 Z-4.2339
 X-2.6250 Z-4.1439
 X-2.4375 Z-4.0988
 X-2.3438 Z-4.0763
 X-2.2500 Z-4.0590
 X-1.8750 Z-4.0295
 X-1.5000 Z-4.0077
 X-1.1250 Z-4.0000
 X1.1250
 X1.5000 Z-4.0071
 X1.8750 Z-4.0295
 X2.0625 Z-4.0443
 X2.1562 Z-4.0516
 X2.2031 Z-4.0553
 X2.2500 Z-4.0590
 X2.6250 Z-4.1439
 X2.8125 Z-4.1889
 X2.9062 Z-4.2114
 X2.9531 Z-4.2226
 X3.0000 Z-4.2339
 X3.3750 Z-4.3814
 X3.6562 Z-4.4979
 X3.7031 Z-4.5173
 X3.7500 Z-4.5367
 X4.1250 Z-4.7625
 X4.4062 Z-4.9349
 X4.5000 Z-5.0071
 X5.0156 Z-5.4475
 X5.0625 Z-5.4960
 X5.5312 Z-6.0449
 X5.6250 Z-6.1915
 X5.9531 Z-6.7269
 X6.0000 Z-6.8386
 X6.2520 Z-7.4469
 X6.2578 Z-7.4655
 X6.3750 Z-7.9536
 X6.4688 Z-8.6029
 X6.4922 Z-8.9007
 X6.4995 Z-8.9938
 X6.5002 Z-11.0000
 X19.5000
 X19.5059 Z-5.0000
 X22.5000
 X22.5059 Z0.0000
 X28.5000
G0 Z2.0000
 X-28.5000 Y4.8592
G1 Z0.0000
 X-22.5000
 Z-5.0000
 X-19.5000
 Z-11.0000
 X-6.5625
 X-6.4688 Z-8.6029
 X-6.4453 Z-8.3051
 X-6.4219 Z-8.1488
 X-6.2812 Z-7.5631
 X-6.2695 Z-7.5143
 X-6.2578 Z-7.4655
 X-6.2344 Z-7.4044
 X-6.0469 Z-6.9518
 X-6.0234 Z-6.8952
 X-6.0000 Z-6.8386
 X-5.8125 Z-6.4975
 X-5.6719 Z-6.2680
 X-5.6250 Z-6.1915
 X-5.4375 Z-5.9351
 X-5.1094 Z-5.5509
 X-5.0859 Z-5.5235
 X-5.0625 Z-5.4960
 X-4.8750 Z-5.3274
 X-4.5938 Z-5.0871
 X-4.5469 Z-5.0471
 X-4.5000 Z-5.0071
 X-4.1250 Z-4.7625
 X-3.7969 Z-4.5615
 X-3.7500 Z-4.5367
 X-3.3750 Z-4.3814
 X-3.1875 Z-4.3037
 X-3.0938 Z-4.2649
 X-3.0000 Z-4.2339
 X-2.6250 Z-4.1439
 X-2.4375 Z-4.0988
 X-2.3438 Z-4.0763
 X-2.2500 Z-4.0590
 X-1.8750 Z-4.0295
 X-1.5000 Z-4.0081
 X-1.1250 Z-4.0000
 X1.1250
 X1.5000 Z-4.0067
 X1.8750 Z-4.0295
 X2.0625 Z-4.0443
 X2.1562 Z-4.0516
 X2.2500 Z-4.0590
 X2.6250 Z-4.1439
 X2.8125 Z-4.1889
 X2.9062 Z-4.2114
 X2.9531 Z-4.2226
 X3.0000 Z-4.2339
 X3.3750 Z-4.3814
 X3.5625 Z-4.4590
 X3.6562 Z-4.4979
 X3.7031 Z-4.5173
 X3.7500 Z-4.5367
 X4.1250 Z-4.7625
 X4.4062 Z-4.9349
 X4.5000 Z-5.0071
 X4.8750 Z-5.3274
 X4.9688 Z-5.4074
 X5.0156 Z-5.4475
 X5.0625 Z-5.4960
 X5.5312 Z-6.0449
 X5.6250 Z-6.1915
 X5.9531 Z-6.7269
 X6.0000 Z-6.8386
 X6.2520 Z-7.4469
 X6.2578 Z-7.4655
 X6.3750 Z-7.9536
 X6.4688 Z-8.6029
 X6.4922 Z-8.9007
 X6.4980 Z-8.9752
 X6.4995 Z-8.9938
 X6.5002 Z-11.0000
 X19.5000
 X19.5059 Z-5.0000
 X22.5000
 X22.5059 Z0.0000
 X28.5000
G0 Z2.0000
 X-28.5000 Y5.6068
G1 Z0.0000
 X-22.5000
 Z-5.0000
 X-19.5000
 Z-11.0000
 X-6.5625
 X-6.4688 Z-8.6029
 X-6.4453 Z-8.3051
 X-6.4219 Z-8.1488
 X-6.2812 Z-7.5631
 X-6.2695 Z-7.5143
 X-6.2578 Z-7.4655
 X-6.2344 Z-7.4044
 X-6.0469 Z-6.9518
 X-6.0234 Z-6.8952
 X-6.0000 Z-6.8386
 X-5.8125 Z-6.4975
 X-5.6719 Z-6.2680
 X-5.6250 Z-6.1915
 X-5.4375 Z-5.9351
 X-5.1094 Z-5.5509
 X-5.0859 Z-5.5235
 X-5.0625 Z-5.4960
 X-4.8750 Z-5.3274
 X-4.5469 Z-5.0471
 X-4.5000 Z-5.0071
 X-4.1250 Z-4.7625
 X-3.7969 Z-4.5615
 X-3.7500 Z-4.5367
 X-3.0938 Z-4.2649
 X-3.0000 Z-4.2339
 X-2.6250 Z-4.1439
 X-2.4375 Z-4.0988
 X-2.3438 Z-4.0763
 X-2.2500 Z-4.0590
 X-1.8750 Z-4.0295
 X-1.5000 Z-4.0085
 X-1.1250 Z-4.0000
 X1.1250
 X1.5000 Z-4.0064
 X1.8750 Z-4.0295
 X2.0625 Z-4.0443
 X2.1562 Z-4.0516
 X2.2500 Z-4.0590
 X2.6250 Z-4.1439
 X2.8125 Z-4.1889
 X2.9062 Z-4.2114
 X2.9531 Z-4.2226
 X3.0000 Z-4.2339
 X3.3750 Z-4.3814
 X3.5625 Z-4.4590
 X3.6562 Z-4.4979
 X3.7031 Z-4.5173
 X3.7500 Z-4.5367
 X4.1250 Z-4.7625
 X4.4062 Z-4.9349
 X4.5000 Z-5.0071
 X4.8750 Z-5.3274
 X4.9688 Z-5.4074
 X5.0156 Z-5.4475
 X5.0625 Z-5.4960
 X5.5312 Z-6.0449
 X5.6250 Z-6.1915
 X5.9531 Z-6.7269
 X6.0000 Z-6.8386
 X6.2520 Z-7.4469
 X6.2578 Z-7.4655
 X6.3750 Z-7.9536
 X6.4688 Z-8.6029
 X6.4995 Z-8.9938
 X6.5002 Z-11.0000
 X19.5000
 X19.5059 Z-5.0000
 X22.5000
 X22.5059 Z0.0000
 X28.5000
G0 Z2.0000
 X-28.5000 Y6.3544
G1 Z0.0000
 X-22.5000
 Z-5.0000
 X-19.5000
 Z-11.0000
 X-6.5625
 X-6.4688 Z-8.6029
 X-6.4453 Z-8.3051
 X-6.4219 Z-8.1488
 X-6.2812 Z-7.5631
 X-6.2695 Z-7.5143
 X-6.2578 Z-7.4655
 X-6.2344 Z-7.4044
 X-6.0469 Z-6.9518
 X-6.0234 Z-6.8952
 X-6.0000 Z-6.8386
 X-5.8125 Z-6.4975
 X-5.6719 Z-6.2680
 X-5.6250 Z-6.1915
 X-5.4375 Z-5.9351
 X-5.1094 Z-5.5509
 X-5.0859 Z-5.5235
 X-5.0625 Z-5.4960
 X-4.8750 Z-5.3274
 X-4.5469 Z-5.0471
 X-4.5000 Z-5.0071
 X-4.1250 Z-4.7625
 X-3.7969 Z-4.5615
 X-3.7500 Z-4.5367
 X-3.0938 Z-4.2649
 X-3.0000 Z-4.2339
 X-2.6250 Z-4.1439
 X-2.4375 Z-4.0988
 X-2.3438 Z-4.0763
 X-2.2500 Z-4.0590
 X-1.8750 Z-4.0295
 X-1.5000 Z-4.0089
 X-1.1250 Z-4.0000
 X1.1250
 X1.5000 Z-4.0060
 X1.8750 Z-4.0295
 X2.0625 Z-4.0443
 X2.1562 Z-4.0516
 X2.2500 Z-4.0590
 X2.6250 Z-4.1439
 X2.8125 Z-4.1889
 X2.9531 Z-4.2226
 X3.0000 Z-4.2339
 X3.3750 Z-4.3814
 X3.5625 Z-4.4590
 X3.6562 Z-4.4979
 X3.7031 Z-4.5173
 X3.7500 Z-4.5367
 X4.1250 Z-4.7625
 X4.4062 Z-4.9349
 X4.5000 Z-5.0071
 X4.8750 Z-5.3274
 X4.9688 Z-5.4074
 X5.0156 Z-5.4475
 X5.0625 Z-5.4960
 X5.5312 Z-6.0449
 X5.6250 Z-6.1915
 X5.9531 Z-6.7269
 X6.0000 Z-6.8386
 X6.2520 Z-7.4469
 X6.2578 Z-7.4655
 X6.3750 Z-7.9536
 X6.4688 Z-8.6029
 X6.4995 Z-8.9938
 X6.5002 Z-11.0000
 X19.5000
 X19.5059 Z-5.0000
 X22.5000
 X22.5059 Z0.0000
 X28.5000
G0 Z2.0000
 X-28.5000 Y7.1019
G1 Z0.0000
 X-22.5000
 Z-5.0000
 X-19.5000
 Z-11.0000
 X-6.5625
 X-6.4688 Z-8.6029
 X-6.4453 Z-8.3051
 X-6.4219 Z-8.1488
 X-6.2578 Z-7.4655
 X-6.2344 Z-7.4044
 X-6.0469 Z-6.9518
 X-6.0234 Z-6.8952
 X-6.0000 Z-6.8386
 X-5.8125 Z-6.4975
 X-5.6719 Z-6.2680
 X-5.6250 Z-6.1915
 X-5.4375 Z-5.9351
 X-5.1562 Z-5.6058
 X-5.1094 Z-5.5509
 X-5.0625 Z-5.4960
 X-4.8750 Z-5.3274
 X-4.5469 Z-5.0471
 X-4.5000 Z-5.0071
 X-4.1250 Z-4.7625
 X-3.7969 Z-4.5615
 X-3.7500 Z-4.5367
 X-3.0938 Z-4.2649
 X-3.0000 Z-4.2339
 X-2.6250 Z-4.1439
 X-2.4375 Z-4.0988
 X-2.3438 Z-4.0763
 X-2.2500 Z-4.0590
 X-1.8750 Z-4.0295
 X-1.5000 Z-4.0093
 X-1.1250 Z-4.0000
 X1.1250
 X1.5000 Z-4.0056
 X1.8750 Z-4.0295
 X2.0625 Z-4.0443
 X2.2031 Z-4.0553
 X2.2500 Z-4.0590
 X2.6250 Z-4.1439
 X2.8125 Z-4.1889
 X2.9531 Z-4.2226
 X3.0000 Z-4.2339
 X3.3750 Z-4.3814
 X3.5625 Z-4.4590
 X3.6562 Z-4.4979
 X3.7031 Z-4.5173
 X3.7500 Z-4.5367
 X4.1250 Z-4.7625
 X4.4062 Z-4.9349
 X4.5000 Z-5.0071
 X4.6875 Z-5.1672
 X4.8750 Z-5.3274
 X4.9688 Z-5.4074
 X5.0156 Z-5.4475
 X5.0625 Z-5.4960
 X5.5312 Z-6.0449
 X5.6250 Z-6.1915
 X5.9531 Z-6.7269
 X6.0000 Z-6.8386
 X6.2520 Z-7.4469
 X6.2578 Z-7.4655
 X6.3750 Z-7.9536
 X6.4688 Z-8.6029
 X6.4995 Z-8.9938
 X6.5002 Z-11.0000
 X19.5000
 X19.5059 Z-5.0000
 X22.5000
 X22.5059 Z0.0000
 X28.5000
G0 Z2.0000
 X-28.5000 Y7.8495
G1 Z0.0000
 X-22.5000
 Z-5.0000
 X-19.5000
 Z-11.0000
 X-6.5625
 X-6.4688 Z-8.6029
 X-6.4453 Z-8.3051
 X-6.4219 Z-8.1488
 X-6.2578 Z-7.4655
 X-6.2344 Z-7.4044
 X-6.0469 Z-6.9518
 X-6.0234 Z-6.8952
 X-6.0000 Z-6.8386
 X-5.8125 Z-6.4975
 X-5.6719 Z-6.2680
 X-5.6250 Z-6.1915
 X-5.4375 Z-5.9351
 X-5.1562 Z-5.6058
 X-5.1094 Z-5.5509
 X-5.0625 Z-5.4960
 X-4.8750 Z-5.3274
 X-4.5469 Z-5.0471
 X-4.5000 Z-5.0071
 X-4.1250 Z-4.7625
 X-3.7969 Z-4.5615
 X-3.7500 Z-4.5367
 X-3.0938 Z-4.2649
 X-3.0000 Z-4.2339
 X-2.6250 Z-4.1439
 X-2.4375 Z-4.0988
 X-2.3438 Z-4.0763
 X-2.2500 Z-4.0590
 X-1.8750 Z-4.0295
 X-1.5000 Z-4.0096
 X-1.1250 Z-4.0000
 X1.1250
 X1.5000 Z-4.0052
 X1.8750 Z-4.0295
 X2.0625 Z-4.0443
 X2.1562 Z-4.0516
 X2.2500 Z-4.0590
 X2.6250 Z-4.1439
 X2.8125 Z-4.1889
 X2.9531 Z-4.2226
 X3.0000 Z-4.2339
 X3.3750 Z-4.3814
 X3.7500 Z-4.5367
 X4.1250 Z-4.7625
 X4.4062 Z-4.9349
 X4.5000 Z-5.0071
 X4.8750 Z-5.3274
 X4.9688 Z-5.4074
 X5.0156 Z-5.4475
 X5.0625 Z-5.4960
 X5.5312 Z-6.0449
 X5.6250 Z-6.1915
 X5.9531 Z-6.7269
 X6.0000 Z-6.8386
 X6.2520 Z-7.4469
 X6.2578 Z-7.4655
 X6.3750 Z-7.9536
 X6.4688 Z-8.6029
 X6.4922 Z-8.9007
 X6.4980 Z-8.9752
 X6.4995 Z-8.9938
 X6.5002 Z-11.0000
 X19.5000
 X19.5059 Z-5.0000
 X22.5000
 X22.5059 Z0.0000
 X28.5000
G0 Z2.0000
 X-28.5000 Y8.5971
G1 Z0.0000
 X-22.5000
 Z-5.0000
 X-19.5000
 Z-11.0000
 X-6.5625
 X-6.4688 Z-8.6029
 X-6.4453 Z-8.3051
 X-6.4219 Z-8.1488
 X-6.2578 Z-7.4655
 X-6.2344 Z-7.4044
 X-6.0938 Z-7.0650
 X-6.0469 Z-6.9518
 X-6.0000 Z-6.8386
 X-5.8125 Z-6.4975
 X-5.7188 Z-6.3445
 X-5.6719 Z-6.2680
 X-5.6250 Z-6.1915
 X-5.4375 Z-5.9351
 X-5.1562 Z-5.6058
 X-5.1094 Z-5.5509
 X-5.0625 Z-5.4960
 X-4.8750 Z-5.3274
 X-4.5469 Z-5.0471
 X-4.5000 Z-5.0071
 X-4.1250 Z-4.7625
 X-3.7969 Z-4.5615
 X-3.7500 Z-4.5367
 X-3.0938 Z-4.2649
 X-3.0000 Z-4.2339
 X-2.6250 Z-4.1439
 X-2.4375 Z-4.0988
 X-2.3438 Z-4.0763
 X-2.2500 Z-4.0590
 X-1.8750 Z-4.0295
 X-1.5000 Z-4.0100
 X-1.1250 Z-4.0000
 X1.1250
 X1.5000 Z-4.0049
 X1.8750 Z-4.0295
 X2.0625 Z-4.0443
 X2.1562 Z-4.0516
 X2.2500 Z-4.0590
 X2.6250 Z-4.1439
 X2.8125 Z-4.1889
 X2.9531 Z-4.2226
 X3.0000 Z-4.2339
 X3.3750 Z-4.3814
 X3.5625 Z-4.4590
 X3.6562 Z-4.4979
 X3.7500 Z-4.5367
 X4.1250 Z-4.7625
 X4.4062 Z-4.9349
 X4.5000 Z-5.0071
 X4.8750 Z-5.3274
 X4.9688 Z-5.4074
 X5.0156 Z-5.4475
 X5.0625 Z-5.4960
 X5.5312 Z-6.0449
 X5.6250 Z-6.1915
 X5.9531 Z-6.7269
 X6.0000 Z-6.8386
 X6.2520 Z-7.4469
 X6.2578 Z-7.4655
 X6.3750 Z-7.9536
 X6.4688 Z-8.6029
 X6.4922 Z-8.9007
 X6.4980 Z-8.9752
 X6.4995 Z-8.9938
 X6.5002 Z-11.0000
 X19.5000
 X19.5059 Z-5.0000
 X22.5000
 X22.5059 Z0.0000
 X28.5000
G0 Z2.0000
 X-28.5000 Y9.3447
G1 Z0.0000
 X-22.5000
 Z-5.0000
 X-19.5000
 Z-11.0000
 X-6.5625
 X-6.4688 Z-8.6029
 X-6.4453 Z-8.3051
 X-6.4219 Z-8.1488
 X-6.2578 Z-7.4655
 X-6.2344 Z-7.4044
 X-6.0938 Z-7.0650
 X-6.0469 Z-6.9518
 X-6.0000 Z-6.8386
 X-5.8125 Z-6.4975
 X-5.7188 Z-6.3445
 X-5.6719 Z-6.2680
 X-5.6250 Z-6.1915
 X-5.4375 Z-5.9351
 X-5.1562 Z-5.6058
 X-5.1094 Z-5.5509
 X-5.0625 Z-5.4960
 X-4.8750 Z-5.3274
 X-4.5469 Z-5.0471
 X-4.5000 Z-5.0071
 X-4.1250 Z-4.7625
 X-3.7969 Z-4.5615
 X-3.7500 Z-4.5367
 X-3.0938 Z-4.2649
 X-3.0000 Z-4.2339
 X-2.6250 Z-4.1439
 X-2.4375 Z-4.0988
 X-2.3438 Z-4.0763
 X-2.2500 Z-4.0590
 X-1.8750 Z-4.0295
 X-1.5000 Z-4.0104
 X-1.1250 Z-4.0000
 X1.1250
 X1.5000 Z-4.0045
 X1.8750 Z-4.0295
 X2.0625 Z-4.0443
 X2.1562 Z-4.0516
 X2.2500 Z-4.0590
 X2.6250 Z-4.1439
 X2.8125 Z-4.1889
 X2.9531 Z-4.2226
 X3.0000 Z-4.2339
 X3.3750 Z-4.3814
 X3.5625 Z-4.4590
 X3.6562 Z-4.4979
 X3.7500 Z-4.5367
 X4.1250 Z-4.7625
 X4.4062 Z-4.9349
 X4.5000 Z-5.0071
 X4.8750 Z-5.3274
 X4.9688 Z-5.4074
 X5.0156 Z-5.4475
 X5.0625 Z-5.4960
 X5.5312 Z-6.0449
 X5.6250 Z-6.1915
 X5.9531 Z-6.7269
 X6.0000 Z-6.8386
 X6.2520 Z-7.4469
 X6.2578 Z-7.4655
 X6.3750 Z-7.9536
 X6.4688 Z-8.6029
 X6.4922 Z-8.9007
 X6.4980 Z-8.9752
 X6.4995 Z-8.9938
 X6.5002 Z-11.0000
 X19.5000
 X19.5059 Z-5.0000
 X22.5000
 X22.5059 Z0.0000
 X28.5000
G0 Z2.0000
 X-28.5000 Y10.0922
G1 Z0.0000
 X-22.5000
 Z-5.0000
 X-19.5000
 Z-11.0000
 X-6.5625
 X-6.4688 Z-8.6029
 X-6.4453 Z-8.3051
 X-6.4219 Z-8.1488
 X-6.2578 Z-7.4655
 X-6.2344 Z-7.4044
 X-6.0938 Z-7.0650
 X-6.0469 Z-6.9518
 X-6.0000 Z-6.8386
 X-5.8125 Z-6.4975
 X-5.7188 Z-6.3445
 X-5.6719 Z-6.2680
 X-5.6250 Z-6.1915
 X-5.4375 Z-5.9351
 X-5.1562 Z-5.6058
 X-5.1094 Z-5.5509
 X-5.0625 Z-5.4960
 X-4.8750 Z-5.3274
 X-4.5469 Z-5.0471
 X-4.5000 Z-5.0071
 X-4.1250 Z-4.7625
 X-3.7969 Z-4.5615
 X-3.7500 Z-4.5367
 X-3.0938 Z-4.2649
 X-3.0000 Z-4.2339
 X-2.6250 Z-4.1439
 X-2.4375 Z-4.0988
 X-2.3438 Z-4.0763
 X-2.2500 Z-4.0590
 X-1.8750 Z-4.0295
 X-1.5000 Z-4.0108
 X-1.1250 Z-4.0000
 X1.1250
 X1.5000 Z-4.0041
 X1.8750 Z-4.0295
 X2.2500 Z-4.0590
 X2.6250 Z-4.1439
 X2.8125 Z-4.1889
 X2.9531 Z-4.2226
 X3.0000 Z-4.2339
 X3.3750 Z-4.3814
 X3.7500 Z-4.5367
 X4.1250 Z-4.7625
 X4.4062 Z-4.9349
 X4.5000 Z-5.0071
 X4.8750 Z-5.3274
 X4.9688 Z-5.4074
 X5.0156 Z-5.4475
 X5.0625 Z-5.4960
 X5.5312 Z-6.0449
 X5.6250 Z-6.1915
 X5.9531 Z-6.7269
 X6.0000 Z-6.8386
 X6.2520 Z-7.4469
 X6.2578 Z-7.4655
 X6.3750 Z-7.9536
 X6.4688 Z-8.6029
 X6.4922 Z-8.9007
 X6.4980 Z-8.9752
 X6.4995 Z-8.9938
 X6.5002 Z-11.0000
 X19.5000
 X19.5059 Z-5.0000
 X22.5000
 X22.5059 Z0.0000
 X28.5000
G0 Z2.0000
 X-28.5000 Y10.8398
G1 Z0.0000
 X-22.5000
 Z-5.0000
 X-19.5000
 Z-11.0000
 X-6.5625
 X-6.4688 Z-8.6029
 X-6.4453 Z-8.3051
 X-6.4219 Z-8.1488
 X-6.2578 Z-7.4655
 X-6.2344 Z-7.4044
 X-6.0938 Z-7.0650
 X-6.0469 Z-6.9518
 X-6.0000 Z-6.8386
 X-5.8125 Z-6.4975
 X-5.7188 Z-6.3445
 X-5.6719 Z-6.2680
 X-5.6250 Z-6.1915
 X-5.4375 Z-5.9351
 X-5.1562 Z-5.6058
 X-5.1094 Z-5.5509
 X-5.0625 Z-5.4960
 X-4.8750 Z-5.3274
 X-4.6875 Z-5.1672
 X-4.5938 Z-5.0871
 X-4.5469 Z-5.0471
 X-4.5000 Z-5.0071
 X-4.1250 Z-4.7625
 X-3.7969 Z-4.5615
 X-3.7500 Z-4.5367
 X-3.0938 Z-4.2649
 X-3.0000 Z-4.2339
 X-2.6250 Z-4.1439
 X-2.4375 Z-4.0988
 X-2.3438 Z-4.0763
 X-2.2500 Z-4.0590
 X-1.8750 Z-4.0295
 X-1.5000 Z-4.0111
 X-1.1250 Z-4.0000
 X1.1250
 X1.5000 Z-4.0037
 X1.8750 Z-4.0295
 X2.2500 Z-4.0590
 X2.6250 Z-4.1439
 X2.8125 Z-4.1889
 X2.9062 Z-4.2114
 X3.0000 Z-4.2339
 X3.3750 Z-4.3814
 X3.7500 Z-4.5367
 X4.1250 Z-4.7625
 X4.4062 Z-4.9349
 X4.5000 Z-5.0071
 X4.8750 Z-5.3274
 X4.9688 Z-5.4074
 X5.0156 Z-5.4475
 X5.0625 Z-5.4960
 X5.5312 Z-6.0449
 X5.6250 Z-6.1915
 X5.9531 Z-6.7269
 X6.0000 Z-6.8386
 X6.2520 Z-7.4469
 X6.2578 Z-7.4655
 X6.3750 Z-7.9536
 X6.4688 Z-8.6029
 X6.4922 Z-8.9007
 X6.4980 Z-8.9752
 X6.4995 Z-8.9938
 X6.5002 Z-11.0000
 X19.5000
 X19.5059 Z-5.0000
 X22.5000
 X22.5059 Z0.0000
 X28.5000
G0 Z2.0000
 X-28.5000 Y11.5874
G1 Z0.0000
 X-22.5000
 Z-5.0000
 X-19.5000
 Z-11.0000
 X-6.5625
 X-6.4688 Z-8.6029
 X-6.4453 Z-8.3051
 X-6.4219 Z-8.1488
 X-6.2578 Z-7.4655
 X-6.2344 Z-7.4044
 X-6.0938 Z-7.0650
 X-6.0469 Z-6.9518
 X-6.0000 Z-6.8386
 X-5.8125 Z-6.4975
 X-5.7188 Z-6.3445
 X-5.6719 Z-6.2680
 X-5.6250 Z-6.1915
 X-5.4375 Z-5.9351
 X-5.1562 Z-5.6058
 X-5.1094 Z-5.5509
 X-5.0625 Z-5.4960
 X-4.8750 Z-5.3274
 X-4.6875 Z-5.1672
 X-4.5938 Z-5.0871
 X-4.5469 Z-5.0471
 X-4.5000 Z-5.0071
 X-4.1250 Z-4.7625
 X-3.7969 Z-4.5615
 X-3.7500 Z-4.5367
 X-3.0938 Z-4.2649
 X-3.0000 Z-4.2339
 X-2.6250 Z-4.1439
 X-2.4375 Z-4.0988
 X-2.3438 Z-4.0763
 X-2.2500 Z-4.0590
 X-1.8750 Z-4.0295
 X-1.5000 Z-4.0115
 X-1.1250 Z-4.0000
 X1.1250
 X1.5000 Z-4.0034
 X1.8750 Z-4.0295
 X2.0625 Z-4.0443
 X2.1562 Z-4.0516
 X2.2500 Z-4.0590
 X2.6250 Z-4.1439
 X2.8125 Z-4.1889
 X2.9062 Z-4.2114
 X3.0000 Z-4.2339
 X3.3750 Z-4.3814
 X3.7500 Z-4.5367
 X4.1250 Z-4.7625
 X4.4062 Z-4.9349
 X4.5000 Z-5.0071
 X4.6875 Z-5.1672
 X4.8750 Z-5.3274
 X4.9688 Z-5.4074
 X5.0156 Z-5.4475
 X5.0625 Z-5.4960
 X5.5312 Z-6.0449
 X5.6250 Z-6.1915
 X5.9531 Z-6.7269
 X6.0000 Z-6.8386
 X6.2520 Z-7.4469
 X6.2578 Z-7.4655
 X6.3750 Z-7.9536
 X6.4688 Z-8.6029
 X6.4995 Z-8.9938
 X6.5002 Z-11.0000
 X19.5000
 X19.5059 Z-5.0000
 X22.5000
 X22.5059 Z0.0000
 X28.5000
G0 Z2.0000
 X-28.5000 Y12.3350
G1 Z0.0000
 X-22.5000
 Z-5.0000
 X-19.5000
 Z-11.0000
 X-6.5625
 X-6.4688 Z-8.6029
 X-6.4453 Z-8.3051
 X-6.4219 Z-8.1488
 X-6.2578 Z-7.4655
 X-6.2344 Z-7.4044
 X-6.0938 Z-7.0650
 X-6.0469 Z-6.9518
 X-6.0000 Z-6.8386
 X-5.8125 Z-6.4975
 X-5.7188 Z-6.3445
 X-5.6719 Z-6.2680
 X-5.6250 Z-6.1915
 X-5.4375 Z-5.9351
 X-5.1562 Z-5.6058
 X-5.1094 Z-5.5509
 X-5.0625 Z-5.4960
 X-4.8750 Z-5.3274
 X-4.6875 Z-5.1672
 X-4.5938 Z-5.0871
 X-4.5469 Z-5.0471
 X-4.5000 Z-5.0071
 X-4.1250 Z-4.7625
 X-3.7969 Z-4.5615
 X-3.7500 Z-4.5367
 X-3.0938 Z-4.2649
 X-3.0000 Z-4.2339
 X-2.6250 Z-4.1439
 X-2.4375 Z-4.0988
 X-2.3438 Z-4.0763
 X-2.2500 Z-4.0590
 X-1.8750 Z-4.0295
 X-1.5000 Z-4.0119
 X-1.1250 Z-4.0000
 X1.1250
 X1.5000 Z-4.0030
 X1.8750 Z-4.0295
 X2.0625 Z-4.0443
 X2.1562 Z-4.0516
 X2.2500 Z-4.0590
 X2.6250 Z-4.1439
 X2.8125 Z-4.1889
 X2.9062 Z-4.2114
 X3.0000 Z-4.2339
 X3.3750 Z-4.3814
 X3.7500 Z-4.5367
 X4.1250 Z-4.7625
 X4.4062 Z-4.9349
 X4.5000 Z-5.0071
 X4.6875 Z-5.1672
 X4.8750 Z-5.3274
 X4.9688 Z-5.4074
 X5.0156 Z-5.4475
 X5.0625 Z-5.4960
 X5.5312 Z-6.0449
 X5.6250 Z-6.1915
 X5.9531 Z-6.7269
 X6.0000 Z-6.8386
 X6.2520 Z-7.4469
 X6.2578 Z-7.4655
 X6.3750 Z-7.9536
 X6.4688 Z-8.6029
 X6.4995 Z-8.9938
 X6.5002 Z-11.0000
 X19.5000
 X19.5059 Z-5.0000
 X22.5000
 X22.5059 Z0.0000
 X28.5000
G0 Z2.0000
 X-28.5000 Y13.0825
G1 Z0.0000
 X-22.5000
 Z-5.0000
 X-19.5000
 Z-11.0000
 X-6.5625
 X-6.4688 Z-8.6029
 X-6.4453 Z-8.3051
 X-6.4219 Z-8.1488
 X-6.2578 Z-7.4655
 X-6.2344 Z-7.4044
 X-6.0938 Z-7.0650
 X-6.0469 Z-6.9518
 X-6.0000 Z-6.8386
 X-5.8125 Z-6.4975
 X-5.7188 Z-6.3445
 X-5.6719 Z-6.2680
 X-5.6250 Z-6.1915
 X-5.4375 Z-5.9351
 X-5.1562 Z-5.6058
 X-5.1094 Z-5.5509
 X-5.0625 Z-5.4960
 X-4.8750 Z-5.3274
 X-4.6875 Z-5.1672
 X-4.5938 Z-5.0871
 X-4.5469 Z-5.0471
 X-4.5000 Z-5.0071
 X-4.1250 Z-4.7625
 X-3.7969 Z-4.5615
 X-3.7500 Z-4.5367
 X-3.0938 Z-4.2649
 X-3.0000 Z-4.2339
 X-2.6250 Z-4.1439
 X-2.3438 Z-4.0763
 X-2.2500 Z-4.0590
 X-1.8750 Z-4.0295
 X-1.5000 Z-4.0123
 X-1.1250 Z-4.0000
 X1.1250
 X1.5000 Z-4.0026
 X1.8750 Z-4.0295
 X2.0625 Z-4.0443
 X2.1562 Z-4.0516
 X2.2500 Z-4.0590
 X2.6250 Z-4.1439
 X2.8125 Z-4.1889
 X2.9062 Z-4.2114
 X3.0000 Z-4.2339
 X3.3750 Z-4.3814
 X3.7500 Z-4.5367
 X4.1250 Z-4.7625
 X4.4062 Z-4.9349
 X4.5000 Z-5.0071
 X4.6875 Z-5.1672
 X4.8750 Z-5.3274
 X4.9688 Z-5.4074
 X5.0156 Z-5.4475
 X5.0625 Z-5.4960
 X5.5312 Z-6.0449
 X5.6250 Z-6.1915
 X5.9531 Z-6.7269
 X6.0000 Z-6.8386
 X6.2520 Z-7.4469
 X6.2578 Z-7.4655
 X6.3750 Z-7.9536
 X6.4688 Z-8.6029
 X6.4995 Z-8.9938
 X6.5002 Z-11.0000
 X19.5000
 X19.5059 Z-5.0000
 X22.5000
 X22.5059 Z0.0000
 X28.5000
G0 Z2.0000
 X-28.5000 Y13.8301
G1 Z0.0000
 X-22.5000
 Z-5.0000
 X-19.5000
 Z-11.0000
 X-6.5625
 X-6.4688 Z-8.6029
 X-6.4453 Z-8.3051
 X-6.4219 Z-8.1488
 X-6.2578 Z-7.4655
 X-6.2344 Z-7.4044
 X-6.0938 Z-7.0650
 X-6.0469 Z-6.9518
 X-6.0000 Z-6.8386
 X-5.8125 Z-6.4975
 X-5.7188 Z-6.3445
 X-5.6719 Z-6.2680
 X-5.6250 Z-6.1915
 X-5.4375 Z-5.9351
 X-5.1562 Z-5.6058
 X-5.1094 Z-5.5509
 X-5.0625 Z-5.4960
 X-4.8750 Z-5.3274
 X-4.6875 Z-5.1672
 X-4.5938 Z-5.0871
 X-4.5469 Z-5.0471
 X-4.5000 Z-5.0071
 X-4.1250 Z-4.7625
 X-3.7969 Z-4.5615
 X-3.7500 Z-4.5367
 X-3.0938 Z-4.2649
 X-3.0000 Z-4.2339
 X-2.6250 Z-4.1439
 X-2.3438 Z-4.0763
 X-2.2500 Z-4.0590
 X-1.8750 Z-4.0295
 X-1.5000 Z-4.0127
 X-1.1250 Z-4.0000
 X1.1250
 X1.5000 Z-4.0022
 X1.8750 Z-4.0295
 X2.0625 Z-4.0443
 X2.1562 Z-4.0516
 X2.2500 Z-4.0590
 X2.6250 Z-4.1439
 X2.8125 Z-4.1889
 X2.9062 Z-4.2114
 X3.0000 Z-4.2339
 X3.3750 Z-4.3814
 X3.7500 Z-4.5367
 X4.1250 Z-4.7625
 X4.4062 Z-4.9349
 X4.5000 Z-5.0071
 X4.6875 Z-5.1672
 X4.8750 Z-5.3274
 X4.9688 Z-5.4074
 X5.0156 Z-5.4475
 X5.0625 Z-5.4960
 X5.5312 Z-6.0449
 X5.6250 Z-6.1915
 X5.9531 Z-6.7269
 X6.0000 Z-6.8386
 X6.2520 Z-7.4469
 X6.2578 Z-7.4655
 X6.3750 Z-7.9536
 X6.4688 Z-8.6029
 X6.4995 Z-8.9938
 X6.5002 Z-11.0000
 X19.5000
 X19.5059 Z-5.0000
 X22.5000
 X22.5059 Z0.0000
 X28.5000
G0 Z2.0000
 X-28.5000 Y14.5777
G1 Z0.0000
 X-22.5000
 Z-5.0000
 X-19.5000
 Z-11.0000
 X-6.5625
 X-6.4688 Z-8.6029
 X-6.4453 Z-8.3051
 X-6.4219 Z-8.1488
 X-6.2578 Z-7.4655
 X-6.2344 Z-7.4044
 X-6.0938 Z-7.0650
 X-6.0469 Z-6.9518
 X-6.0000 Z-6.8386
 X-5.8125 Z-6.4975
 X-5.7188 Z-6.3445
 X-5.6719 Z-6.2680
 X-5.6250 Z-6.1915
 X-5.4375 Z-5.9351
 X-5.1562 Z-5.6058
 X-5.1094 Z-5.5509
 X-5.0625 Z-5.4960
 X-4.8750 Z-5.3274
 X-4.5938 Z-5.0871
 X-4.5469 Z-5.0471
 X-4.5000 Z-5.0071
 X-4.1250 Z-4.7625
 X-3.7969 Z-4.5615
 X-3.7500 Z-4.5367
 X-3.3750 Z-4.3814
 X-3.1875 Z-4.3037
 X-3.0938 Z-4.2649
 X-3.0000 Z-4.2339
 X-2.6250 Z-4.1439
 X-2.3438 Z-4.0763
 X-2.2500 Z-4.0590
 X-1.8750 Z-4.0295
 X-1.5000 Z-4.0130
 X-1.1250 Z-4.0000
 X1.1250
 X1.5000 Z-4.0019
 X1.8750 Z-4.0295
 X2.0625 Z-4.0443
 X2.1562 Z-4.0516
 X2.2500 Z-4.0590
 X2.6250 Z-4.1439
