;PYCAM-META-DATA: Filename: /home/mattvenn/cad/openscad/cast/bellend.stl
;PYCAM-META-DATA: Timestamp: 2013-09-05 18:06:15.776038
;PYCAM-META-DATA: Version: 0.5.1
;Estimated machine time: 7 minutes
G40 (disable tool radius compensation)
G49 (disable tool length compensation)
G80 (cancel modal motion)
G54 (select coordinate system 1)
G90 (disable incremental moves)
G21 (metric)
G61 (exact path mode)
F1000.00000
S1000.00000
;PYCAM_TOOLPATH_SETTINGS: START
;[Bounds]
;maxz = 0.0
;maxx = 17.5
;maxy = 28.5
;minx = -17.5
;miny = -27.5
;minz = -12.0
;
;[Tool]
;torus_radius = 0.25
;speed = 1000.0
;shape = CylindricalCutter
;tool_radius = 1.5
;feedrate = 1000.0
;
;[Process]
;engrave_offset = 0.0
;step_down = 0.1
;generator = DropCutter
;postprocessor = PathAccumulator
;milling_style = conventional
;material_allowance = 0.0
;pocketing_type = none
;path_direction = y
;
;PYCAM_TOOLPATH_SETTINGS: END
T1 M6
G0 Z2.0000
M3 (start spindle)
G04 P3 (wait for 3 seconds)
 X17.5000 Y-27.5000
G1 Z-11.0000
 Y28.5000
G0 Z2.0000
 X16.7553 Y-27.5000
G1 Z-11.0000
 Y28.5000
G0 Z2.0000
 X16.0106 Y-27.5000
G1 Z-11.0000
 Y28.5000
G0 Z2.0000
 X15.2660 Y-27.5000
G1 Z-11.0000
 Y-16.9533
 Y-16.9417 Z-9.0000
 Y-16.9333
 Y-16.9331 Z-8.6074
 Y-16.9329 Z-8.6070
 Y-16.9300 Z-8.6010
 Y-16.9067 Z-8.5546
 Y-16.8600 Z-8.4710
 Y-16.7667 Z-8.3278
 Y-16.6733 Z-8.1863
 Y-16.5800 Z-8.0450
 Y-16.4400 Z-7.8328
 Y-16.4167 Z-7.8126
 Y-16.3000 Z-7.7253
 Y-16.1133 Z-7.5856
 Y-16.0433 Z-7.5333
 Y-16.0317 Z-7.5245
 Y-16.0200 Z-7.5161
 Y-15.9967 Z-7.5004
 Y-15.9733 Z-7.4863
 Y-15.9500 Z-7.4737
 Y-15.9267 Z-7.4628
 Y-15.5533 Z-7.3632
 Y-15.3667 Z-7.3165
 Y-15.0867 Z-7.2463
 Y-15.0633 Z-7.2413
 Y-15.0517 Z-7.2393
 Y-15.0400 Z-7.2378
 Y-15.0167 Z-7.2358
 Y-15.0050 Z-7.2355
 Y-14.9992 Z-7.2354
 Y-14.9933 Z-7.2355
 Y-14.8067 Z-7.2731
 Y-14.4333 Z-7.3666
 Y-14.1533 Z-7.4368
 Y-14.1300 Z-7.4427
 Y-14.1067 Z-7.4498
 Y-14.0833 Z-7.4585
 Y-14.0717 Z-7.4635
 Y-14.0600 Z-7.4688
 Y-13.8733 Z-7.5955
 Y-13.5700 Z-7.8225
 Y-13.5467 Z-7.8528
 Y-13.1733 Z-8.4187
 Y-13.1500 Z-8.4546
 Y-13.1383 Z-8.4737
 Y-13.1267 Z-8.4936
 Y-13.1033 Z-8.5356
 Y-13.0917 Z-8.5578
 Y-13.0858 Z-8.5692
 Y-13.0829 Z-8.5749
 Y-13.0815 Z-8.5778
 Y-13.0800 Z-8.5807
 Y-13.0567 Z-9.0000
 Y-13.0508
 Y-13.0494 Z-11.0000
 Y28.5000
G0 Z2.0000
 X14.5213 Y-27.5000
G1 Z-11.0000
 Y-18.9600
 Y-18.9367 Z-9.0000
 Y-18.9221
 Y-18.9206 Z-8.6025
 Y-18.9133 Z-8.5706
 Y-18.8200 Z-8.1627
 Y-18.7733 Z-7.9598
 Y-18.7617 Z-7.9103
 Y-18.7558 Z-7.8858
 Y-18.7529 Z-7.8736
 Y-18.7500 Z-7.8614
 Y-18.7442 Z-7.8372
 Y-18.7427 Z-7.8312
 Y-18.7420 Z-7.8282
 Y-18.7413 Z-7.8263
 Y-18.7383 Z-7.8204
 Y-18.7267 Z-7.7969
 Y-18.5400 Z-7.4597
 Y-18.4467 Z-7.3003
 Y-18.4000 Z-7.2206
 Y-18.3533 Z-7.1408
 Y-18.1667 Z-6.9055
 Y-17.9800 Z-6.6975
 Y-17.7933 Z-6.4895
 Y-17.7000 Z-6.3901
 Y-17.6767 Z-6.3675
 Y-17.6533 Z-6.3458
 Y-17.6417 Z-6.3353
 Y-17.6358 Z-6.3301
 Y-17.6329 Z-6.3276
 Y-17.6300 Z-6.3250
 Y-17.6067 Z-6.3096
 Y-17.4200 Z-6.2001
 Y-17.0467 Z-5.9814
 Y-16.8600 Z-5.8720
 Y-16.8133 Z-5.8451
 Y-16.7667 Z-5.8206
 Y-16.6733 Z-5.7803
 Y-16.3000 Z-5.6478
 Y-16.1133 Z-5.5891
 Y-16.0200 Z-5.5637
 Y-15.9733 Z-5.5510
 Y-15.9267 Z-5.5387
 Y-15.5533 Z-5.4929
 Y-15.3667 Z-5.4759
 Y-15.1800 Z-5.4589
 Y-14.8067 Z-5.4601
 Y-14.4333 Z-5.4941
 Y-14.2467 Z-5.5111
 Y-14.2000 Z-5.5156
 Y-14.1533 Z-5.5222
 Y-14.0600 Z-5.5421
 Y-13.6867 Z-5.6525
 Y-13.3600 Z-5.7684
 Y-13.3367 Z-5.7767
 Y-13.3133 Z-5.7854
 Y-12.9400 Z-5.9892
 Y-12.5667 Z-6.2080
 Y-12.4733 Z-6.2626
 Y-12.4267 Z-6.2900
 Y-12.4033 Z-6.3036
 Y-12.3917 Z-6.3106
 Y-12.3858 Z-6.3141
 Y-12.3800 Z-6.3177
 Y-12.1933 Z-6.5043
 Y-11.7033 Z-7.0503
 Y-11.6800 Z-7.0840
 Y-11.4467 Z-7.4826
 Y-11.0733 Z-9.0000
 Y-11.0558
 Y-11.0544 Z-11.0000
 Y28.5000
G0 Z2.0000
 X13.7766 Y-27.5000
G1 Z-11.0000
 Y-20.1267
 Y-20.1033 Z-9.0000
 Y-20.0975
 Y-20.0946 Z-8.6015
 Y-20.0333 Z-8.2814
 Y-19.9466 Z-7.8280
 Y-19.9458 Z-7.8258
 Y-19.6600 Z-7.0885
 Y-19.4733 Z-6.7653
 Y-19.3800 Z-6.6123
 Y-19.3333 Z-6.5401
 Y-19.2867 Z-6.4708
 Y-18.9133 Z-6.0475
 Y-18.7267 Z-5.8566
 Y-18.5400 Z-5.6657
 Y-18.1667 Z-5.3879
 Y-17.7933 Z-5.1562
 Y-17.5133 Z-4.9825
 Y-17.4900 Z-4.9682
 Y-17.4783 Z-4.9612
 Y-17.4667 Z-4.9544
 Y-17.4200 Z-4.9328
 Y-17.0467 Z-4.7974
 Y-16.8600 Z-4.7314
 Y-16.6733 Z-4.6653
 Y-16.3000 Z-4.5718
 Y-15.9267 Z-4.4918
 Y-15.5533 Z-4.4438
 Y-15.1800 Z-4.4170
 Y-14.8067 Z-4.4180
 Y-14.4333 Z-4.4447
 Y-14.0600 Z-4.4946
 Y-13.6867 Z-4.5746
 Y-13.5000 Z-4.6147
 Y-13.3133 Z-4.6701
 Y-12.7533 Z-4.8682
 Y-12.6600 Z-4.9013
 Y-12.6133 Z-4.9191
 Y-12.5900 Z-4.9286
 Y-12.5667 Z-4.9385
 Y-12.1933 Z-5.1645
 Y-11.8200 Z-5.3962
 Y-11.7267 Z-5.4546
 Y-11.6800 Z-5.4860
 Y-11.6333 Z-5.5192
 Y-11.4467 Z-5.6793
 Y-11.0733 Z-6.0611
 Y-10.8225 Z-6.3177
 Y-10.8167 Z-6.3246
 Y-10.7933 Z-6.3575
 Y-10.7000 Z-6.4903
 Y-10.5133 Z-6.7877
 Y-10.3733 Z-7.0233
 Y-10.3267 Z-7.1230
 Y-10.2333 Z-7.3637
 Y-10.1400 Z-7.6044
 Y-9.9533 Z-8.3510
 Y-9.9067 Z-8.5949
 Y-9.8833 Z-9.0000
 Y-9.8777
 Y-9.8776 Z-11.0000
 Y28.5000
G0 Z2.0000
 X13.0319 Y-27.5000
G1 Z-11.0000
 Y-21.1533
 Y-20.9667 Z-9.0000
 Y-20.9200 Z-8.3349
 Y-20.8383 Z-7.8440
 Y-20.8267 Z-7.8010
 Y-20.6867 Z-7.3856
 Y-20.6400 Z-7.2471
 Y-20.5933 Z-7.1086
 Y-20.4067 Z-6.7311
 Y-20.2200 Z-6.3698
 Y-20.0333 Z-6.0941
 Y-19.8467 Z-5.8475
 Y-19.7533 Z-5.7331
 Y-19.7067 Z-5.6761
 Y-19.6600 Z-5.6190
 Y-19.2867 Z-5.2680
 Y-19.0067 Z-5.0057
 Y-18.9833 Z-4.9837
 Y-18.9600 Z-4.9620
 Y-18.9133 Z-4.9260
 Y-18.5400 Z-4.6898
 Y-18.0733 Z-4.4015
 Y-18.0267 Z-4.3731
 Y-18.0033 Z-4.3594
 Y-17.9800 Z-4.3461
 Y-17.7933 Z-4.2680
 Y-17.4200 Z-4.1224
 Y-17.0467 Z-3.9882
 Y-16.4867 Z-3.8302
 Y-16.3000 Z-3.7889
 Y-15.9267 Z-3.7364
 Y-15.5533 Z-3.6981
 Y-15.1800 Z-3.6811
 Y-14.8067 Z-3.6817
 Y-14.4333 Z-3.6987
 Y-14.0600 Z-3.7382
 Y-13.7800 Z-3.7764
 Y-13.6867 Z-3.7912
 Y-13.3133 Z-3.8866
 Y-12.9400 Z-3.9919
 Y-12.5667 Z-4.1276
 Y-12.2867 Z-4.2367
 Y-12.1933 Z-4.2731
 Y-11.8200 Z-4.4674
 Y-11.4467 Z-4.6980
 Y-11.2600 Z-4.8133
 Y-11.1667 Z-4.8719
 Y-11.1200 Z-4.9030
 Y-11.0733 Z-4.9354
 Y-10.7000 Z-5.2805
 Y-10.3733 Z-5.5866
 Y-10.3267 Z-5.6353
 Y-10.1400 Z-5.8642
 Y-10.0467 Z-5.9848
 Y-9.9533 Z-6.1128
 Y-9.8600 Z-6.2440
 Y-9.7667 Z-6.3957
 Y-9.4867 Z-6.9376
 Y-9.3933 Z-7.1482
 Y-9.2533 Z-7.5636
 Y-9.2067 Z-7.7021
 Y-9.0200 Z-9.0000
 Y-9.0171 Z-11.0000
 Y28.5000
G0 Z2.0000
 X12.2872 Y-27.5000
G1 Z-11.0000
 Y-21.7133
 Y-21.6200 Z-8.4998
 Y-21.5383 Z-7.9512
 Y-21.5267 Z-7.8728
 Y-21.4333 Z-7.5402
 Y-21.3400 Z-7.2307
 Y-21.2467 Z-6.9701
 Y-21.1533 Z-6.7682
 Y-21.0600 Z-6.5663
 Y-20.9667 Z-6.3644
 Y-20.7800 Z-6.0592
 Y-20.5933 Z-5.7658
 Y-20.5467 Z-5.6925
 Y-20.5233 Z-5.6563
 Y-20.5117 Z-5.6383
 Y-20.5000 Z-5.6204
 Y-20.4067 Z-5.5117
 Y-20.0333 Z-5.1073
 Y-19.6600 Z-4.7567
 Y-19.4733 Z-4.5982
 Y-19.3800 Z-4.5197
 Y-19.2867 Z-4.4451
 Y-18.9133 Z-4.2021
 Y-18.5400 Z-3.9822
 Y-18.3533 Z-3.8774
 Y-18.1667 Z-3.7847
 Y-17.7933 Z-3.6372
 Y-17.4200 Z-3.5053
 Y-17.0467 Z-3.3892
 Y-16.6733 Z-3.2914
 Y-16.3000 Z-3.2252
 Y-15.9267 Z-3.1801
 Y-15.5533 Z-3.1441
 Y-15.1800 Z-3.1305
 Y-14.8067 Z-3.1309
 Y-14.4333 Z-3.1448
 Y-14.0600 Z-3.1816
 Y-13.6867 Z-3.2275
 Y-13.3133 Z-3.2944
 Y-12.9400 Z-3.3933
 Y-12.5667 Z-3.5094
 Y-12.1933 Z-3.6424
 Y-11.9133 Z-3.7524
 Y-11.8200 Z-3.7913
 Y-11.4467 Z-3.9901
 Y-10.8867 Z-4.3198
 Y-10.7000 Z-4.4555
 Y-10.3267 Z-4.7681
 Y-9.9533 Z-5.1217
 Y-9.7667 Z-5.3229
 Y-9.6733 Z-5.4235
 Y-9.6267 Z-5.4746
 Y-9.5800 Z-5.5268
 Y-9.3933 Z-5.7867
 Y-9.1133 Z-6.2268
 Y-9.0200 Z-6.3932
 Y-8.9267 Z-6.5952
 Y-8.8333 Z-6.7971
 Y-8.7400 Z-6.9990
 Y-8.6933 Z-7.1202
 Y-8.5533 Z-7.5845
 Y-8.4600 Z-7.9624
 Y-8.3667 Z-8.5894
 Y-8.3608 Z-9.0000
 Y-8.3565
 Y-8.3557 Z-11.0000
 Y28.5000
G0 Z2.0000
 X11.5426 Y-27.5000
G1 Z-11.0000
 Y-22.1800
 Y-22.1333 Z-8.3836
 Y-22.0867 Z-8.0411
 Y-21.9933 Z-7.5948
 Y-21.9467 Z-7.4257
 Y-21.9000 Z-7.2566
 Y-21.7133 Z-6.7479
 Y-21.6200 Z-6.5273
 Y-21.5733 Z-6.4171
 Y-21.5267 Z-6.3108
 Y-21.3400 Z-5.9903
 Y-21.1533 Z-5.6698
 Y-20.9667 Z-5.4120
 Y-20.7800 Z-5.1780
 Y-20.4067 Z-4.7750
 Y-20.0333 Z-4.4206
 Y-19.6600 Z-4.1238
 Y-19.2867 Z-3.8691
 Y-18.9133 Z-3.6495
 Y-18.5400 Z-3.4602
 Y-18.3533 Z-3.3725
 Y-18.2600 Z-3.3287
 Y-18.1667 Z-3.2862
 Y-17.7933 Z-3.1557
 Y-17.4200 Z-3.0402
 Y-17.0467 Z-2.9367
 Y-16.6733 Z-2.8520
 Y-16.3000 Z-2.7983
 Y-15.9267 Z-2.7545
 Y-15.5533 Z-2.7243
 Y-15.1800 Z-2.7118
 Y-14.8067 Z-2.7122
 Y-14.4333 Z-2.7252
 Y-14.0600 Z-2.7557
 Y-13.6867 Z-2.8002
 Y-13.3133 Z-2.8544
 Y-12.9400 Z-2.9399
 Y-12.5667 Z-3.0443
 Y-12.1933 Z-3.1598
 Y-12.0067 Z-3.2222
 Y-11.8200 Z-3.2911
 Y-11.4467 Z-3.4664
 Y-11.0733 Z-3.6567
 Y-10.7000 Z-3.8781
 Y-10.3267 Z-4.1333
 Y-9.9533 Z-4.4333
 Y-9.5800 Z-4.7876
 Y-9.4867 Z-4.8762
 Y-9.3933 Z-4.9690
 Y-9.2067 Z-5.1943
 Y-9.0200 Z-5.4292
 Y-8.8333 Z-5.6927
 Y-8.6467 Z-6.0132
 Y-8.5067 Z-6.2536
 Y-8.4600 Z-6.3384
 Y-8.2733 Z-6.7794
 Y-8.1800 Z-6.9999
 Y-8.1333 Z-7.1359
 Y-7.9933 Z-7.6430
 Y-7.9000 Z-8.1389
 Y-7.8533 Z-8.4813
 Y-7.8300 Z-9.0000
 Y-7.8227
 Y-7.8220 Z-11.0000
 Y28.5000
G0 Z2.0000
 X10.7979 Y-27.5000
G1 Z-11.0000
 Y-22.6467
 Y-22.5533 Z-8.3867
 Y-22.5067 Z-8.0199
 Y-22.4600 Z-7.7413
 Y-22.3667 Z-7.3790
 Y-22.3200 Z-7.1979
 Y-22.2967 Z-7.1074
 Y-22.2733 Z-7.0325
 Y-22.0867 Z-6.5600
 Y-21.9000 Z-6.1514
 Y-21.7133 Z-5.8080
 Y-21.5267 Z-5.4995
 Y-21.3400 Z-5.2385
 Y-21.2467 Z-5.1114
 Y-21.2000 Z-5.0488
 Y-21.1533 Z-4.9868
 Y-20.7800 Z-4.5917
 Y-20.4067 Z-4.2312
 Y-20.0333 Z-3.9226
 Y-19.6600 Z-3.6623
 Y-19.1000 Z-3.3243
 Y-18.9133 Z-3.2298
 Y-18.5400 Z-3.0693
 Y-18.3533 Z-2.9899
 Y-18.2600 Z-2.9502
 Y-18.1667 Z-2.9107
 Y-17.7933 Z-2.7933
 Y-17.4200 Z-2.6892
 Y-17.0467 Z-2.5999
 Y-16.6733 Z-2.5242
 Y-16.3000 Z-2.4754
 Y-15.9267 Z-2.4387
 Y-15.5533 Z-2.4144
 Y-15.1800 Z-2.4023
 Y-14.8067 Z-2.4026
 Y-14.4333 Z-2.4152
 Y-14.0600 Z-2.4399
 Y-13.6867 Z-2.4769
 Y-13.3133 Z-2.5260
 Y-12.9400 Z-2.6030
 Y-12.5667 Z-2.6926
 Y-12.1933 Z-2.7971
 Y-12.0067 Z-2.8500
 Y-11.8200 Z-2.9163
 Y-11.4467 Z-3.0750
 Y-11.2600 Z-3.1544
 Y-11.1667 Z-3.1944
 Y-11.0733 Z-3.2359
 Y-10.7000 Z-3.4450
 Y-10.3267 Z-3.6704
 Y-9.9533 Z-3.9335
 Y-9.5800 Z-4.2422
 Y-9.2067 Z-4.6056
 Y-8.9267 Z-4.8959
 Y-8.8333 Z-5.0045
 Y-8.6467 Z-5.2569
 Y-8.5533 Z-5.3868
 Y-8.4600 Z-5.5183
 Y-8.2733 Z-5.8325
 Y-8.0867 Z-6.1759
 Y-7.9000 Z-6.5938
 Y-7.7367 Z-7.0073
 Y-7.7133 Z-7.0686
 Y-7.6200 Z-7.4308
 Y-7.5733 Z-7.6120
 Y-7.5267 Z-7.7931
 Y-7.4333 Z-8.4916
 Y-7.4100 Z-9.0000
 Y-7.4071
 Y-7.4056 Z-11.0000
 Y28.5000
G0 Z2.0000
 X10.0532 Y-27.5000
G1 Z-11.0000
 Y-22.9267
 Y-22.8800 Z-8.3696
 Y-22.8567 Z-8.1761
 Y-22.8333 Z-7.9829
 Y-22.7400 Z-7.5225
 Y-22.6933 Z-7.3316
 Y-22.6467 Z-7.1407
 Y-22.4600 Z-6.6156
 Y-22.3667 Z-6.3666
 Y-22.2733 Z-6.1733
 Y-22.0867 Z-5.8115
 Y-21.9000 Z-5.4881
 Y-21.7133 Z-5.2137
 Y-21.6200 Z-5.0789
 Y-21.5733 Z-5.0121
 Y-21.5267 Z-4.9465
 Y-21.1533 Z-4.5316
 Y-20.7800 Z-4.1612
 Y-20.5933 Z-3.9958
 Y-20.4067 Z-3.8304
 Y-20.0333 Z-3.5593
 Y-19.8467 Z-3.4349
 Y-19.7533 Z-3.3733
 Y-19.6600 Z-3.3118
 Y-19.2867 Z-3.1135
 Y-19.1000 Z-3.0165
 Y-18.9133 Z-2.9222
 Y-18.5400 Z-2.7742
 Y-18.1667 Z-2.6389
 Y-17.7933 Z-2.5201
 Y-17.4200 Z-2.4341
 Y-17.0467 Z-2.3572
 Y-16.6733 Z-2.2899
 Y-16.3000 Z-2.2470
 Y-15.9267 Z-2.2178
 Y-15.5533 Z-2.1977
 Y-15.1800 Z-2.1876
 Y-14.8067 Z-2.1877
 Y-14.4333 Z-2.1982
 Y-14.0600 Z-2.2186
 Y-13.6867 Z-2.2482
 Y-13.3133 Z-2.2922
 Y-12.9400 Z-2.3599
 Y-12.5667 Z-2.4369
 Y-12.1933 Z-2.5233
 Y-11.8200 Z-2.6435
 Y-11.4467 Z-2.7791
 Y-11.2600 Z-2.8471
 Y-11.0733 Z-2.9288
 Y-10.7000 Z-3.1204
 Y-10.5133 Z-3.2174
 Y-10.3267 Z-3.3206
 Y-9.9533 Z-3.5683
 Y-9.7667 Z-3.6979
 Y-9.5800 Z-3.8422
 Y-9.2067 Z-4.1730
 Y-8.8333 Z-4.5464
 Y-8.5533 Z-4.8574
 Y-8.4600 Z-4.9646
 Y-8.2733 Z-5.2331
 Y-8.1800 Z-5.3697
 Y-8.0867 Z-5.5079
 Y-7.9000 Z-5.8373
 Y-7.7133 Z-6.1991
 Y-7.5267 Z-6.6511
 Y-7.3867 Z-7.0245
 Y-7.3400 Z-7.1953
 Y-7.2467 Z-7.5770
 Y-7.1533 Z-8.0933
 Y-7.1067 Z-8.4799
 Y-7.0833 Z-9.0000
 Y-7.0746
 Y-7.0731 Z-11.0000
 Y28.5000
G0 Z2.0000
 X9.3085 Y-27.5000
G1 Z-11.0000
 Y-23.2067
 Y-23.1600 Z-9.0000
 Y-23.1367 Z-8.4177
 Y-23.1133 Z-8.2172
 Y-23.0725 Z-7.8661
 Y-23.0667 Z-7.8218
 Y-23.0200 Z-7.6237
 Y-22.8333 Z-6.9117
 Y-22.6467 Z-6.3949
 Y-22.4600 Z-5.9992
 Y-22.3667 Z-5.8115
 Y-22.3200 Z-5.7178
 Y-22.2733 Z-5.6245
 Y-22.0867 Z-5.3381
 Y-21.9933 Z-5.1974
 Y-21.9000 Z-5.0577
 Y-21.5267 Z-4.5975
 Y-21.1533 Z-4.1960
 Y-20.7800 Z-3.8475
 Y-20.4067 Z-3.5561
 Y-20.2200 Z-3.4172
 Y-20.1267 Z-3.3485
 Y-20.0333 Z-3.2828
 Y-19.6600 Z-3.0738
 Y-19.3800 Z-2.9179
 Y-19.2867 Z-2.8677
 Y-18.9133 Z-2.7087
 Y-18.5400 Z-2.5573
 Y-18.1667 Z-2.4426
 Y-17.7933 Z-2.3395
 Y-17.4200 Z-2.2523
 Y-17.0467 Z-2.1936
 Y-16.6733 Z-2.1402
 Y-16.3000 Z-2.0965
 Y-15.9267 Z-2.0782
 Y-15.5533 Z-2.0653
 Y-15.1800 Z-2.0588
 Y-14.8067 Z-2.0589
 Y-14.4333 Z-2.0656
 Y-14.0600 Z-2.0788
 Y-13.6867 Z-2.0972
 Y-13.3133 Z-2.1420
 Y-12.9400 Z-2.1956
 Y-12.5667 Z-2.2545
 Y-12.1933 Z-2.3430
 Y-11.8200 Z-2.4465
 Y-11.4467 Z-2.5626
 Y-11.0733 Z-2.7143
 Y-10.8867 Z-2.7937
 Y-10.7000 Z-2.8734
 Y-10.3267 Z-3.0812
 Y-10.1400 Z-3.1851
 Y-10.0467 Z-3.2374
 Y-10.0000 Z-3.2638
 Y-9.9533 Z-3.2904
 Y-9.5800 Z-3.5660
 Y-9.2067 Z-3.8600
 Y-8.8333 Z-4.2084
 Y-8.4600 Z-4.6131
 Y-8.2733 Z-4.8316
 Y-8.0867 Z-5.0775
 Y-7.9000 Z-5.3582
 Y-7.8067 Z-5.4999
 Y-7.7133 Z-5.6511
 Y-7.5267 Z-6.0260
 Y-7.4333 Z-6.2138
 Y-7.3400 Z-6.4317
 Y-7.1533 Z-6.9485
 Y-7.0600 Z-7.2840
 Y-6.9667 Z-7.6802
 Y-6.8733 Z-8.3315
 Y-6.8267 Z-9.0000
 Y-6.8237 Z-11.0000
 Y28.5000
G0 Z2.0000
 X8.5638 Y-27.5000
G1 Z-11.0000
 Y-23.3933
 Y-23.3000 Z-8.2563
 Y-23.2533 Z-7.8456
 Y-23.2067 Z-7.6339
 Y-23.1133 Z-7.2286
 Y-23.0200 Z-6.9068
 Y-22.9267 Z-6.6436
 Y-22.8800 Z-6.5123
 Y-22.8333 Z-6.3811
 Y-22.6467 Z-5.9846
 Y-22.5533 Z-5.7952
 Y-22.5067 Z-5.7007
 Y-22.4833 Z-5.6535
 Y-22.4600 Z-5.6081
 Y-22.2733 Z-5.3197
 Y-21.9000 Z-4.7876
 Y-21.7133 Z-4.5609
 Y-21.6200 Z-4.4475
 Y-21.5733 Z-4.3908
 Y-21.5267 Z-4.3344
 Y-21.1533 Z-3.9728
 Y-20.7800 Z-3.6454
 Y-20.4067 Z-3.3570
 Y-20.0333 Z-3.1158
 Y-19.8467 Z-3.0033
 Y-19.7533 Z-2.9476
 Y-19.6600 Z-2.8922
 Y-19.2867 Z-2.7198
 Y-19.1000 Z-2.6359
 Y-18.9133 Z-2.5520
 Y-18.5400 Z-2.4250
 Y-18.1667 Z-2.3072
 Y-17.7933 Z-2.2200
 Y-17.4200 Z-2.1468
 Y-17.0467 Z-2.0880
 Y-16.6733 Z-2.0559
 Y-16.3000 Z-2.0269
 Y-15.9267 Z-2.0110
 Y-14.0600
 Y-13.6867 Z-2.0279
 Y-13.3133 Z-2.0570
 Y-12.9400 Z-2.0892
 Y-12.5667 Z-2.1494
 Y-12.1933 Z-2.2227
 Y-11.8200 Z-2.3113
 Y-11.4467 Z-2.4293
 Y-11.2600 Z-2.4901
 Y-11.0733 Z-2.5580
 Y-10.5133 Z-2.8097
 Y-10.3267 Z-2.9001
 Y-9.9533 Z-3.1239
 Y-9.5800 Z-3.3673
 Y-9.2067 Z-3.6557
 Y-8.8333 Z-3.9857
 Y-8.5533 Z-4.2569
 Y-8.4600 Z-4.3503
 Y-8.0867 Z-4.8038
 Y-7.9000 Z-5.0524
 Y-7.7133 Z-5.3402
 Y-7.6200 Z-5.4843
 Y-7.5733 Z-5.5564
 Y-7.5267 Z-5.6332
 Y-7.3400 Z-6.0116
 Y-7.1533 Z-6.4184
 Y-7.0600 Z-6.6810
 Y-7.0133 Z-6.8126
 Y-6.9667 Z-6.9443
 Y-6.8733 Z-7.2862
 Y-6.8267 Z-7.4889
 Y-6.7800 Z-7.6916
 Y-6.6867 Z-8.3735
 Y-6.6633 Z-8.5788
 Y-6.6575 Z-9.0000
 Y-6.6546
 Y-6.6531 Z-11.0000
 Y28.5000
G0 Z2.0000
 X7.8191 Y-27.5000
G1 Z-11.0000
 Y-23.4867
 Y-23.4400 Z-8.5460
 Y-23.3933 Z-8.1354
 Y-23.3000 Z-7.5741
 Y-23.2067 Z-7.1687
 Y-23.1133 Z-6.8673
 Y-23.0200 Z-6.6028
 Y-22.8333 Z-6.1415
 Y-22.6467 Z-5.7572
 Y-22.4600 Z-5.4292
 Y-22.2733 Z-5.1346
 Y-21.9000 Z-4.6312
 Y-21.5267 Z-4.2012
 Y-21.3400 Z-4.0161
 Y-21.2467 Z-3.9236
 Y-21.1533 Z-3.8311
 Y-20.7800 Z-3.5257
 Y-20.5933 Z-3.3781
 Y-20.4067 Z-3.2433
 Y-20.0333 Z-3.0108
 Y-19.6600 Z-2.8004
 Y-19.2867 Z-2.6224
 Y-18.9133 Z-2.4697
 Y-18.5400 Z-2.3427
 Y-18.1667 Z-2.2361
 Y-17.7933 Z-2.1536
 Y-17.4200 Z-2.0857
 Y-17.0467 Z-2.0463
 Y-16.8600 Z-2.0268
 Y-16.6733 Z-2.0110
 Y-13.3133
 Y-12.9400 Z-2.0477
 Y-12.5667 Z-2.0871
 Y-12.1933 Z-2.1565
 Y-11.8200 Z-2.2391
 Y-11.4467 Z-2.3472
 Y-11.0733 Z-2.4742
 Y-10.7000 Z-2.6287
 Y-10.3267 Z-2.8068
 Y-9.9533 Z-3.0191
 Y-9.5800 Z-3.2516
 Y-9.2067 Z-3.5362
 Y-9.0200 Z-3.6838
 Y-8.8333 Z-3.8443
 Y-8.4600 Z-4.2144
 Y-8.0867 Z-4.6478
 Y-7.9000 Z-4.8798
 Y-7.7133 Z-5.1557
 Y-7.5267 Z-5.4502
 Y-7.3400 Z-5.7846
 Y-7.1533 Z-6.1689
 Y-7.0600 Z-6.3760
 Y-6.8733 Z-6.9049
 Y-6.7800 Z-7.2265
 Y-6.5933 Z-8.2527
 Y-6.5583 Z-8.5607
 Y-6.5525 Z-9.0000
 Y-6.5481
 Y-6.5474 Z-11.0000
 Y28.5000
G0 Z2.0000
 X7.0745 Y-27.5000
G1 Z-11.0000
 Y-23.5800
 Y-23.4867 Z-9.0000
 Y-23.4400 Z-8.2619
 Y-23.4167 Z-8.0544
 Y-23.3933 Z-7.8470
 Y-23.3000 Z-7.4276
 Y-23.2533 Z-7.2230
 Y-23.2067 Z-7.0336
 Y-23.0200 Z-6.4995
 Y-22.8333 Z-6.0626
 Y-22.7400 Z-5.8686
 Y-22.6467 Z-5.6745
 Y-22.4600 Z-5.3629
 Y-22.2733 Z-5.0655
 Y-21.9000 Z-4.5721
 Y-21.5267 Z-4.1504
 Y-21.3400 Z-3.9635
 Y-21.2467 Z-3.8701
 Y-21.1533 Z-3.7774
 Y-20.7800 Z-3.4794
 Y-20.4067 Z-3.2045
 Y-20.0333 Z-2.9697
 Y-19.6600 Z-2.7672
 Y-19.2867 Z-2.5872
 Y-18.9133 Z-2.4415
 Y-18.5400 Z-2.3107
 Y-18.1667 Z-2.2125
 Y-17.7933 Z-2.1272
 Y-17.4200 Z-2.0707
 Y-17.0467 Z-2.0286
 Y-16.6733 Z-2.0110
 Y-13.3133
 Y-12.9400 Z-2.0301
 Y-12.5667 Z-2.0722
 Y-12.1933 Z-2.1302
 Y-11.8200 Z-2.2155
 Y-11.4467 Z-2.3154
 Y-11.0733 Z-2.4462
 Y-10.7000 Z-2.5936
 Y-10.3267 Z-2.7736
 Y-9.9533 Z-2.9781
 Y-9.5800 Z-3.2129
 Y-9.2067 Z-3.4900
 Y-9.0200 Z-3.6390
 Y-8.9267 Z-3.7136
 Y-8.8333 Z-3.7900
 Y-8.4600 Z-4.1638
 Y-8.0867 Z-4.5889
 Y-7.9000 Z-4.8232
 Y-7.7133 Z-5.0867
 Y-7.4333 Z-5.5329
 Y-7.3400 Z-5.7022
 Y-7.0600 Z-6.2844
 Y-6.9667 Z-6.5376
 Y-6.8267 Z-6.9381
 Y-6.7800 Z-7.0767
 Y-6.5933 Z-7.9655
 Y-6.5233 Z-8.5875
 Y-6.5117 Z-9.0000
 Y-6.5058
 Y-6.5044 Z-11.0000
 Y28.5000
G0 Z2.0000
 X6.3298 Y-27.5000
G1 Z-11.0000
 Y-23.4867
 Y-23.4400 Z-8.5081
 Y-23.4167 Z-8.3014
 Y-23.3933 Z-8.0946
 Y-23.3000 Z-7.5511
 Y-23.2533 Z-7.3471
 Y-23.2067 Z-7.1431
 Y-23.1133 Z-6.8488
 Y-23.0200 Z-6.5827
 Y-22.8333 Z-6.1244
 Y-22.6467 Z-5.7375
 Y-22.4600 Z-5.4122
 Y-22.2733 Z-5.1157
 Y-21.9000 Z-4.6132
 Y-21.5267 Z-4.1844
 Y-21.3400 Z-3.9981
 Y-21.2467 Z-3.9050
 Y-21.1533 Z-3.8119
 Y-20.7800 Z-3.5084
 Y-20.4067 Z-3.2282
 Y-20.0333 Z-2.9943
 Y-19.6600 Z-2.7877
 Y-19.2867 Z-2.6102
 Y-18.9133 Z-2.4607
 Y-18.5400 Z-2.3324
 Y-18.1667 Z-2.2283
 Y-17.7933 Z-2.1447
 Y-17.4200 Z-2.0807
 Y-17.0467 Z-2.0406
 Y-16.6733 Z-2.0110
 Y-13.3133
 Y-12.9400 Z-2.0420
 Y-12.5667 Z-2.0822
 Y-12.1933 Z-2.1477
 Y-11.8200 Z-2.2313
 Y-11.4467 Z-2.3370
 Y-11.0733 Z-2.4652
 Y-10.7000 Z-2.6165
 Y-10.3267 Z-2.7940
 Y-9.9533 Z-3.0026
 Y-9.5800 Z-3.2365
 Y-9.2067 Z-3.5190
 Y-9.0200 Z-3.6676
 Y-8.8333 Z-3.8252
 Y-8.4600 Z-4.1977
 Y-8.0867 Z-4.6299
 Y-7.9000 Z-4.8635
 Y-7.7133 Z-5.1369
 Y-7.4333 Z-5.5816
 Y-7.3400 Z-5.7652
 Y-7.1533 Z-6.1520
 Y-6.9667 Z-6.6207
 Y-6.7800 Z-7.2015
 Y-6.7333 Z-7.4055
 Y-6.6517 Z-7.7626
 Y-6.6509 Z-7.7653
 Y-3.9800
 Y-3.6067
 Y18.3033
 Y18.3267 Z-7.7618
 Y18.3733 Z-7.7505
 Y18.3967 Z-7.7451
 Y18.4083 Z-7.7427
 Y18.4142 Z-7.7417
 Y18.4200 Z-7.7407
 Y18.4433 Z-7.7374
 Y18.4667 Z-7.7352
 Y18.4900 Z-7.7342
 Y18.5133 Z-7.7343
 Y18.5367 Z-7.7355
 Y18.5600 Z-7.7378
 Y18.6067 Z-7.7458
 Y18.7000 Z-7.7683
 Y18.9567 Z-7.8304
 Y18.9800 Z-7.8396
 Y19.3533 Z-8.0251
 Y19.4000 Z-8.0488
 Y19.4233 Z-8.0631
 Y19.4350 Z-8.0711
 Y19.4467 Z-8.0797
 Y19.4700 Z-8.0985
 Y19.4933 Z-8.1196
 Y19.5167 Z-8.1428
 Y19.5283 Z-8.1553
 Y19.5400 Z-8.1683
 Y19.6333 Z-8.2926
 Y19.8200 Z-8.5686
 Y19.9133 Z-9.0000
 Y19.9337
 Y19.9352 Z-11.0000
 Y28.5000
G0 Z2.0000
 X5.5851 Y-27.5000
G1 Z-11.0000
 Y-23.3933
 Y-23.3000 Z-8.0570
 Y-23.2533 Z-7.7400
 Y-23.2067 Z-7.5393
 Y-23.1133 Z-7.1379
 Y-23.0200 Z-6.8497
 Y-22.8333 Z-6.3260
 Y-22.6467 Z-5.9442
 Y-22.5533 Z-5.7540
 Y-22.4600 Z-5.5754
 Y-22.2733 Z-5.2838
 Y-21.9000 Z-4.7533
 Y-21.6200 Z-4.4086
 Y-21.5267 Z-4.3022
 Y-21.1533 Z-3.9357
 Y-20.7800 Z-3.6120
 Y-20.5933 Z-3.4661
 Y-20.5000 Z-3.3936
 Y-20.4067 Z-3.3214
 Y-20.0333 Z-3.0898
 Y-19.7533 Z-2.9222
 Y-19.6600 Z-2.8680
 Y-19.2867 Z-2.6967
 Y-19.1000 Z-2.6110
 Y-19.0067 Z-2.5682
 Y-18.9133 Z-2.5274
 Y-18.5400 Z-2.4047
 Y-18.3533 Z-2.3449
 Y-18.1667 Z-2.2853
 Y-17.7933 Z-2.2037
 Y-17.4200 Z-2.1292
 Y-17.0467 Z-2.0781
 Y-16.6733 Z-2.0447
 Y-16.3000 Z-2.0143
 Y-15.9267 Z-2.0110
 Y-14.0600
 Y-13.6867 Z-2.0153
 Y-13.3133 Z-2.0458
 Y-12.9400 Z-2.0794
 Y-12.5667 Z-2.1318
 Y-12.1933 Z-2.2065
 Y-12.0067 Z-2.2452
 Y-11.8200 Z-2.2896
 Y-11.4467 Z-2.4090
 Y-11.2600 Z-2.4699
 Y-11.1667 Z-2.5008
 Y-11.0733 Z-2.5319
 Y-10.7000 Z-2.7028
 Y-10.4200 Z-2.8313
 Y-10.3267 Z-2.8743
 Y-9.9533 Z-3.0977
 Y-9.7667 Z-3.2099
 Y-9.5800 Z-3.3317
 Y-9.2067 Z-3.6224
 Y-8.8333 Z-3.9488
 Y-8.4600 Z-4.3153
 Y-8.0867 Z-4.7697
 Y-7.9000 Z-5.0130
 Y-7.5267 Z-5.5963
 Y-7.4333 Z-5.7811
 Y-7.3867 Z-5.8763
 Y-7.2642 Z-6.1260
 Y-7.2634 Z-6.1264
 Y18.4200
 Y18.7933 Z-6.1678
 Y19.2600 Z-6.2183
 Y19.3067 Z-6.2242
 Y19.3533 Z-6.2319
 Y19.5400 Z-6.2819
 Y19.8200 Z-6.3722
 Y19.9133 Z-6.4085
 Y20.1000 Z-6.4943
 Y20.1933 Z-6.5372
 Y20.2400 Z-6.5601
 Y20.2867 Z-6.5855
 Y20.6600 Z-6.8531
 Y20.9400 Z-7.0640
 Y21.0333 Z-7.1615
 Y21.2200 Z-7.3821
 Y21.3133 Z-7.5005
 Y21.3600 Z-7.5650
 Y21.3833 Z-7.5986
 Y21.3950 Z-7.6157
 Y21.4067 Z-7.6330
 Y21.7800 Z-9.0000
 Y21.8019
 Y21.8026 Z-11.0000
 Y28.5000
G0 Z2.0000
 X4.8404 Y-27.5000
G1 Z-11.0000
 Y-23.3933
 Y-23.2067 Z-8.5813
 Y-23.1600 Z-8.1813
 Y-23.1367 Z-7.9816
 Y-23.1250 Z-7.8818
 Y-23.1133 Z-7.8051
 Y-23.0200 Z-7.4124
 Y-22.8333 Z-6.7812
 Y-22.6933 Z-6.4001
 Y-22.6467 Z-6.2862
 Y-22.4600 Z-5.9169
 Y-22.3667 Z-5.7323
 Y-22.2733 Z-5.5632
 Y-22.0867 Z-5.2802
 Y-21.9000 Z-4.9972
 Y-21.5267 Z-4.5410
 Y-21.1533 Z-4.1438
 Y-20.8267 Z-3.8326
 Y-20.7800 Z-3.7882
 Y-20.4067 Z-3.5080
 Y-20.0333 Z-3.2480
 Y-19.6600 Z-3.0342
 Y-19.4733 Z-2.9274
 Y-19.2867 Z-2.8329
 Y-18.9133 Z-2.6737
 Y-18.7267 Z-2.5966
 Y-18.5400 Z-2.5231
 Y-18.1667 Z-2.4118
 Y-17.7933 Z-2.3073
 Y-17.4200 Z-2.2293
 Y-17.0467 Z-2.1681
 Y-16.6733 Z-2.1127
 Y-16.3000 Z-2.0819
 Y-15.9267 Z-2.0626
 Y-15.5533 Z-2.0490
 Y-15.1800 Z-2.0420
 Y-14.8067 Z-2.0421
 Y-14.4333 Z-2.0494
 Y-14.0600 Z-2.0632
 Y-13.6867 Z-2.0827
 Y-13.3133 Z-2.1146
 Y-12.9400 Z-2.1702
 Y-12.5667 Z-2.2316
 Y-12.1933 Z-2.3110
 Y-11.8200 Z-2.4157
 Y-11.6333 Z-2.4711
 Y-11.4467 Z-2.5271
 Y-11.0733 Z-2.6792
 Y-10.8867 Z-2.7578
 Y-10.7000 Z-2.8387
 Y-10.3267 Z-3.0419
 Y-10.1400 Z-3.1487
 Y-9.9533 Z-3.2556
 Y-9.5800 Z-3.5177
 Y-9.3933 Z-3.6560
 Y-9.3000 Z-3.7261
 Y-9.2067 Z-3.8008
 Y-8.8333 Z-4.1565
 Y-8.4600 Z-4.5570
 Y-8.2733 Z-4.7800
 Y-8.1333 Z-4.9472
 Y-8.1100 Z-4.9820
 Y-7.9933 Z-5.1589
 Y-7.9467 Z-5.2296
 Y-7.9018 Z-5.2976
 Y-7.9016 Z-5.2978
 Y18.0467
 Y18.4200 Z-5.2933
 Y18.7933 Z-5.3096
 Y19.0733 Z-5.3316
 Y19.1667 Z-5.3391
 Y19.5400 Z-5.4109
 Y19.9133 Z-5.4983
 Y20.2867 Z-5.6177
 Y20.6133 Z-5.7431
 Y20.6600 Z-5.7642
 Y20.8467 Z-5.8628
 Y21.0333 Z-5.9759
 Y21.2200 Z-6.1090
 Y21.5933 Z-6.3783
 Y21.7800 Z-6.5664
 Y21.9667 Z-6.7624
 Y22.0600 Z-6.8698
 Y22.1067 Z-6.9263
 Y22.1300 Z-6.9552
 Y22.1533 Z-6.9846
 Y22.3400 Z-7.3009
 Y22.5967 Z-7.8155
 Y22.6200 Z-7.8934
 Y22.6667 Z-8.0854
 Y22.7133 Z-8.2772
 Y22.8067 Z-9.0000
 Y22.8213
 Y22.8227 Z-11.0000
 Y28.5000
G0 Z2.0000
 X4.0957 Y-27.5000
G1 Z-11.0000
 Y-23.0200
 Y-22.9267 Z-8.2392
 Y-22.8917 Z-7.9433
 Y-22.8858 Z-7.8939
 Y-22.8800 Z-7.8446
 Y-22.8333 Z-7.6412
 Y-22.6992 Z-7.0812
 Y-22.6933 Z-7.0588
 Y-22.6467 Z-6.9320
 Y-22.5533 Z-6.6802
 Y-22.4600 Z-6.4305
 Y-22.2733 Z-6.0426
 Y-22.0867 Z-5.6892
 Y-21.9000 Z-5.4009
 Y-21.7133 Z-5.1303
 Y-21.5267 Z-4.8786
 Y-21.1533 Z-4.4521
 Y-20.7800 Z-4.0883
 Y-20.5933 Z-3.9189
 Y-20.5000 Z-3.8358
 Y-20.4067 Z-3.7593
 Y-20.0333 Z-3.5035
 Y-19.8467 Z-3.3758
 Y-19.6600 Z-3.2572
 Y-19.2867 Z-3.0569
 Y-19.1000 Z-2.9614
 Y-18.9133 Z-2.8695
 Y-18.5400 Z-2.7269
 Y-18.1667 Z-2.5910
 Y-17.7933 Z-2.4813
 Y-17.4200 Z-2.3947
 Y-17.0467 Z-2.3140
 Y-16.6733 Z-2.2540
 Y-16.3000 Z-2.2154
 Y-15.9267 Z-2.1849
 Y-15.5533 Z-2.1638
 Y-15.1800 Z-2.1531
 Y-14.8067 Z-2.1533
 Y-14.4333 Z-2.1644
 Y-14.0600 Z-2.1859
 Y-13.6867 Z-2.2167
 Y-13.3133 Z-2.2555
 Y-12.9400 Z-2.3167
 Y-12.5667 Z-2.3976
 Y-12.1933 Z-2.4846
 Y-11.8200 Z-2.5956
 Y-11.4467 Z-2.7320
 Y-11.1667 Z-2.8390
 Y-11.0733 Z-2.8750
 Y-10.7000 Z-3.0639
 Y-10.5133 Z-3.1638
 Y-10.3267 Z-3.2644
 Y-9.9533 Z-3.5126
 Y-9.7667 Z-3.6403
 Y-9.6733 Z-3.7041
 Y-9.6267 Z-3.7362
 Y-9.5800 Z-3.7686
 Y-9.2067 Z-4.1005
 Y-9.0200 Z-4.2705
 Y-8.9267 Z-4.3607
 Y-8.6933 Z-4.6272
 Y-8.6700 Z-4.6539
 Y-8.5913 Z-4.7439
 Y-8.5905 Z-4.7446
 Y18.0467
 Y18.4200 Z-4.7294
 Y18.7933 Z-4.7380
 Y18.9800 Z-4.7487
 Y19.1667 Z-4.7638
 Y19.5400 Z-4.8249
 Y19.9133 Z-4.8978
 Y20.2867 Z-5.0015
 Y20.4733 Z-5.0537
 Y20.5667 Z-5.0821
 Y20.6600 Z-5.1138
 Y21.0333 Z-5.2768
 Y21.4067 Z-5.4738
 Y21.5933 Z-5.5855
 Y21.6867 Z-5.6461
 Y21.7800 Z-5.7069
 Y22.1533 Z-6.0244
 Y22.3400 Z-6.1918
 Y22.4333 Z-6.2755
 Y22.4800 Z-6.3180
 Y22.5033 Z-6.3396
 Y22.5267 Z-6.3614
 Y22.7133 Z-6.6123
 Y22.8067 Z-6.7512
 Y23.0167 Z-7.0656
 Y23.0400 Z-7.1084
 Y23.0867 Z-7.2179
 Y23.1800 Z-7.4371
 Y23.3200 Z-7.7657
 Y23.3667 Z-7.9200
 Y23.4133 Z-8.1447
 Y23.4600 Z-8.3695
 Y23.5067 Z-8.5943
 Y23.5300 Z-9.0000
 Y23.5380
 Y23.5384 Z-11.0000
 Y28.5000
G0 Z2.0000
 X3.3511 Y-27.5000
G1 Z-11.0000
 Y-23.0200
 Y-22.6467 Z-8.5530
 Y-22.6000 Z-8.1756
 Y-22.5767 Z-7.9869
 Y-22.5592 Z-7.8454
 Y-22.5533 Z-7.8130
 Y-22.4133 Z-7.2541
 Y-22.3900 Z-7.1611
 Y-22.3667 Z-7.0679
 Y-22.2733 Z-6.8229
 Y-22.1333 Z-6.4583
 Y-22.1100 Z-6.3976
 Y-22.0867 Z-6.3368
 Y-21.9000 Z-5.9854
 Y-21.8067 Z-5.8158
 Y-21.7600 Z-5.7320
 Y-21.7367 Z-5.6903
 Y-21.7133 Z-5.6487
 Y-21.5267 Z-5.3857
 Y-21.3400 Z-5.1309
 Y-21.1533 Z-4.8916
 Y-20.7800 Z-4.4901
 Y-20.4067 Z-4.1393
 Y-20.2200 Z-3.9861
 Y-20.0333 Z-3.8379
 Y-19.6600 Z-3.5901
 Y-19.3800 Z-3.4130
 Y-19.2867 Z-3.3543
 Y-18.9133 Z-3.1686
 Y-18.5400 Z-3.0001
 Y-18.1667 Z-2.8488
 Y-17.7933 Z-2.7348
 Y-17.4200 Z-2.6311
 Y-17.2333 Z-2.5824
 Y-17.0467 Z-2.5352
 Y-16.6733 Z-2.4762
 Y-16.3000 Z-2.4274
 Y-15.9267 Z-2.3890
 Y-15.5533 Z-2.3624
 Y-15.1800 Z-2.3491
 Y-14.8067 Z-2.3492
 Y-14.4333 Z-2.3630
 Y-14.0600 Z-2.3901
 Y-13.6867 Z-2.4290
 Y-13.3133 Z-2.4783
 Y-13.1267 Z-2.5071
 Y-12.9400 Z-2.5384
 Y-12.5667 Z-2.6345
 Y-12.1933 Z-2.7388
 Y-11.8200 Z-2.8528
 Y-11.4467 Z-3.0061
 Y-11.0733 Z-3.1746
 Y-10.8867 Z-3.2589
 Y-10.7000 Z-3.3626
 Y-10.3267 Z-3.5986
 Y-10.1400 Z-3.7166
 Y-9.9533 Z-3.8485
 Y-9.7667 Z-3.9968
 Y-9.6733 Z-4.0727
 Y-9.6267 Z-4.1114
 Y-9.6033 Z-4.1309
 Y-9.5800 Z-4.1505
 Y-9.4867 Z-4.2301
 Y-9.4400 Z-4.2701
 Y-9.4167 Z-4.2901
 Y-9.3700 Z-4.3301
 Y-9.3583 Z-4.3413
 Y-9.3306 Z-4.3711
 Y-9.3299 Z-4.3715
 Y17.6733
 Y18.0467 Z-4.3706
 Y18.4200 Z-4.3610
 Y18.7933 Z-4.3663
 Y19.1667 Z-4.3840
 Y19.5400 Z-4.4294
 Y19.9133 Z-4.4978
 Y20.2867 Z-4.5769
 Y20.6600 Z-4.6762
 Y20.7533 Z-4.7011
 Y20.8000 Z-4.7136
 Y20.8233 Z-4.7199
 Y20.8467 Z-4.7264
 Y21.0333 Z-4.8020
 Y21.4067 Z-4.9784
 Y21.5933 Z-5.0667
 Y21.6867 Z-5.1109
 Y21.7333 Z-5.1333
 Y21.7567 Z-5.1447
 Y21.7800 Z-5.1562
 Y22.1533 Z-5.4158
 Y22.5267 Z-5.7006
 Y22.7133 Z-5.8769
 Y22.9000 Z-6.0728
 Y22.9933 Z-6.1719
 Y23.0400 Z-6.2224
 Y23.0867 Z-6.2736
 Y23.1333 Z-6.3256
 Y23.1567 Z-6.3518
 Y23.1683 Z-6.3650
 Y23.1742 Z-6.3716
 Y23.1800 Z-6.3782
 Y23.2733 Z-6.5272
 Y23.4600 Z-6.8402
 Y23.6000 Z-7.0752
 Y23.6467 Z-7.1916
 Y23.8333 Z-7.6830
 Y24.0200 Z-8.5335
 Y24.0433 Z-9.0000
 Y24.0550
 Y24.0579 Z-11.0000
 Y28.5000
G0 Z2.0000
 X2.6064 Y-27.5000
G1 Z-11.0000
 Y-22.2733
 Y-22.1800 Z-8.0726
 Y-22.1567 Z-7.8949
 Y-22.1333 Z-7.7731
 Y-21.9467 Z-7.0716
 Y-21.9000 Z-6.9539
 Y-21.6667 Z-6.3819
 Y-21.6200 Z-6.2822
 Y-21.5267 Z-6.1165
 Y-21.3400 Z-5.7960
 Y-21.1533 Z-5.5171
 Y-20.7800 Z-5.0458
 Y-20.4067 Z-4.6540
 Y-20.2200 Z-4.4683
 Y-20.1267 Z-4.3765
 Y-20.0333 Z-4.2974
 Y-19.6600 Z-4.0280
 Y-19.3800 Z-3.8269
 Y-19.2867 Z-3.7640
 Y-18.9133 Z-3.5582
 Y-18.5400 Z-3.3694
 Y-18.1667 Z-3.2064
 Y-17.7933 Z-3.0785
 Y-17.4200 Z-2.9555
 Y-17.0467 Z-2.8567
 Y-16.6733 Z-2.7866
 Y-16.3000 Z-2.7270
 Y-15.9267 Z-2.6847
 Y-15.5533 Z-2.6552
 Y-15.1800 Z-2.6386
 Y-14.8067 Z-2.6387
 Y-14.4333 Z-2.6559
 Y-14.0600 Z-2.6862
 Y-13.6867 Z-2.7289
 Y-13.3133 Z-2.7887
 Y-12.9400 Z-2.8596
 Y-12.5667 Z-2.9594
 Y-12.1933 Z-3.0830
 Y-11.8200 Z-3.2113
 Y-11.4467 Z-3.3761
 Y-11.0733 Z-3.5649
 Y-10.8867 Z-3.6649
 Y-10.7933 Z-3.7182
 Y-10.7000 Z-3.7717
 Y-10.5133 Z-3.9035
 Y-10.4200 Z-3.9705
 Y-10.3733 Z-4.0041
 Y-10.1867 Z-4.1382
 Y-10.1400 Z-4.1394
 Y17.6733
 Y18.0467 Z-4.1347
 Y18.4200 Z-4.1289
 Y18.7933 Z-4.1314
 Y19.1667 Z-4.1467
 Y19.5400 Z-4.1845
 Y19.9133 Z-4.2352
 Y20.2867 Z-4.2987
 Y20.4733 Z-4.3340
 Y20.5667 Z-4.3534
 Y20.6600 Z-4.3732
 Y21.0333 Z-4.4936
 Y21.4067 Z-4.6338
 Y21.5933 Z-4.7064
 Y21.7800 Z-4.7968
 Y22.1533 Z-5.0097
 Y22.3400 Z-5.1242
 Y22.5267 Z-5.2561
 Y23.0867 Z-5.7350
 Y23.2733 Z-5.9481
 Y23.4600 Z-6.1689
 Y23.5533 Z-6.2814
 Y23.6000 Z-6.3383
 Y23.6467 Z-6.3991
 Y23.8333 Z-6.7318
 Y23.9267 Z-6.9013
 Y24.0200 Z-7.0710
 Y24.1133 Z-7.3284
 Y24.2067 Z-7.5946
 Y24.3933 Z-8.4364
 Y24.4400 Z-9.0000
 Y24.4429 Z-11.0000
 Y28.5000
G0 Z2.0000
 X1.8617 Y-27.5000
G1 Z-11.0000
 Y-21.8067
 Y-21.7600 Z-9.0000
 Y-21.7367 Z-8.5621
 Y-21.7133 Z-8.3978
 Y-21.6667 Z-8.0692
 Y-21.6433 Z-7.9049
 Y-21.6200 Z-7.7846
 Y-21.5267 Z-7.4602
 Y-21.4333 Z-7.1358
 Y-21.3867 Z-7.0044
 Y-21.1533 Z-6.4755
 Y-20.9667 Z-6.1285
 Y-20.7800 Z-5.8418
 Y-20.4067 Z-5.3618
 Y-20.0800 Z-4.9884
 Y-20.0333 Z-4.9380
 Y-19.6600 Z-4.6085
 Y-19.4733 Z-4.4593
 Y-19.2867 Z-4.3158
 Y-18.9133 Z-4.0791
 Y-18.5400 Z-3.8603
 Y-18.1667 Z-3.6829
 Y-17.7933 Z-3.5303
 Y-17.4200 Z-3.3987
 Y-17.2333 Z-3.3331
 Y-17.0467 Z-3.2805
 Y-16.6733 Z-3.2015
 Y-16.3000 Z-3.1370
 Y-15.9267 Z-3.0842
 Y-15.5533 Z-3.0543
 Y-15.1800 Z-3.0357
 Y-14.8067
 Y-14.4333 Z-3.0553
 Y-14.0600 Z-3.0859
 Y-13.6867 Z-3.1389
 Y-13.3133 Z-3.2043
 Y-12.9400 Z-3.2833
 Y-12.5667 Z-3.4034
 Y-12.1933 Z-3.5350
 Y-11.8200 Z-3.6887
 Y-11.4467 Z-3.8675
 Y-11.3533 Z-3.9181
 Y-11.3067 Z-3.9443
 Y-11.2833 Z-3.9577
 Y-11.2717 Z-3.9645
 Y-11.2658 Z-3.9679
 Y-11.2629 Z-3.9697
 Y-11.2600 Z-3.9714
 Y-11.2133 Z-3.9994
 Y-11.2017 Z-4.0066
 Y-11.1958 Z-4.0102
 Y-11.1929 Z-4.0120
 Y-11.1915 Z-4.0129
 Y-11.1907 Z-4.0134
 Y-11.1904 Z-4.0136
 Y-11.1902 Z-4.0137
 Y-11.1901
 Y-11.1900 Z-4.0138
 Y-11.1667 Z-4.0154
 Y-11.0733 Z-4.0184
 Y-10.7000 Z-4.0285
 Y17.6733
 Y18.0467 Z-4.0194
 Y18.4200 Z-4.0154
 Y18.7933
 Y19.1667 Z-4.0289
 Y19.5400 Z-4.0536
 Y19.9133 Z-4.0860
 Y20.1000 Z-4.1050
 Y20.2867 Z-4.1244
 Y20.6600 Z-4.1994
 Y21.0333 Z-4.2930
 Y21.2200 Z-4.3430
 Y21.3133 Z-4.3689
 Y21.4067 Z-4.4029
 Y21.7800 Z-4.5656
 Y21.9667 Z-4.6471
 Y22.0600 Z-4.6886
 Y22.1067 Z-4.7095
 Y22.1300 Z-4.7201
 Y22.1533 Z-4.7306
 Y22.5267 Z-4.9760
 Y22.8067 Z-5.1645
 Y22.9000 Z-5.2384
 Y23.4367 Z-5.7358
 Y23.4600 Z-5.7591
 Y23.8333 Z-6.2353
 Y23.8800 Z-6.2949
 Y23.9033 Z-6.3248
 Y23.9150 Z-6.3397
 Y23.9267 Z-6.3547
 Y24.0200 Z-6.5119
 Y24.2067 Z-6.8575
 Y24.2533 Z-6.9446
 Y24.2767 Z-6.9883
 Y24.2883 Z-7.0101
 Y24.3000 Z-7.0320
 Y24.3467 Z-7.1384
 Y24.3933 Z-7.2763
 Y24.4867 Z-7.5533
 Y24.5333 Z-7.6925
 Y24.5567 Z-7.7622
 Y24.5800 Z-7.8321
 Y24.6267 Z-8.1187
 Y24.6967 Z-8.5498
 Y24.7083 Z-9.0000
 Y24.7171
 Y24.7185 Z-11.0000
 Y28.5000
G0 Z2.0000
 X1.1170 Y-27.5000
G1 Z-11.0000
 Y-21.1533
 Y-21.0600 Z-8.3258
 Y-21.0133 Z-8.0283
 Y-20.9900 Z-7.8796
 Y-20.9667 Z-7.7798
 Y-20.8267 Z-7.3392
 Y-20.8033 Z-7.2657
 Y-20.7800 Z-7.1923
 Y-20.5933 Z-6.7638
 Y-20.5000 Z-6.5724
 Y-20.4533 Z-6.4785
 Y-20.4300 Z-6.4324
 Y-20.4067 Z-6.3868
 Y-20.0333 Z-5.8716
 Y-19.6600 Z-5.4347
 Y-19.4733 Z-5.2463
 Y-19.3800 Z-5.1521
 Y-19.3333 Z-5.1058
 Y-19.2867 Z-5.0610
 Y-18.9133 Z-4.7799
 Y-18.4467 Z-4.4631
 Y-18.4000 Z-4.4315
 Y-18.3533 Z-4.4011
 Y-18.1667 Z-4.3011
 Y-17.7933 Z-4.1361
 Y-17.4200 Z-3.9783
 Y-17.0467 Z-3.8524
 Y-16.8600 Z-3.7896
 Y-16.6733 Z-3.7427
 Y-16.3000 Z-3.6748
 Y-15.9267 Z-3.6155
 Y-15.5533 Z-3.5815
 Y-15.1800 Z-3.5618
 Y-14.8067
 Y-14.4333 Z-3.5827
 Y-14.0600 Z-3.6168
 Y-13.6867 Z-3.6773
 Y-13.4067 Z-3.7279
 Y-13.3133 Z-3.7454
 Y-12.9400 Z-3.8569
 Y-12.7533 Z-3.9198
 Y-12.6133 Z-3.9669
 Y-12.5900 Z-3.9748
 Y-12.5783 Z-3.9789
 Y-12.5725 Z-3.9810
 Y-12.5667 Z-3.9831
 Y-12.1933 Z-4.0000
 Y19.1667
 Y19.5400 Z-4.0028
 Y19.9133 Z-4.0154
 Y20.2867 Z-4.0497
 Y20.6600 Z-4.1009
 Y20.7533 Z-4.1141
 Y20.8467 Z-4.1274
 Y21.0333 Z-4.1721
 Y21.4067 Z-4.2846
 Y21.5933 Z-4.3408
 Y21.6400 Z-4.3549
 Y21.6867 Z-4.3690
 Y21.7800 Z-4.4071
 Y22.1533 Z-4.5884
 Y22.3400 Z-4.6807
 Y22.5267 Z-4.7891
 Y22.9000 Z-5.0536
 Y23.2733 Z-5.3635
 Y23.4600 Z-5.5456
 Y23.6467 Z-5.7276
 Y23.8333 Z-5.9688
 Y24.0200 Z-6.2194
 Y24.1133 Z-6.3447
 Y24.1367 Z-6.3760
 Y24.1600 Z-6.4157
 Y24.4633 Z-6.9964
 Y24.4867 Z-7.0411
 Y24.5333 Z-7.1553
 Y24.7200 Z-7.7156
 Y24.7667 Z-7.8798
 Y24.8133 Z-8.1672
 Y24.8600 Z-8.4548
 Y24.8833 Z-8.5987
 Y24.8950 Z-9.0000
 Y24.8979 Z-11.0000
 Y28.5000
G0 Z2.0000
 X0.3723 Y-27.5000
G1 Z-11.0000
 Y-20.3133
 Y-20.2900 Z-9.0000
 Y-20.2842 Z-8.5906
 Y-20.2200 Z-8.2295
 Y-20.1733 Z-7.9669
 Y-20.1500 Z-7.8356
 Y-20.1267 Z-7.7667
 Y-19.9400 Z-7.2481
 Y-19.8933 Z-7.1192
 Y-19.8817 Z-7.0875
 Y-19.8758 Z-7.0718
 Y-19.8744 Z-7.0679
 Y-19.8736 Z-7.0659
 Y-19.8733 Z-7.0649
 Y-19.8729 Z-7.0640
 Y-19.8700 Z-7.0582
 Y-19.8467 Z-7.0178
 Y-19.6600 Z-6.7172
 Y-19.4733 Z-6.4283
 Y-19.2867 Z-6.1891
 Y-18.9133 Z-5.7693
 Y-18.8200 Z-5.6646
 Y-18.7967 Z-5.6392
 Y-18.7850 Z-5.6267
 Y-18.7792 Z-5.6205
 Y-18.7763 Z-5.6174
 Y-18.7733 Z-5.6143
 Y-18.7267 Z-5.5774
 Y-18.5400 Z-5.4434
 Y-18.1667 Z-5.1808
 Y-17.9800 Z-5.0495
 Y-17.8867 Z-4.9839
 Y-17.8633 Z-4.9679
 Y-17.8517 Z-4.9601
 Y-17.8400 Z-4.9524
 Y-17.7933 Z-4.9284
 Y-17.4200 Z-4.7682
 Y-17.0467 Z-4.6107
 Y-16.6733 Z-4.4906
 Y-16.3000 Z-4.3844
 Y-15.9267 Z-4.3146
 Y-15.5533 Z-4.2720
 Y-15.1800 Z-4.2521
 Y-14.8067
 Y-14.7133
 Y-14.6667 Z-4.2527
 Y-14.6433 Z-4.2535
 Y-14.6317 Z-4.2540
 Y-14.6200 Z-4.2546
 Y-14.5733 Z-4.2580
 Y-14.5500 Z-4.2603
 Y-14.5383 Z-4.2616
 Y-14.5325 Z-4.2622
 Y-14.5296 Z-4.2626
 Y-14.5267 Z-4.2629
 Y-14.4333 Z-4.2327
 Y-14.2467 Z-4.1723
 Y-14.0600 Z-4.1254
 Y-13.6867 Z-4.0670
 Y-13.5000 Z-4.0379
 Y-13.3133 Z-4.0154
 Y-12.9400 Z-4.0000
 Y19.9133
 Y20.2867 Z-4.0154
 Y20.6600 Z-4.0629
 Y20.8467 Z-4.0920
 Y20.9400 Z-4.1066
 Y20.9867 Z-4.1139
 Y21.0333 Z-4.1213
 Y21.4067 Z-4.2241
 Y21.5933 Z-4.2846
 Y21.6867 Z-4.3149
 Y21.7800 Z-4.3453
 Y22.1533 Z-4.5154
 Y22.5267 Z-4.7056
 Y22.9000 Z-4.9636
 Y23.1800 Z-5.1670
 Y23.2733 Z-5.2487
 Y23.4600 Z-5.4354
 Y23.5533 Z-5.5287
 Y23.7633 Z-5.7387
 Y23.7867 Z-5.7656
 Y24.0200 Z-6.0867
 Y24.1133 Z-6.2152
 Y24.2067 Z-6.3437
 Y24.3000 Z-6.5081
 Y24.3933 Z-6.6913
 Y24.4867 Z-6.8745
 Y24.5800 Z-7.0577
 Y24.6733 Z-7.3286
 Y24.7200 Z-7.4722
 Y24.7667 Z-7.6158
 Y24.8133 Z-7.7594
 Y24.8600 Z-7.9769
 Y24.9067 Z-8.2715
 Y24.9533 Z-8.5661
 Y24.9767 Z-9.0000
 Y24.9796
 Y24.9810 Z-11.0000
 Y28.5000
G0 Z2.0000
 X-0.3723 Y-27.5000
G1 Z-11.0000
 Y-20.3133
 Y-20.2900 Z-8.5514
 Y-20.1733 Z-7.9418
 Y-20.1617 Z-7.8808
 Y-20.1529 Z-7.8351
 Y-20.1500 Z-7.8237
 Y-19.8700 Z-7.1014
 Y-19.8467 Z-7.0485
 Y-19.4267 Z-6.3418
 Y-19.4033 Z-6.3077
 Y-19.3800 Z-6.2792
 Y-19.2867 Z-6.1678
 Y-18.9133 Z-5.7778
 Y-18.5400 Z-5.4468
 Y-18.1667 Z-5.1692
 Y-17.9800 Z-5.0534
 Y-17.7933 Z-4.9400
 Y-17.6067 Z-4.8488
 Y-17.4200 Z-4.7580
 Y-17.0467 Z-4.6179
 Y-16.6733 Z-4.4858
 Y-16.3000 Z-4.3874
 Y-15.9267 Z-4.3132
 Y-15.5533 Z-4.2729
 Y-15.1800 Z-4.2516
 Y-14.8067 Z-4.2523
 Y-14.5413 Z-4.2675
 Y-14.5383 Z-4.2667
 Y-14.5267 Z-4.2630
 Y-14.4333 Z-4.2327
 Y-14.2467 Z-4.1723
 Y-14.0600 Z-4.1254
 Y-13.6867 Z-4.0670
 Y-13.5000 Z-4.0379
 Y-13.3133 Z-4.0154
 Y-12.9400 Z-4.0000
 Y19.9133
 Y20.2867 Z-4.0154
 Y20.6600 Z-4.0629
 Y20.8467 Z-4.0920
 Y20.9400 Z-4.1066
 Y20.9867 Z-4.1139
 Y21.0333 Z-4.1213
 Y21.4067 Z-4.2241
 Y21.5933 Z-4.2846
 Y21.6867 Z-4.3149
 Y21.7333 Z-4.3301
 Y21.7800 Z-4.3453
 Y22.1533 Z-4.5154
 Y22.3400 Z-4.6105
 Y22.5267 Z-4.7056
 Y22.9000 Z-4.9636
 Y23.0867 Z-5.0992
 Y23.1800 Z-5.1670
 Y23.2733 Z-5.2487
 Y23.4600 Z-5.4354
 Y23.5533 Z-5.5288
 Y23.7633 Z-5.7388
 Y23.7867 Z-5.7656
 Y23.8333 Z-5.8298
 Y24.0200 Z-6.0867
 Y24.2067 Z-6.3437
 Y24.3000 Z-6.5082
 Y24.3933 Z-6.6913
 Y24.5800 Z-7.0577
 Y24.6733 Z-7.3285
 Y24.7200 Z-7.4722
 Y24.8133 Z-7.7594
 Y24.8600 Z-7.9770
 Y24.9533 Z-8.5662
 Y24.9767 Z-9.0000
 Y24.9781 Z-11.0000
 Y28.5000
G0 Z2.0000
 X-1.1170 Y-27.5000
G1 Z-11.0000
 Y-21.1533
 Y-21.0600 Z-8.2251
 Y-21.0133 Z-7.9303
 Y-20.9667 Z-7.7358
 Y-20.8733 Z-7.4579
 Y-20.7800 Z-7.1810
 Y-20.5933 Z-6.7784
 Y-20.5000 Z-6.5977
 Y-20.4067 Z-6.4170
 Y-20.2200 Z-6.1283
 Y-20.0333 Z-5.8658
 Y-19.9400 Z-5.7345
 Y-19.8933 Z-5.6692
 Y-19.8700 Z-5.6372
 Y-19.8467 Z-5.6075
 Y-19.6600 Z-5.4258
 Y-19.2867 Z-5.0760
 Y-19.1000 Z-4.9113
 Y-18.9133 Z-4.7735
 Y-18.5400 Z-4.5269
 Y-18.3533 Z-4.4116
 Y-18.1667 Z-4.3043
 Y-17.7933 Z-4.1306
 Y-17.4200 Z-3.9850
 Y-17.2333 Z-3.9122
 Y-17.0467 Z-3.8455
 Y-16.6733 Z-3.7480
 Y-16.3000 Z-3.6701
 Y-15.9267 Z-3.6192
 Y-15.5533 Z-3.5793
 Y-15.1800 Z-3.5623
 Y-14.8067 Z-3.5629
 Y-14.4333 Z-3.5799
 Y-14.0600 Z-3.6210
 Y-13.6867 Z-3.6721
 Y-13.3133 Z-3.7510
 Y-13.1267 Z-3.7962
 Y-12.9400 Z-3.8496
 Y-12.7533 Z-3.9174
 Y-12.5900 Z-3.9811
 Y-12.5783 Z-3.9856
 Y-12.5725 Z-3.9879
 Y-12.5667 Z-3.9902
 Y-12.1933 Z-4.0000
 Y19.1667
 Y19.5400 Z-4.0028
 Y19.9133 Z-4.0154
 Y20.2867 Z-4.0497
 Y20.6600 Z-4.1009
 Y20.7533 Z-4.1141
 Y20.8467 Z-4.1274
 Y21.0333 Z-4.1722
 Y21.4067 Z-4.2846
 Y21.5933 Z-4.3408
 Y21.6400 Z-4.3549
 Y21.6867 Z-4.3690
 Y21.7800 Z-4.4071
 Y22.1533 Z-4.5884
 Y22.3400 Z-4.6807
 Y22.5267 Z-4.7891
 Y22.9000 Z-5.0536
 Y23.2733 Z-5.3635
 Y23.6467 Z-5.7276
 Y23.8333 Z-5.9688
 Y24.1367 Z-6.3760
 Y24.1600 Z-6.4157
 Y24.2067 Z-6.5051
 Y24.4867 Z-7.0411
 Y24.5333 Z-7.1552
 Y24.7200 Z-7.7156
 Y24.7667 Z-7.8798
 Y24.8133 Z-8.1672
 Y24.8600 Z-8.4548
 Y24.8833 Z-8.5987
 Y24.8892 Z-9.0000
 Y24.8906
 Y24.8914 Z-11.0000
 Y28.5000
G0 Z2.0000
 X-1.8617 Y-27.5000
G1 Z-11.0000
 Y-21.8067
 Y-21.7600 Z-9.0000
 Y-21.7367 Z-8.4668
 Y-21.7133 Z-8.2996
 Y-21.6667 Z-7.9689
 Y-21.6200 Z-7.7364
 Y-21.5267 Z-7.4217
 Y-21.4333 Z-7.1121
 Y-21.3867 Z-6.9938
 Y-21.2467 Z-6.6909
 Y-21.1533 Z-6.4891
 Y-20.9667 Z-6.1498
 Y-20.6867 Z-5.7096
 Y-20.5933 Z-5.5748
 Y-20.4067 Z-5.3499
 Y-20.2200 Z-5.1344
 Y-20.1267 Z-5.0330
 Y-20.0333 Z-4.9360
 Y-19.6600 Z-4.6189
 Y-19.3333 Z-4.3415
 Y-19.2867 Z-4.3088
 Y-18.9133 Z-4.0813
 Y-18.5400 Z-3.8615
 Y-18.1667 Z-3.6803
 Y-17.7933 Z-3.5336
 Y-17.4200 Z-3.3957
 Y-17.0467 Z-3.2820
 Y-16.6733 Z-3.2014
 Y-16.3000 Z-3.1352
 Y-15.9267 Z-3.0878
 Y-15.5533 Z-3.0508
 Y-15.1800 Z-3.0369
 Y-14.8067 Z-3.0374
 Y-14.4333 Z-3.0516
 Y-14.0600 Z-3.0892
 Y-13.6867 Z-3.1376
 Y-13.3133 Z-3.2038
 Y-12.9400 Z-3.2853
 Y-12.5667 Z-3.3998
 Y-12.1933 Z-3.5388
 Y-11.8200 Z-3.6855
 Y-11.4467 Z-3.8694
 Y-11.1988 Z-4.0154
 Y-11.1973
 Y-11.1667
 Y-11.0733 Z-4.0184
 Y-10.7000 Z-4.0285
 Y17.6733
 Y18.0467 Z-4.0194
 Y18.4200 Z-4.0154
 Y18.7933
 Y19.1667 Z-4.0289
 Y19.5400 Z-4.0536
 Y19.9133 Z-4.0860
 Y20.1000 Z-4.1050
 Y20.2867 Z-4.1244
 Y20.6600 Z-4.1994
 Y21.0333 Z-4.2930
 Y21.2200 Z-4.3430
 Y21.3133 Z-4.3689
 Y21.4067 Z-4.4029
 Y21.7800 Z-4.5656
 Y21.9667 Z-4.6471
 Y22.0600 Z-4.6886
 Y22.1067 Z-4.7095
 Y22.1300 Z-4.7201
 Y22.1533 Z-4.7306
 Y22.5267 Z-4.9760
 Y22.7133 Z-5.1017
 Y22.8067 Z-5.1645
 Y22.9000 Z-5.2384
 Y23.2733 Z-5.5844
 Y23.4367 Z-5.7358
 Y23.4600 Z-5.7591
 Y23.8333 Z-6.2353
 Y23.8800 Z-6.2949
 Y23.9033 Z-6.3248
 Y23.9150 Z-6.3397
 Y23.9267 Z-6.3547
 Y24.0200 Z-6.5119
 Y24.2067 Z-6.8575
 Y24.2533 Z-6.9446
 Y24.2767 Z-6.9883
 Y24.2883 Z-7.0101
 Y24.3000 Z-7.0320
 Y24.3467 Z-7.1384
 Y24.3933 Z-7.2763
 Y24.4867 Z-7.5533
 Y24.5333 Z-7.6925
 Y24.5567 Z-7.7622
 Y24.5800 Z-7.8321
 Y24.6267 Z-8.1186
 Y24.6967 Z-8.5497
 Y24.7083 Z-9.0000
 Y24.7156
 Y24.7164 Z-11.0000
 Y28.5000
G0 Z2.0000
 X-2.6064 Y-27.5000
G1 Z-11.0000
 Y-22.2733
 Y-22.1800 Z-7.9817
 Y-22.1333 Z-7.7332
 Y-22.0867 Z-7.5639
 Y-21.9933 Z-7.2258
 Y-21.9700 Z-7.1412
 Y-21.9583 Z-7.0989
 Y-21.9525 Z-7.0778
 Y-21.9467 Z-7.0586
 Y-21.7133 Z-6.5073
 Y-21.5267 Z-6.1359
 Y-21.3400 Z-5.8154
 Y-21.1533 Z-5.5228
 Y-20.9667 Z-5.2772
 Y-20.8733 Z-5.1543
 Y-20.8267 Z-5.0930
 Y-20.7800 Z-5.0322
 Y-20.4067 Z-4.6525
 Y-20.2200 Z-4.4753
 Y-20.0333 Z-4.3057
 Y-19.6600 Z-4.0231
 Y-19.4733 Z-3.8865
 Y-19.2867 Z-3.7635
 Y-18.7267 Z-3.4610
 Y-18.5400 Z-3.3645
 Y-18.1667 Z-3.2104
 Y-17.7933 Z-3.0748
 Y-17.4200 Z-2.9585
 Y-17.0467 Z-2.8557
 Y-16.6733 Z-2.7856
 Y-16.3000 Z-2.7294
 Y-16.1133 Z-2.7040
 Y-15.9267 Z-2.6838
 Y-15.5533 Z-2.6754
 Y-14.2467
 Y-14.0600 Z-2.6849
 Y-13.6867 Z-2.7312
 Y-13.3133 Z-2.7881
 Y-12.9400 Z-2.8582
 Y-12.5667 Z-2.9627
 Y-12.1933 Z-3.0793
 Y-11.8200 Z-3.2153
 Y-11.6333 Z-3.2843
 Y-11.4467 Z-3.3710
 Y-11.0733 Z-3.5690
 Y-10.7000 Z-3.7707
 Y-10.5133 Z-3.8959
 Y-10.4200 Z-3.9632
 Y-10.3733 Z-3.9979
 Y-10.3500 Z-4.0155
 Y-10.1867 Z-4.1392
 Y-10.1400 Z-4.1394
 Y17.6733
 Y18.0467 Z-4.1347
 Y18.4200 Z-4.1289
 Y18.7933 Z-4.1314
 Y19.1667 Z-4.1467
 Y19.5400 Z-4.1845
 Y19.9133 Z-4.2352
 Y20.2867 Z-4.2987
 Y20.4733 Z-4.3340
 Y20.5667 Z-4.3534
 Y20.6600 Z-4.3732
 Y21.0333 Z-4.4936
 Y21.4067 Z-4.6338
 Y21.5933 Z-4.7064
 Y21.7800 Z-4.7968
 Y22.1533 Z-5.0097
 Y22.3400 Z-5.1242
 Y22.5267 Z-5.2560
 Y22.9000 Z-5.5754
 Y23.0867 Z-5.7350
 Y23.2733 Z-5.9481
 Y23.4600 Z-6.1689
 Y23.5533 Z-6.2814
 Y23.6000 Z-6.3383
 Y23.6467 Z-6.3991
 Y23.8333 Z-6.7318
 Y23.9267 Z-6.9013
 Y23.9733 Z-6.9862
 Y23.9967 Z-7.0286
 Y24.0200 Z-7.0710
 Y24.1133 Z-7.3284
 Y24.2067 Z-7.5946
 Y24.3933 Z-8.4363
 Y24.4400 Z-9.0000
 Y24.4458
 Y24.4473 Z-11.0000
 Y28.5000
G0 Z2.0000
 X-3.3511 Y-27.5000
G1 Z-11.0000
 Y-23.0200
 Y-22.6467 Z-8.5027
 Y-22.5767 Z-7.9523
 Y-22.5650 Z-7.8607
 Y-22.5533 Z-7.7985
 Y-22.3667 Z-7.0740
 Y-22.2733 Z-6.8336
 Y-22.1800 Z-6.5973
 Y-22.1333 Z-6.4792
 Y-22.0867 Z-6.3611
 Y-21.9000 Z-6.0068
 Y-21.8067 Z-5.8351
 Y-21.7133 Z-5.6634
 Y-21.5267 Z-5.3887
 Y-21.2467 Z-4.9939
 Y-21.1533 Z-4.8812
 Y-20.7800 Z-4.4861
 Y-20.4067 Z-4.1470
 Y-20.2200 Z-3.9926
 Y-20.0333 Z-3.8383
 Y-19.6600 Z-3.5849
 Y-19.2867 Z-3.3590
 Y-18.9133 Z-3.1671
 Y-18.5400 Z-3.0002
 Y-18.3533 Z-2.9208
 Y-18.1667 Z-2.8489
 Y-17.9800 Z-2.7892
 Y-17.8867 Z-2.7617
 Y-17.8400 Z-2.7484
 Y-17.7000 Z-2.7087
 Y-17.6533 Z-2.6955
 Y-17.6300 Z-2.6889
 Y-17.6067 Z-2.6823
 Y-17.4200 Z-2.6759
 Y-17.0467
 Y-16.6733 Z-2.6755
 Y-16.3000 Z-2.6754
 Y-13.6867
 Y-13.3133 Z-2.6757
 Y-12.9400 Z-2.6759
 Y-12.4733
 Y-12.4500
 Y-12.4383 Z-2.6763
 Y-12.4325 Z-2.6766
 Y-12.4296 Z-2.6767
 Y-12.4267 Z-2.6768
 Y-12.3800 Z-2.6861
 Y-12.1933 Z-2.7390
 Y-12.0067 Z-2.7933
 Y-11.8200 Z-2.8532
 Y-11.4467 Z-3.0059
 Y-11.0733 Z-3.1734
 Y-10.7000 Z-3.3671
 Y-10.3267 Z-3.5931
 Y-10.1400 Z-3.7123
 Y-9.9533 Z-3.8493
 Y-9.7667 Z-4.0036
 Y-9.3700 Z-4.3316
 Y-9.3583 Z-4.3427
 Y-9.3306 Z-4.3714
 Y-9.3292 Z-4.3715
 Y-9.3233
 Y-9.3000
 Y17.6733
 Y18.0467 Z-4.3706
 Y18.4200 Z-4.3610
 Y18.7933 Z-4.3663
 Y19.1667 Z-4.3840
 Y19.5400 Z-4.4294
 Y19.9133 Z-4.4978
 Y20.2867 Z-4.5769
 Y20.6600 Z-4.6762
 Y20.7533 Z-4.7011
 Y20.8000 Z-4.7136
 Y20.8233 Z-4.7199
 Y20.8467 Z-4.7264
 Y21.0333 Z-4.8020
 Y21.4067 Z-4.9784
 Y21.5933 Z-5.0667
 Y21.6867 Z-5.1109
 Y21.7333 Z-5.1333
 Y21.7567 Z-5.1447
 Y21.7800 Z-5.1562
 Y22.1533 Z-5.4158
 Y22.3400 Z-5.5582
 Y22.5267 Z-5.7005
 Y22.7133 Z-5.8769
 Y22.9000 Z-6.0728
 Y22.9933 Z-6.1719
 Y23.0400 Z-6.2224
 Y23.0867 Z-6.2736
 Y23.1333 Z-6.3256
 Y23.1567 Z-6.3518
 Y23.1683 Z-6.3650
 Y23.1742 Z-6.3716
 Y23.1800 Z-6.3782
 Y23.2733 Z-6.5272
 Y23.4600 Z-6.8402
 Y23.5067 Z-6.9186
 Y23.5533 Z-6.9969
 Y23.6000 Z-7.0752
 Y23.6467 Z-7.1916
 Y23.7400 Z-7.4373
 Y23.7867 Z-7.5602
 Y23.8333 Z-7.6830
 Y24.0200 Z-8.5336
 Y24.0433 Z-9.0000
 Y24.0579
 Y24.0594 Z-11.0000
 Y28.5000
G0 Z2.0000
 X-4.0957 Y-27.5000
G1 Z-11.0000
 Y-23.0200
 Y-22.9267 Z-8.2758
 Y-22.8800 Z-7.8891
 Y-22.8333 Z-7.6670
 Y-22.7400 Z-7.2853
 Y-22.6933 Z-7.0944
 Y-22.6467 Z-6.9588
 Y-22.4600 Z-6.4609
 Y-22.2733 Z-6.0609
 Y-22.0867 Z-5.6991
 Y-21.9000 Z-5.4019
 Y-21.7133 Z-5.1247
 Y-21.5267 Z-4.8691
 Y-21.3400 Z-4.6542
 Y-21.1533 Z-4.4443
 Y-20.7800 Z-4.0915
 Y-20.5933 Z-3.9262
 Y-20.5000 Z-3.8435
 Y-20.4067 Z-3.7648
 Y-20.0333 Z-3.5011
 Y-19.8467 Z-3.3705
 Y-19.6600 Z-3.2545
 Y-19.2867 Z-3.0605
 Y-19.0067 Z-2.9151
 Y-18.9133 Z-2.8682
 Y-18.7267 Z-2.7958
 Y-18.6333 Z-2.7612
 Y-18.5867 Z-2.7442
 Y-18.4087 Z-2.6793
 Y-18.4073 Z-2.6788
 Y-18.4058 Z-2.6783
 Y-18.4029 Z-2.6776
 Y-18.4000 Z-2.6770
 Y-18.3533 Z-2.6752
 Y-16.6733
 Y-16.3000 Z-2.6754
 Y-13.6867
 Y-13.3133 Z-2.6752
 Y-11.6333
 Y-11.4467 Z-2.7320
 Y-11.2600 Z-2.8008
 Y-11.1667 Z-2.8367
 Y-11.0733 Z-2.8735
 Y-10.4200 Z-3.2130
 Y-10.3267 Z-3.2615
 Y-9.9533 Z-3.5105
 Y-9.5800 Z-3.7742
 Y-9.2067 Z-4.1034
 Y-9.0200 Z-4.2687
 Y-8.9267 Z-4.3554
 Y-8.8567 Z-4.4332
 Y-8.8450 Z-4.4461
 Y-8.8333 Z-4.4591
 Y-8.7400 Z-4.5636
 Y-8.6933 Z-4.6163
 Y-8.6700 Z-4.6428
 Y-8.6583 Z-4.6561
 Y-8.6525 Z-4.6627
 Y-8.6496 Z-4.6660
 Y-8.6481 Z-4.6677
 Y-8.6474 Z-4.6685
 Y-8.6467 Z-4.6694
 Y-8.6233 Z-4.6960
 Y-8.6117 Z-4.7093
 Y-8.6058 Z-4.7160
 Y-8.6000 Z-4.7227
 Y-8.5942 Z-4.7294
 Y-8.5913 Z-4.7327
 Y-8.5898 Z-4.7344
 Y-8.5891 Z-4.7352
 Y-8.5887 Z-4.7357
 Y-8.5883 Z-4.7361
 Y-8.5854 Z-4.7394
 Y-8.5840 Z-4.7411
 Y-8.5832 Z-4.7419
 Y-8.5829 Z-4.7424
 Y-8.5825 Z-4.7428
 Y-8.5818 Z-4.7436
 Y-8.5810 Z-4.7445
 Y-8.5803 Z-4.7446
 Y18.0467
 Y18.4200 Z-4.7294
 Y18.7933 Z-4.7380
 Y18.9800 Z-4.7487
 Y19.1667 Z-4.7638
 Y19.5400 Z-4.8249
 Y19.9133 Z-4.8978
 Y20.2867 Z-5.0015
 Y20.4733 Z-5.0537
 Y20.5667 Z-5.0821
 Y20.6600 Z-5.1138
 Y21.0333 Z-5.2768
 Y21.4067 Z-5.4738
 Y21.5933 Z-5.5855
 Y21.6867 Z-5.6461
 Y21.7333 Z-5.6765
 Y21.7800 Z-5.7069
 Y22.1533 Z-6.0245
 Y22.4333 Z-6.2755
 Y22.4800 Z-6.3180
 Y22.5033 Z-6.3396
 Y22.5267 Z-6.3614
 Y22.7133 Z-6.6123
 Y22.8067 Z-6.7512
 Y22.9000 Z-6.8909
 Y22.9933 Z-7.0306
 Y23.0167 Z-7.0655
 Y23.0400 Z-7.1084
 Y23.1800 Z-7.4370
 Y23.2267 Z-7.5466
 Y23.3200 Z-7.7657
 Y23.3667 Z-7.9200
 Y23.4133 Z-8.1447
 Y23.5067 Z-8.5942
 Y23.5300 Z-9.0000
 Y23.5315
 Y23.5322 Z-11.0000
 Y28.5000
G0 Z2.0000
 X-4.8404 Y-27.5000
G1 Z-11.0000
 Y-23.3933
 Y-23.2067 Z-9.0000
 Y-23.1600 Z-8.2817
 Y-23.1367 Z-8.0812
 Y-23.1133 Z-7.8806
 Y-23.0200 Z-7.4575
 Y-22.8333 Z-6.8033
 Y-22.7400 Z-6.5449
 Y-22.6933 Z-6.4157
 Y-22.6467 Z-6.2960
 Y-22.4600 Z-5.9205
 Y-22.3667 Z-5.7327
 Y-22.2733 Z-5.5611
 Y-22.0867 Z-5.2733
 Y-21.9467 Z-5.0575
 Y-21.9000 Z-4.9855
 Y-21.5267 Z-4.5306
 Y-21.1533 Z-4.1419
 Y-20.9667 Z-3.9676
 Y-20.8733 Z-3.8805
 Y-20.7800 Z-3.7934
 Y-20.4067 Z-3.5129
 Y-20.2200 Z-3.3740
 Y-20.0333 Z-3.2469
 Y-19.6600 Z-3.0307
 Y-19.4733 Z-2.9261
 Y-19.2867 Z-2.8342
 Y-19.1000 Z-2.7545
 Y-19.0067 Z-2.7147
 Y-18.9425 Z-2.6873
 Y-18.9396 Z-2.6861
 Y-18.9367 Z-2.6851
 Y-18.9250 Z-2.6820
 Y-18.9133 Z-2.6797
 Y-18.5400 Z-2.6752
 Y-15.9267
 Y-15.5533 Z-2.6754
 Y-14.4333
 Y-14.0600 Z-2.6752
 Y-11.2600
 Y-11.1667 Z-2.6761
 Y-11.1113
 Y-11.1083 Z-2.6764
 Y-11.1025 Z-2.6772
 Y-11.0967 Z-2.6781
 Y-11.0850 Z-2.6800
 Y-11.0733 Z-2.6824
 Y-10.7000 Z-2.8399
 Y-10.3267 Z-3.0383
 Y-10.1400 Z-3.1455
 Y-9.9533 Z-3.2547
 Y-9.5800 Z-3.5228
 Y-9.3933 Z-3.6618
 Y-9.2067 Z-3.8059
 Y-8.8333 Z-4.1543
 Y-8.4600 Z-4.5464
 Y-8.2733 Z-4.7688
 Y-8.1800 Z-4.8811
 Y-8.1567 Z-4.9092
 Y-8.1333 Z-4.9375
 Y-8.1100 Z-4.9701
 Y-8.0983 Z-4.9881
 Y-8.0925 Z-4.9971
 Y-8.0896 Z-5.0016
 Y-8.0867 Z-5.0060
 Y-7.9933 Z-5.1499
 Y-7.9000 Z-5.2938
 Y-7.7133 Z-5.2978
 Y18.0467
 Y18.4200 Z-5.2933
 Y18.7933 Z-5.3096
 Y19.0733 Z-5.3316
 Y19.1667 Z-5.3391
 Y19.5400 Z-5.4109
 Y19.9133 Z-5.4983
 Y20.2867 Z-5.6177
 Y20.4733 Z-5.6894
 Y20.6133 Z-5.7431
 Y20.6600 Z-5.7642
 Y20.8467 Z-5.8628
 Y21.0333 Z-5.9759
 Y21.2200 Z-6.1090
 Y21.4067 Z-6.2437
 Y21.5933 Z-6.3783
 Y21.7800 Z-6.5664
 Y21.9667 Z-6.7624
 Y22.0600 Z-6.8698
 Y22.1067 Z-6.9263
 Y22.1300 Z-6.9552
 Y22.1533 Z-6.9846
 Y22.3400 Z-7.3009
 Y22.4333 Z-7.4880
 Y22.4800 Z-7.5816
 Y22.5967 Z-7.8155
 Y22.6200 Z-7.8933
 Y22.6667 Z-8.0853
 Y22.7133 Z-8.2772
 Y22.8067 Z-9.0000
 Y22.8242
 Y22.8256 Z-11.0000
 Y28.5000
G0 Z2.0000
 X-5.5851 Y-27.5000
G1 Z-11.0000
 Y-23.3933
 Y-23.3000 Z-8.0678
 Y-23.2533 Z-7.7435
 Y-23.2067 Z-7.5409
 Y-23.1133 Z-7.1355
 Y-23.0200 Z-6.8455
 Y-22.8567 Z-6.3827
 Y-22.8333 Z-6.3178
 Y-22.5533 Z-5.7414
 Y-22.4600 Z-5.5643
 Y-22.2733 Z-5.2702
 Y-21.9000 Z-4.7421
 Y-21.7133 Z-4.5138
 Y-21.5267 Z-4.2965
 Y-21.1533 Z-3.9348
 Y-20.7800 Z-3.6152
 Y-20.5933 Z-3.4710
 Y-20.5000 Z-3.3989
 Y-20.4067 Z-3.3268
 Y-20.0333 Z-3.0919
 Y-19.7533 Z-2.9215
 Y-19.6600 Z-2.8667
 Y-19.4733 Z-2.7800
 Y-19.3800 Z-2.7371
 Y-19.3333 Z-2.7157
 Y-19.3100 Z-2.7050
 Y-19.2983 Z-2.6997
 Y-19.2925 Z-2.6971
 Y-19.2896 Z-2.6957
 Y-19.2867 Z-2.6944
 Y-18.9133 Z-2.6761
 Y-18.5400 Z-2.6752
 Y-15.9267
 Y-15.7400 Z-2.6759
 Y-15.6467 Z-2.6770
 Y-15.4370
 Y-15.4368
 Z-11.0000
 Y-14.9933
 Y-14.8067 Z-9.0000
 Y-14.7688
 Y-14.7673 Z-8.6077
 Y-14.7658 Z-8.6030
 Y-14.5646 Z-7.9370
 Y-14.5631 Z-2.6770
 Y-14.5617
 Y-14.4333
 Y-14.0600 Z-2.6752
 Y-11.4467
 Y-11.0733 Z-2.6761
 Y-10.8050
 Y-10.7992 Z-2.6763
 Y-10.7963 Z-2.6764
 Y-10.7933 Z-2.6765
 Y-10.7700 Z-2.6776
 Y-10.7583 Z-2.6783
 Y-10.7525 Z-2.6788
 Y-10.7496 Z-2.6791
 Y-10.7481 Z-2.6793
 Y-10.7474 Z-2.6794
 Y-10.7467 Z-2.6795
 Y-10.7000 Z-2.7005
 Y-10.5133 Z-2.7862
 Y-10.4200 Z-2.8295
 Y-10.3267 Z-2.8729
 Y-9.9533 Z-3.1001
 Y-9.7667 Z-3.2137
 Y-9.5800 Z-3.3371
 Y-9.2067 Z-3.6255
 Y-8.8333 Z-3.9477
 Y-8.5533 Z-4.2190
 Y-8.4600 Z-4.3094
 Y-8.0867 Z-4.7584
 Y-7.9933 Z-4.8730
 Y-7.9000 Z-4.9984
 Y-7.7133 Z-5.2912
 Y-7.6200 Z-5.4381
 Y-7.5733 Z-5.5117
 Y-7.5267 Z-5.5854
 Y-7.4333 Z-5.7688
 Y-7.2598 Z-6.1261
 Y-7.2591 Z-6.1264
 Y-3.9800
 Y-3.6067
 Y18.4200
 Y18.7933 Z-6.1678
 Y19.1667 Z-6.2082
 Y19.2600 Z-6.2183
 Y19.3067 Z-6.2242
 Y19.3533 Z-6.2319
 Y19.5400 Z-6.2819
 Y19.8200 Z-6.3722
 Y19.9133 Z-6.4085
 Y20.1000 Z-6.4943
 Y20.1933 Z-6.5372
 Y20.2400 Z-6.5601
 Y20.2867 Z-6.5855
 Y20.6600 Z-6.8531
 Y20.8467 Z-6.9937
 Y20.9400 Z-7.0640
 Y21.0333 Z-7.1615
 Y21.2200 Z-7.3821
 Y21.3133 Z-7.5005
 Y21.3600 Z-7.5650
 Y21.3833 Z-7.5986
 Y21.3950 Z-7.6157
 Y21.4067 Z-7.6330
 Y21.7800 Z-9.0000
 Y21.8088
 Y21.8090 Z-11.0000
 Y28.5000
G0 Z2.0000
 X-6.3298 Y-27.5000
G1 Z-11.0000
 Y-23.4867
 Y-23.4400 Z-8.4161
 Y-23.4050 Z-8.1054
 Y-23.3933 Z-8.0018
 Y-23.3000 Z-7.5051
 Y-23.2533 Z-7.3010
 Y-23.2300 Z-7.1989
 Y-23.2067 Z-7.0969
 Y-23.0200 Z-6.5525
 Y-22.8333 Z-6.1028
 Y-22.7400 Z-5.9097
 Y-22.6467 Z-5.7167
 Y-22.4600 Z-5.3970
 Y-22.2733 Z-5.1017
 Y-21.9000 Z-4.6046
 Y-21.5267 Z-4.1800
 Y-21.2467 Z-3.9024
 Y-21.1533 Z-3.8098
 Y-20.7800 Z-3.5087
 Y-20.4067 Z-3.2300
 Y-20.0333 Z-2.9974
 Y-19.8467 Z-2.8811
 Y-19.7533 Z-2.8348
 Y-19.4967 Z-2.7122
 Y-19.4850 Z-2.7066
 Y-19.4252 Z-2.6781
 Y-19.4245 Z-2.6778
 Y-19.4238 Z-2.6776
 Y-19.4208 Z-2.6773
 Y-19.4179 Z-2.6771
 Y-19.4150 Z-2.6769
 Y-19.4033 Z-2.6766
 Y-19.2867
 Y-18.9133 Z-2.6753
 Y-18.5400
 Y-18.1667 Z-2.6752
 Y-16.3933
 Y-16.3700 Z-2.6761
 Y-16.3233
 Y-16.3175 Z-11.0000
 Y-13.6867
 Y-13.6808 Z-2.6761
 Y-13.6400
 Y-13.5933 Z-2.6752
 Y-11.8200
 Y-11.4467 Z-2.6753
 Y-11.0733
 Y-10.8867 Z-2.6763
 Y-10.7933 Z-2.6766
 Y-10.5950
 Y-10.5892 Z-2.6768
 Y-10.5862 Z-2.6769
 Y-10.5848 Z-2.6770
 Y-10.5841
 Y-10.5837
 Y-10.5833
 Y-10.5804 Z-2.6772
 Y-10.5790 Z-2.6773
 Y-10.5782 Z-2.6774
 Y-10.5779
 Y-10.5777
 Y-10.5775 Z-2.6775
 Y-10.5768
 Y-10.5764 Z-2.6776
 Y-10.5762
 Y-10.5761
 Y-10.5760
 Y-10.5746 Z-2.6782
 Y-10.5600 Z-2.6852
 Y-10.5133 Z-2.7074
 Y-10.3267 Z-2.7966
 Y-9.9533 Z-3.0057
 Y-9.5800 Z-3.2383
 Y-9.2067 Z-3.5193
 Y-9.0200 Z-3.6669
 Y-8.8333 Z-3.8230
 Y-8.4600 Z-4.1932
 Y-8.0867 Z-4.6212
 Y-7.9000 Z-4.8535
 Y-7.7133 Z-5.1228
 Y-7.5267 Z-5.4182
 Y-7.4333 Z-5.5660
 Y-7.3400 Z-5.7443
 Y-7.1533 Z-6.1304
 Y-6.9667 Z-6.5904
 Y-6.7800 Z-7.1550
 Y-6.7333 Z-7.3592
 Y-6.7100 Z-7.4613
 Y-6.6925 Z-7.5379
 Y-6.6867 Z-7.5634
 Y-6.6633 Z-7.6655
 Y-6.6458 Z-7.7421
 Y-6.6407 Z-7.7645
 Y-6.6404 Z-7.7652
 Y18.3033 Z-7.7653
 Y18.3267 Z-7.7618
 Y18.3733 Z-7.7505
 Y18.3967 Z-7.7451
 Y18.4083 Z-7.7427
 Y18.4142 Z-7.7417
 Y18.4200 Z-7.7407
 Y18.4433 Z-7.7374
 Y18.4667 Z-7.7352
 Y18.4900 Z-7.7342
 Y18.5133 Z-7.7343
 Y18.5367 Z-7.7355
 Y18.5600 Z-7.7378
 Y18.6067 Z-7.7458
 Y18.7000 Z-7.7683
 Y18.9567 Z-7.8304
 Y18.9800 Z-7.8396
 Y19.0733 Z-7.8859
 Y19.1667 Z-7.9323
 Y19.2600 Z-7.9787
 Y19.3533 Z-8.0251
 Y19.4000 Z-8.0488
 Y19.4233 Z-8.0631
 Y19.4350 Z-8.0711
 Y19.4467 Z-8.0797
 Y19.4700 Z-8.0985
 Y19.4933 Z-8.1196
 Y19.5167 Z-8.1428
 Y19.5283 Z-8.1553
 Y19.5400 Z-8.1683
 Y19.6333 Z-8.2926
 Y19.7267 Z-8.4306
 Y19.7733 Z-8.4996
 Y19.8200 Z-8.5686
 Y19.9133 Z-9.0000
 Y19.9308
 Y19.9323 Z-11.0000
 Y28.5000
G0 Z2.0000
 X-7.0745 Y-27.5000
G1 Z-11.0000
 Y-23.5800
 Y-23.4867 Z-9.0000
 Y-23.4400 Z-8.2241
 Y-23.4167 Z-8.0167
 Y-23.4050 Z-7.9129
 Y-23.3933 Z-7.8183
 Y-23.2533 Z-7.2042
 Y-23.2067 Z-7.0214
 Y-23.0200 Z-6.4873
 Y-22.8333 Z-6.0538
 Y-22.7400 Z-5.8597
 Y-22.6467 Z-5.6656
 Y-22.4600 Z-5.3561
 Y-22.2733 Z-5.0587
 Y-21.9000 Z-4.5668
 Y-21.5267 Z-4.1462
 Y-21.2467 Z-3.8658
 Y-21.1533 Z-3.7740
 Y-20.7800 Z-3.4760
 Y-20.4067 Z-3.2019
 Y-20.0333 Z-2.9670
 Y-19.9400 Z-2.9083
 Y-19.8467 Z-2.8552
 Y-19.7533 Z-2.8102
 Y-19.6600 Z-2.7652
 Y-19.5667 Z-2.7203
 Y-19.4894 Z-2.6830
 Y-19.4886 Z-2.6827
 Y-19.4879 Z-2.6826
 Y-19.4850 Z-2.6821
 Y-19.4733 Z-2.6807
 Y-19.2867 Z-2.6753
 Y-16.4867
 Y-16.4750 Z-11.0000
 Y-13.5233
 Y-13.5175 Z-2.6759
 Y-13.5160 Z-2.6756
 Y-13.5153 Z-2.6754
 Y-13.5149 Z-2.6753
 Y-13.5148
 Y-13.5147
 Y-13.5146
 Y-13.5117
 Y-10.6067
 Y-10.5600 Z-2.6777
 Y-10.5367 Z-2.6797
 Y-10.5250 Z-2.6809
 Y-10.5192 Z-2.6816
 Y-10.5162 Z-2.6820
 Y-10.5133 Z-2.6824
 Y-10.3267 Z-2.7717
 Y-9.9533 Z-2.9754
 Y-9.5800 Z-3.2103
 Y-9.2067 Z-3.4866
 Y-8.9267 Z-3.7102
 Y-8.8333 Z-3.7857
 Y-8.4600 Z-4.1595
 Y-8.0867 Z-4.5835
 Y-7.9000 Z-4.8179
 Y-7.7133 Z-5.0799
 Y-7.4333 Z-5.5261
 Y-7.3400 Z-5.6934
 Y-7.0600 Z-6.2755
 Y-6.9667 Z-6.5254
 Y-6.7800 Z-7.0595
 Y-6.5933 Z-7.9277
 Y-6.5233 Z-8.5497
 Y-6.5117 Z-9.0000
 Y-6.5058
 Y-6.5044 Z-11.0000
 Y28.5000
G0 Z2.0000
 X-7.8191 Y-27.5000
G1 Z-11.0000
 Y-23.4867
 Y-23.4400 Z-9.0000
 Y-23.4167 Z-8.4147
 Y-23.3933 Z-8.2081
 Y-23.3000 Z-7.6070
 Y-23.2067 Z-7.1990
 Y-23.1133 Z-6.8853
 Y-23.0200 Z-6.6191
 Y-22.8333 Z-6.1509
 Y-22.6467 Z-5.7640
 Y-22.4600 Z-5.4325
 Y-22.2733 Z-5.1360
 Y-21.9000 Z-4.6292
 Y-21.5267 Z-4.1972
 Y-21.3400 Z-4.0109
 Y-21.2467 Z-3.9178
 Y-21.1533 Z-3.8248
 Y-20.7800 Z-3.5200
 Y-20.5933 Z-3.3727
 Y-20.4067 Z-3.2396
 Y-20.0333 Z-3.0089
 Y-19.8467 Z-2.8938
 Y-19.7533 Z-2.8449
 Y-19.7067 Z-2.8228
 Y-19.6600 Z-2.8008
 Y-19.4033 Z-2.6794
 Y-19.4004 Z-2.6781
 Y-19.3975 Z-2.6770
 Y-19.3946 Z-2.6761
 Y-19.3931 Z-2.6758
 Y-19.3924 Z-2.6756
 Y-19.3920 Z-2.6755
 Y-19.3917 Z-2.6754
 Y-19.3800 Z-2.6753
 Y-16.6733
 Y-16.4867 Z-2.6755
 Y-16.3000
 Y-16.2767 Z-2.6772
 Y-16.2650 Z-2.6773
 Y-16.2358
 Y-16.2300 Z-2.6774
 Y-16.2242 Z-11.0000
 Y-13.7712
 Y-13.7698 Z-2.6774
 Y-13.7683 Z-2.6773
 Y-13.7333
 Y-13.6867 Z-2.6755
 Y-13.3133 Z-2.6753
 Y-10.6096
 Y-10.6089
 Y-10.6081 Z-2.6754
 Y-10.6067 Z-2.6758
 Y-10.5600 Z-2.6967
 Y-10.5133 Z-2.7188
 Y-10.3267 Z-2.8071
 Y-9.9533 Z-3.0171
 Y-9.7667 Z-3.1323
 Y-9.5800 Z-3.2478
 Y-9.2067 Z-3.5306
 Y-9.0200 Z-3.6783
 Y-8.8333 Z-3.8381
 Y-8.4600 Z-4.2105
 Y-8.0867 Z-4.6459
 Y-7.9000 Z-4.8795
 Y-7.7133 Z-5.1572
 Y-7.5267 Z-5.4537
 Y-7.3400 Z-5.7917
 Y-7.1533 Z-6.1785
 Y-7.0600 Z-6.3910
 Y-6.9667 Z-6.6571
 Y-6.5933 Z-8.3260
 Y-6.5700 Z-8.5327
 Y-6.5583 Z-9.0000
 Y-6.5481
 Y-6.5474 Z-11.0000
 Y28.5000
G0 Z2.0000
 X-8.5638 Y-27.5000
G1 Z-11.0000
 Y-23.3933
 Y-23.3000 Z-8.3199
 Y-23.2533 Z-7.9133
 Y-23.2067 Z-7.6691
 Y-23.1133 Z-7.2677
 Y-23.0667 Z-7.0669
 Y-23.0200 Z-6.9344
 Y-22.8333 Z-6.4107
 Y-22.6467 Z-6.0057
 Y-22.5533 Z-5.8155
 Y-22.4600 Z-5.6252
 Y-22.2733 Z-5.3309
 Y-21.9000 Z-4.7904
 Y-21.6200 Z-4.4458
 Y-21.5733 Z-4.3883
 Y-21.5267 Z-4.3318
 Y-21.1533 Z-3.9657
 Y-20.7800 Z-3.6400
 Y-20.4067 Z-3.3559
 Y-20.0333 Z-3.1187
 Y-19.6600 Z-2.8953
 Y-19.4733 Z-2.8045
 Y-19.2867 Z-2.7189
 Y-19.2400 Z-2.6975
 Y-19.2167 Z-2.6868
 Y-19.2050 Z-2.6815
 Y-19.1992 Z-2.6788
 Y-19.1963 Z-2.6775
 Y-19.1948 Z-2.6768
 Y-19.1941 Z-2.6765
 Y-19.1937 Z-2.6763
 Y-19.1933 Z-2.6761
 Y-19.1467 Z-2.6755
 Y-19.1000
 Y-18.9133 Z-2.6753
 Y-17.4200
 Y-17.0467 Z-2.6752
 Y-15.5533
 Y-15.1800 Z-2.6763
 Y-14.8067
 Y-14.4333 Z-2.6752
 Y-12.9400
 Y-12.5667 Z-2.6753
 Y-11.1200
 Y-11.0733 Z-2.6755
 Y-10.8083
 Y-10.8081
 Y-10.8079 Z-2.6756
 Y-10.8050 Z-2.6769
 Y-10.7933 Z-2.6822
 Y-10.7000 Z-2.7250
 Y-10.5133 Z-2.8106
 Y-10.3267 Z-2.9032
 Y-9.9533 Z-3.1267
 Y-9.5800 Z-3.3661
 Y-9.2067 Z-3.6502
 Y-8.8333 Z-3.9787
 Y-8.6467 Z-4.1617
 Y-8.5533 Z-4.2533
 Y-8.4600 Z-4.3473
 Y-8.0867 Z-4.8068
 Y-7.9000 Z-5.0601
 Y-7.6200 Z-5.4976
 Y-7.5267 Z-5.6524
 Y-7.3400 Z-6.0329
 Y-7.1533 Z-6.4481
 Y-6.9667 Z-6.9718
 Y-6.8733 Z-7.3251
 Y-6.8267 Z-7.5258
 Y-6.7800 Z-7.7265
 Y-6.6867 Z-8.4362
 Y-6.6633 Z-9.0000
 Y-6.6546
 Y-6.6531 Z-11.0000
 Y28.5000
G0 Z2.0000
 X-9.3085 Y-27.5000
G1 Z-11.0000
 Y-23.2067
 Y-23.1600 Z-8.5754
 Y-23.0783 Z-7.8849
 Y-23.0667 Z-7.8072
 Y-23.0200 Z-7.6125
 Y-22.9267 Z-7.2229
 Y-22.8333 Z-6.9130
 Y-22.7400 Z-6.6588
 Y-22.6467 Z-6.4048
 Y-22.4600 Z-6.0126
 Y-22.2733 Z-5.6434
 Y-22.0867 Z-5.3536
 Y-21.9000 Z-5.0705
 Y-21.5267 Z-4.5988
 Y-21.1533 Z-4.1899
 Y-20.9667 Z-4.0138
 Y-20.8733 Z-3.9269
 Y-20.7800 Z-3.8408
 Y-20.4067 Z-3.5570
 Y-20.1267 Z-3.3536
 Y-20.0333 Z-3.2869
 Y-19.6600 Z-3.0732
 Y-19.4733 Z-2.9666
 Y-19.3800 Z-2.9143
 Y-19.2867 Z-2.8653
 Y-19.1000 Z-2.7879
 Y-19.0067 Z-2.7493
 Y-18.8667 Z-2.6915
 Y-18.8550 Z-2.6867
 Y-18.8433 Z-2.6828
 Y-18.8317 Z-2.6797
 Y-18.8258 Z-2.6783
 Y-18.8244 Z-2.6780
 Y-18.8236 Z-2.6778
 Y-18.8233 Z-2.6777
 Y-18.8229 Z-2.6776
 Y-18.8200 Z-2.6773
 Y-18.7267
 Y-18.5400 Z-2.6755
 Y-17.7933
 Y-17.4200 Z-2.6752
 Y-12.5667
 Y-12.1933 Z-2.6755
 Y-11.4467
 Y-11.3533 Z-2.6758
 Y-11.3067 Z-2.6768
 Y-11.2833 Z-2.6773
 Y-11.1791
 Y-11.1783 Z-2.6774
 Y-11.1667 Z-2.6801
 Y-11.0733 Z-2.7163
 Y-10.8867 Z-2.7934
 Y-10.7933 Z-2.8320
 Y-10.7467 Z-2.8514
 Y-10.7000 Z-2.8709
 Y-10.3267 Z-3.0808
 Y-10.1400 Z-3.1877
 Y-10.0467 Z-3.2411
 Y-9.9533 Z-3.2955
 Y-9.5800 Z-3.5667
 Y-9.3933 Z-3.7024
 Y-9.2067 Z-3.8530
 Y-8.8333 Z-4.2026
 Y-8.4600 Z-4.6148
 Y-8.2733 Z-4.8378
 Y-8.0867 Z-5.0907
 Y-7.8067 Z-5.5152
 Y-7.7133 Z-5.6698
 Y-7.4333 Z-6.2236
 Y-7.3400 Z-6.4410
 Y-7.1533 Z-6.9492
 Y-7.0600 Z-7.2785
 Y-6.9667 Z-7.6681
 Y-6.8733 Z-8.2937
 Y-6.8267 Z-9.0000
 Y-6.8237 Z-11.0000
 Y28.5000
G0 Z2.0000
 X-10.0532 Y-27.5000
G1 Z-11.0000
 Y-22.9267
 Y-22.8800 Z-8.2691
 Y-22.8567 Z-8.0757
 Y-22.8450 Z-7.9791
 Y-22.8333 Z-7.8826
 Y-22.7400 Z-7.4757
 Y-22.6933 Z-7.2874
 Y-22.6700 Z-7.1936
 Y-22.6467 Z-7.1000
 Y-22.4600 Z-6.6006
 Y-22.3667 Z-6.3575
 Y-22.2733 Z-6.1711
 Y-22.0867 Z-5.8179
 Y-21.9000 Z-5.4996
 Y-21.5267 Z-4.9582
 Y-21.1533 Z-4.5298
 Y-20.7800 Z-4.1529
 Y-20.5933 Z-3.9905
 Y-20.4067 Z-3.8304
 Y-20.0333 Z-3.5649
 Y-19.6600 Z-3.3096
 Y-19.2867 Z-3.1117
 Y-18.9133 Z-2.9256
 Y-18.7267 Z-2.8421
 Y-18.6333 Z-2.8065
 Y-18.5400 Z-2.7717
 Y-18.4467 Z-2.7381
 Y-18.4000 Z-2.7218
 Y-18.3767 Z-2.7137
 Y-18.2848 Z-2.6819
 Y-18.2833 Z-2.6814
 Y-18.2775 Z-2.6797
 Y-18.2746 Z-2.6789
 Y-18.2731 Z-2.6786
 Y-18.2724 Z-2.6784
 Y-18.2717 Z-2.6782
 Y-18.2600 Z-2.6777
 Y-18.1667 Z-2.6774
 Y-17.7933 Z-2.6757
 Y-17.4200 Z-2.6752
 Y-12.5667
 Y-12.1933 Z-2.6757
 Y-11.9133
 Y-11.8667 Z-2.6766
 Y-11.8433 Z-2.6773
 Y-11.8317 Z-2.6775
 Y-11.8200
 Y-11.7733 Z-2.6776
 Y-11.7500
 Y-11.7383 Z-2.6777
 Y-11.7354
 Y-11.7340
 Y-11.7332
 Y-11.7329
 Y-11.7325
 Y-11.7310
 Y-11.7303 Z-2.6778
 Y-11.7296 Z-2.6779
 Y-11.7267 Z-2.6786
 Y-11.6800 Z-2.6941
 Y-11.6333 Z-2.7103
 Y-11.4467 Z-2.7766
 Y-11.0733 Z-2.9323
 Y-10.7000 Z-3.1183
 Y-10.5133 Z-3.2134
 Y-10.3267 Z-3.3187
 Y-9.9533 Z-3.5740
 Y-9.7667 Z-3.7017
 Y-9.5800 Z-3.8419
 Y-9.2067 Z-4.1647
 Y-8.8333 Z-4.5450
 Y-8.6467 Z-4.7583
 Y-8.5533 Z-4.8649
 Y-8.4600 Z-4.9775
 Y-8.0867 Z-5.5189
 Y-7.9000 Z-5.8431
 Y-7.7133 Z-6.1963
 Y-7.5267 Z-6.6353
 Y-7.3867 Z-6.9998
 Y-7.3400 Z-7.1534
 Y-7.2467 Z-7.5296
 Y-7.2000 Z-7.7190
 Y-7.1533 Z-7.9930
 Y-7.1067 Z-8.3800
 Y-7.0833 Z-8.5741
 Y-7.0775 Z-9.0000
 Y-7.0746
 Y-7.0731 Z-11.0000
 Y28.5000
G0 Z2.0000
 X-10.7979 Y-27.5000
G1 Z-11.0000
 Y-22.6467
 Y-22.5533 Z-8.3483
 Y-22.5067 Z-7.9710
 Y-22.4600 Z-7.7120
 Y-22.3667 Z-7.3394
 Y-22.3200 Z-7.1543
 Y-22.2733 Z-7.0024
 Y-22.0867 Z-6.5320
 Y-21.9000 Z-6.1411
 Y-21.7133 Z-5.8086
 Y-21.5267 Z-5.5083
 Y-21.3400 Z-5.2535
 Y-21.1533 Z-4.9987
 Y-20.7800 Z-4.5867
 Y-20.6867 Z-4.4864
 Y-20.6400 Z-4.4367
 Y-20.5933 Z-4.3876
 Y-20.4067 Z-4.2251
 Y-20.0333 Z-3.9290
 Y-19.6600 Z-3.6628
 Y-19.2867 Z-3.4325
 Y-18.9133 Z-3.2339
 Y-18.5400 Z-3.0658
 Y-18.1667 Z-2.9138
 Y-17.7933 Z-2.7909
 Y-17.6067 Z-2.7402
 Y-17.4667 Z-2.7037
 Y-17.4433 Z-2.6976
 Y-17.4200 Z-2.6915
 Y-17.0467 Z-2.6752
 Y-12.8000
 Y-12.7533 Z-2.6757
 Y-12.7067
 Y-12.6833 Z-2.6760
 Y-12.6717 Z-2.6767
 Y-12.6600 Z-2.6776
 Y-12.5667 Z-2.6950
 Y-12.1933 Z-2.7948
 Y-11.8200 Z-2.9191
 Y-11.4467 Z-3.0717
 Y-11.0733 Z-3.2399
 Y-10.7000 Z-3.4403
 Y-10.3267 Z-3.6712
 Y-9.9533 Z-3.9396
 Y-9.7667 Z-4.0877
 Y-9.6733 Z-4.1617
 Y-9.5800 Z-4.2358
 Y-9.2067 Z-4.6010
 Y-9.0200 Z-4.8018
 Y-8.8333 Z-5.0169
 Y-8.6467 Z-5.2717
 Y-8.4600 Z-5.5265
 Y-8.2733 Z-5.8324
 Y-8.0867 Z-6.1649
 Y-7.9000 Z-6.5651
 Y-7.8067 Z-6.7991
 Y-7.7600 Z-6.9174
 Y-7.7367 Z-6.9769
 Y-7.7133 Z-7.0366
 Y-7.6200 Z-7.3927
 Y-7.5267 Z-7.7653
 Y-7.4333 Z-8.4563
 Y-7.4100 Z-9.0000
 Y-7.4071
 Y-7.4056 Z-11.0000
 Y28.5000
G0 Z2.0000
 X-11.5426 Y-27.5000
G1 Z-11.0000
 Y-22.1800
 Y-22.1333 Z-8.4011
 Y-22.0867 Z-8.0459
 Y-21.9933 Z-7.5844
 Y-21.9000 Z-7.2337
 Y-21.7133 Z-6.7185
 Y-21.6200 Z-6.4970
 Y-21.5733 Z-6.3883
 Y-21.5267 Z-6.2919
 Y-21.3400 Z-5.9842
 Y-21.1533 Z-5.6768
 Y-20.7800 Z-5.1907
 Y-20.5933 Z-4.9551
 Y-20.4067 Z-4.7682
 Y-20.2200 Z-4.5868
 Y-20.0333 Z-4.4165
 Y-19.6600 Z-4.1320
 Y-19.3800 Z-3.9308
 Y-19.2867 Z-3.8638
 Y-18.9133 Z-3.6503
 Y-18.5400 Z-3.4615
 Y-18.3533 Z-3.3676
 Y-18.1667 Z-3.2844
 Y-17.7933 Z-3.1574
 Y-17.4200 Z-3.0394
 Y-17.0467 Z-2.9357
 Y-16.6733 Z-2.8542
 Y-16.3000 Z-2.7960
 Y-15.9267 Z-2.7547
 Y-15.5533 Z-2.7266
 Y-15.1800 Z-2.7104
 Y-14.8067 Z-2.7105
 Y-14.4333 Z-2.7273
 Y-14.0600 Z-2.7562
 Y-13.6867 Z-2.7977
 Y-13.3133 Z-2.8564
 Y-12.9400 Z-2.9394
 Y-12.5667 Z-3.0431
 Y-12.1933 Z-3.1619
 Y-11.8200 Z-3.2889
 Y-11.4467 Z-3.4682
 Y-11.0733 Z-3.6570
 Y-10.9800 Z-3.7042
 Y-10.9333 Z-3.7278
 Y-10.8867 Z-3.7519
 Y-10.7000 Z-3.8734
 Y-10.3267 Z-4.1416
 Y-10.1400 Z-4.2757
 Y-9.9533 Z-4.4286
 Y-9.7667 Z-4.5994
 Y-9.5800 Z-4.7815
 Y-9.2067 Z-5.2076
 Y-9.0200 Z-5.4433
 Y-8.8333 Z-5.6987
 Y-8.6467 Z-6.0061
 Y-8.5533 Z-6.1598
 Y-8.5067 Z-6.2368
 Y-8.4833 Z-6.2753
 Y-8.4600 Z-6.3142
 Y-8.2733 Z-6.7507
 Y-8.2267 Z-6.8638
 Y-8.1800 Z-6.9780
 Y-8.1333 Z-7.1085
 Y-7.9933 Z-7.6347
 Y-7.9000 Z-8.1475
 Y-7.8533 Z-8.5028
 Y-7.8300 Z-9.0000
 Y-7.8227
 Y-7.8220 Z-11.0000
 Y28.5000
G0 Z2.0000
 X-12.2872 Y-27.5000
G1 Z-11.0000
 Y-21.7133
 Y-21.6200 Z-8.5492
 Y-21.5500 Z-8.0564
 Y-21.5383 Z-7.9741
 Y-21.5267 Z-7.8920
 Y-21.4333 Z-7.5349
 Y-21.3400 Z-7.2106
 Y-21.2467 Z-6.9474
 Y-21.1533 Z-6.7384
 Y-21.0600 Z-6.5364
 Y-21.0133 Z-6.4381
 Y-20.9900 Z-6.3896
 Y-20.9667 Z-6.3416
 Y-20.7800 Z-6.0577
 Y-20.5933 Z-5.7793
 Y-20.4067 Z-5.5273
 Y-20.0333 Z-5.1005
 Y-19.6600 Z-4.7525
 Y-19.2867 Z-4.4557
 Y-19.1000 Z-4.3130
 Y-18.9133 Z-4.1949
 Y-18.5400 Z-3.9858
 Y-18.1667 Z-3.7836
 Y-17.7933 Z-3.6371
 Y-17.4200 Z-3.5055
 Y-17.0467 Z-3.3897
 Y-16.7667 Z-3.3145
 Y-16.6733 Z-3.2898
 Y-16.3000 Z-3.2283
 Y-15.9267 Z-3.1762
 Y-15.5533 Z-3.1474
 Y-15.1800 Z-3.1294
 Y-14.8067
 Y-14.4333 Z-3.1484
 Y-14.0600 Z-3.1777
 Y-13.6867 Z-3.2301
 Y-13.5000 Z-3.2570
 Y-13.3133 Z-3.2930
 Y-12.9400 Z-3.3933
 Y-12.5667 Z-3.5102
 Y-12.1933 Z-3.6418
 Y-12.0067 Z-3.7098
 Y-11.8200 Z-3.7908
 Y-11.4467 Z-3.9930
 Y-11.2600 Z-4.0941
 Y-11.0733 Z-4.2032
 Y-10.7000 Z-4.4663
 Y-10.3267 Z-4.7631
 Y-10.2333 Z-4.8375
 Y-10.1867 Z-4.8758
 Y-10.1633 Z-4.8952
 Y-10.1400 Z-4.9150
 Y-9.9533 Z-5.1157
 Y-9.7667 Z-5.3291
 Y-9.6733 Z-5.4358
 Y-9.5800 Z-5.5425
 Y-9.3933 Z-5.7992
 Y-9.2067 Z-6.0776
 Y-9.0667 Z-6.2864
 Y-9.0200 Z-6.3690
 Y-8.9267 Z-6.5648
 Y-8.8800 Z-6.6654
 Y-8.8333 Z-6.7678
 Y-8.7400 Z-6.9777
 Y-8.7167 Z-7.0305
 Y-8.6933 Z-7.0948
 Y-8.5533 Z-7.5813
 Y-8.4600 Z-7.9859
 Y-8.3667 Z-9.0000
 Y-8.3565
 Y-8.3557 Z-11.0000
 Y28.5000
G0 Z2.0000
 X-13.0319 Y-27.5000
G1 Z-11.0000
 Y-21.1533
 Y-20.9667 Z-9.0000
 Y-20.9200 Z-8.3561
 Y-20.8733 Z-8.0585
 Y-20.8500 Z-7.9098
 Y-20.8383 Z-7.8354
 Y-20.8267 Z-7.7947
 Y-20.6867 Z-7.3541
 Y-20.6400 Z-7.2075
 Y-20.6167 Z-7.1349
 Y-20.6050 Z-7.0990
 Y-20.5992 Z-7.0811
 Y-20.5933 Z-7.0633
 Y-20.4067 Z-6.7090
 Y-20.2200 Z-6.3708
 Y-20.0333 Z-6.1114
 Y-19.8467 Z-5.8656
 Y-19.6600 Z-5.6199
 Y-19.2867 Z-5.2559
 Y-19.1000 Z-5.0950
 Y-19.0067 Z-5.0145
 Y-18.9133 Z-4.9373
 Y-18.5400 Z-4.6838
 Y-18.1667 Z-4.4602
 Y-17.7933 Z-4.2700
 Y-17.4200 Z-4.1186
 Y-17.0467 Z-3.9929
 Y-16.6733 Z-3.8780
 Y-16.3000 Z-3.7933
 Y-15.9267 Z-3.7337
 Y-15.5533 Z-3.6997
 Y-15.1800 Z-3.6807
 Y-14.8067
 Y-14.4333 Z-3.7009
 Y-14.0600 Z-3.7349
 Y-13.6867 Z-3.7964
 Y-13.3133 Z-3.8810
 Y-12.9400 Z-3.9974
 Y-12.5667 Z-4.1231
 Y-12.1933 Z-4.2759
 Y-11.8200 Z-4.4676
 Y-11.4467 Z-4.6928
 Y-11.2600 Z-4.8196
 Y-11.0733 Z-4.9464
 Y-10.7000 Z-5.2676
 Y-10.5133 Z-5.4436
 Y-10.4200 Z-5.5377
 Y-10.3267 Z-5.6374
 Y-10.1400 Z-5.8832
 Y-9.9533 Z-6.1290
 Y-9.8600 Z-6.2519
 Y-9.7667 Z-6.3949
 Y-9.6733 Z-6.5640
 Y-9.6267 Z-6.6486
 Y-9.5800 Z-6.7332
 Y-9.4867 Z-6.9068
 Y-9.4400 Z-6.9971
 Y-9.3933 Z-7.1041
 Y-9.3000 Z-7.3961
 Y-9.2067 Z-7.6898
 Y-9.0200 Z-9.0000
 Y-9.0171 Z-11.0000
 Y28.5000
G0 Z2.0000
 X-13.7766 Y-27.5000
G1 Z-11.0000
 Y-20.1267
 Y-20.1033 Z-8.5979
 Y-20.0333 Z-8.2040
 Y-19.9867 Z-7.9449
 Y-19.9750 Z-7.8814
 Y-19.9692 Z-7.8499
 Y-19.9662 Z-7.8341
 Y-19.9633 Z-7.8230
 Y-19.9400 Z-7.7617
 Y-19.8933 Z-7.6421
 Y-19.8467 Z-7.5267
 Y-19.7533 Z-7.3045
 Y-19.6600 Z-7.0831
 Y-19.4733 Z-6.7869
 Y-19.3800 Z-6.6425
 Y-19.1933 Z-6.3536
 Y-19.1467 Z-6.2923
 Y-19.1000 Z-6.2398
 Y-18.9133 Z-6.0299
 Y-18.7267 Z-5.8407
 Y-18.6333 Z-5.7550
 Y-18.5400 Z-5.6694
 Y-18.1667 Z-5.3939
 Y-17.9800 Z-5.2626
 Y-17.7933 Z-5.1434
 Y-17.6067 Z-5.0431
 Y-17.4200 Z-4.9444
 Y-17.1400 Z-4.8262
 Y-17.0467 Z-4.7872
 Y-16.6733 Z-4.6728
 Y-16.3000 Z-4.5666
 Y-15.9267 Z-4.4952
 Y-15.5533 Z-4.4417
 Y-15.1800 Z-4.4180
 Y-14.8067
 Y-14.4333 Z-4.4437
 Y-14.0600 Z-4.4971
 Y-13.6867 Z-4.5704
 Y-13.3133 Z-4.6766
 Y-13.1267 Z-4.7297
 Y-12.9400 Z-4.7926
 Y-12.7533 Z-4.8713
 Y-12.5667 Z-4.9503
 Y-12.3800 Z-5.0502
 Y-12.2867 Z-5.1003
 Y-12.1933 Z-5.1509
 Y-11.8200 Z-5.4033
 Y-11.6333 Z-5.5346
 Y-11.5400 Z-5.6002
 Y-11.4467 Z-5.6816
 Y-11.2600 Z-5.8530
 Y-11.1667 Z-5.9443
 Y-11.0733 Z-6.0448
 Y-10.9800 Z-6.1498
 Y-10.9333 Z-6.2023
 Y-10.8867 Z-6.2548
 Y-10.7000 Z-6.5187
 Y-10.5133 Z-6.8076
 Y-10.3733 Z-7.0242
 Y-10.3267 Z-7.1147
 Y-10.2333 Z-7.3361
 Y-10.1867 Z-7.4468
 Y-10.1633 Z-7.5025
 Y-10.1400 Z-7.5593
 Y-10.0933 Z-7.6758
 Y-10.0700 Z-7.7357
 Y-10.0583 Z-7.7660
 Y-10.0467 Z-7.7966
 Y-9.9533 Z-8.2793
 Y-9.9067 Z-8.5419
 Y-9.8833 Z-9.0000
 Y-9.8777
 Y-9.8776 Z-11.0000
 Y28.5000
G0 Z2.0000
 X-14.5213 Y-27.5000
G1 Z-11.0000
 Y-18.9600
 Y-18.9367 Z-9.0000
 Y-18.9192
 Y-18.9163 Z-8.6069
 Y-18.9133 Z-8.5955
 Y-18.8200 Z-8.2293
 Y-18.7267 Z-7.8632
 Y-18.6333 Z-7.6643
 Y-18.3767 Z-7.1673
 Y-18.3650 Z-7.1447
 Y-18.3533 Z-7.1222
 Y-18.3300 Z-7.0770
 Y-18.3067 Z-7.0423
 Y-18.2833 Z-7.0129
 Y-18.2600 Z-6.9835
 Y-18.1667 Z-6.8744
 Y-17.7933 Z-6.5099
 Y-17.6067 Z-6.3304
 Y-17.4200 Z-6.1974
 Y-17.3267 Z-6.1322
 Y-17.2800 Z-6.0998
 Y-17.2333 Z-6.0696
 Y-17.0467 Z-5.9734
 Y-16.6733 Z-5.7975
 Y-16.4867 Z-5.7096
 Y-16.3933 Z-5.6657
 Y-16.3467 Z-5.6449
 Y-16.3233 Z-5.6356
 Y-16.3000 Z-5.6270
 Y-15.9267 Z-5.5523
 Y-15.5533 Z-5.4845
 Y-15.1800 Z-5.4620
 Y-14.8067
 Y-14.7133 Z-5.4621
 Y-14.6667
 Y-14.6433
 Y-14.6200 Z-5.4627
 Y-14.4333 Z-5.4869
 Y-14.0600 Z-5.5547
 Y-13.8267 Z-5.5971
 Y-13.7800 Z-5.6057
 Y-13.7567 Z-5.6103
 Y-13.7333 Z-5.6160
 Y-13.6867 Z-5.6318
 Y-13.3133 Z-5.8038
 Y-13.1267 Z-5.8917
 Y-12.9400 Z-5.9797
 Y-12.8467 Z-6.0244
 Y-12.7533 Z-6.0780
 Y-12.6600 Z-6.1415
 Y-12.5667 Z-6.2068
 Y-12.1933 Z-6.5227
 Y-12.0067 Z-6.7023
 Y-11.9133 Z-6.7921
 Y-11.8667 Z-6.8388
 Y-11.8433 Z-6.8635
 Y-11.8200 Z-6.8891
 Y-11.7267 Z-7.0002
 Y-11.7033 Z-7.0297
 Y-11.6917 Z-7.0444
 Y-11.6800 Z-7.0592
 Y-11.6333 Z-7.1480
 Y-11.4467 Z-7.5094
 Y-11.0733 Z-9.0000
 Y-11.0558
 Y-11.0544 Z-11.0000
 Y28.5000
G0 Z2.0000
 X-15.2660 Y-27.5000
G1 Z-11.0000
 Y-16.9533
 Y-16.9067 Z-9.0000
 Y-16.8833
 Y-16.8819 Z-8.6057
 Y-16.5217 Z-7.8805
 Y-16.5158 Z-7.8688
 Y-16.5100 Z-7.8572
 Y-16.5042 Z-7.8458
 Y-16.5012 Z-7.8402
 Y-16.4998 Z-7.8374
 Y-16.4991 Z-7.8360
 Y-16.4987 Z-7.8353
 Y-16.4983 Z-7.8346
 Y-16.4969 Z-7.8318
 Y-16.4961 Z-7.8305
 Y-16.4958 Z-7.8298
 Y-16.4954 Z-7.8291
 Y-16.4947 Z-7.8277
 Y-16.4940 Z-7.8269
 Y-16.4925 Z-7.8256
 Y-16.4867 Z-7.8202
 Y-16.4400 Z-7.7810
 Y-16.4167 Z-7.7637
 Y-16.3933 Z-7.7480
 Y-16.3000 Z-7.6976
 Y-15.9267 Z-7.5109
 Y-15.5767 Z-7.3358
 Y-15.5650 Z-7.3300
 Y-15.5592 Z-7.3270
 Y-15.5562 Z-7.3255
 Y-15.5533 Z-7.3241
 Y-15.5300 Z-7.3136
 Y-15.5067 Z-7.3046
 Y-15.4833 Z-7.2973
 Y-15.4717 Z-7.2942
 Y-15.4600 Z-7.2915
 Y-15.4367 Z-7.2873
 Y-15.4133 Z-7.2847
 Y-15.3667 Z-7.2838
 Y-15.1800
 Y-14.9933 Z-7.2837
 Y-14.6200
 Y-14.5967 Z-7.2841
 Y-14.5733 Z-7.2860
 Y-14.5500 Z-7.2895
 Y-14.5383 Z-7.2919
 Y-14.5267 Z-7.2946
 Y-14.4333 Z-7.3308
 Y-14.0600 Z-7.5177
 Y-13.6867 Z-7.7044
 Y-13.6400 Z-7.7282
 Y-13.6167 Z-7.7417
 Y-13.5933 Z-7.7568
 Y-13.5700 Z-7.7734
 Y-13.5583 Z-7.7823
 Y-13.5467 Z-7.7916
 Y-13.5350 Z-7.8012
 Y-13.5292 Z-7.8062
 Y-13.5263 Z-7.8087
 Y-13.5233 Z-7.8113
 Y-13.5175 Z-7.8165
 Y-13.5146 Z-7.8191
 Y-13.5131 Z-7.8204
 Y-13.5124 Z-7.8211
 Y-13.5117 Z-7.8217
 Y-13.5000 Z-7.8378
 Y-13.4067 Z-8.0246
 Y-13.3133 Z-8.2126
 Y-13.2200 Z-8.4004
 Y-13.1267 Z-8.5883
 Y-13.0800 Z-9.0000
 Y-13.0508
 Y-13.0494 Z-11.0000
 Y28.5000
G0 Z2.0000
 X-16.0106 Y-27.5000
G1 Z-11.0000
 Y28.5000
G0 Z2.0000
 X-16.7553 Y-27.5000
G1 Z-11.0000
 Y28.5000
G0 Z2.0000
 X-17.5000 Y-27.5000
G1 Z-11.0000
 Y28.5000
G0 Z2.0000
M5 (stop spindle)
G04 P3 (wait for 3 seconds)
G0 Z2.0000
M2 (end program)
