;PYCAM-META-DATA: Filename: /home/matt/cad/pcb mount/mounting holes.dxf
;PYCAM-META-DATA: Timestamp: 2012-01-21 15:02:23.418550
;PYCAM-META-DATA: Version: 0.5.1
;Estimated machine time: 5 minutes
G40 (disable tool radius compensation)
G49 (disable tool length compensation)
G80 (cancel modal motion)
G54 (select coordinate system 1)
G90 (disable incremental moves)
G21 (metric)
G61 (exact path mode)
F400.00000
S1000.00000
;PYCAM_TOOLPATH_SETTINGS: START
;[Bounds]
;maxz = 0.0
;maxx = 242.0
;maxy = 165.0
;minx = -42.0
;miny = -35.0
;minz = -5.0
;
;[Tool]
;torus_radius = 0.25
;speed = 1000.0
;shape = CylindricalCutter
;tool_radius = 2.0
;feedrate = 400.0
;
;[SupportGrid]
;height = 1.0
;distance_x = 150.0
;distance_y = 150.0
;adjustments_x = 0,0,0,0,0,0,0,0,0,0,0,0,0,0,0,0,0,0,0,0,0,0,0,0,0,0,0,0,0
;adjustments_y = 0,0,0,0,0,0,0,0,0,0,0,0,0,0,0,0,0,0,0,0,0
;thickness = 1.0
;offset_x = 0.0
;offset_y = 0.0
;type = grid
;
;[Process]
;engrave_offset = 2.0
;step_down = 2.0
;generator = EngraveCutter
;postprocessor = SimpleCutter
;milling_style = conventional
;material_allowance = 0.0
;pocketing_type = none
;path_direction = x
;
;PYCAM_TOOLPATH_SETTINGS: END
T1 M6
G0 Z10.0000
M3 (start spindle)
G04 P3 (wait for 3 seconds)
 X-0.0097 Y150.0000
G1 Z-1.6667
 X-0.0095 Y150.0019
 X-0.0089 Y150.0037
 X-0.0080 Y150.0054
 X-0.0068 Y150.0068
 X-0.0054 Y150.0080
 X-0.0037 Y150.0089
 X-0.0019 Y150.0095
 X-0.0000 Y150.0097
 X0.0019 Y150.0095
 X0.0037 Y150.0089
 X0.0054 Y150.0080
 X0.0068 Y150.0068
 X0.0080 Y150.0054
 X0.0089 Y150.0037
 X0.0095 Y150.0019
 X0.0097 Y150.0000
 X0.0095 Y149.9981
 X0.0089 Y149.9963
 X0.0080 Y149.9946
 X0.0068 Y149.9932
 X0.0054 Y149.9920
 X0.0037 Y149.9911
 X0.0019 Y149.9905
 X0.0000 Y149.9903
 X-0.0019 Y149.9905
 X-0.0037 Y149.9911
 X-0.0054 Y149.9920
 X-0.0068 Y149.9932
 X-0.0080 Y149.9946
 X-0.0089 Y149.9963
 X-0.0095 Y149.9981
 X-0.0097 Y150.0000
G0 Z10.0000
 X219.9903
G1 Z-1.6667
 X219.9905 Y150.0019
 X219.9911 Y150.0037
 X219.9920 Y150.0054
 X219.9932 Y150.0068
 X219.9946 Y150.0080
 X219.9963 Y150.0089
 X219.9981 Y150.0095
 X220.0000 Y150.0097
 X220.0019 Y150.0095
 X220.0037 Y150.0089
 X220.0054 Y150.0080
 X220.0068 Y150.0068
 X220.0080 Y150.0054
 X220.0089 Y150.0037
 X220.0095 Y150.0019
 X220.0097 Y150.0000
 X220.0095 Y149.9981
 X220.0089 Y149.9963
 X220.0080 Y149.9946
 X220.0068 Y149.9932
 X220.0054 Y149.9920
 X220.0037 Y149.9911
 X220.0019 Y149.9905
 X220.0000 Y149.9903
 X219.9981 Y149.9905
 X219.9963 Y149.9911
 X219.9946 Y149.9920
 X219.9932 Y149.9932
 X219.9920 Y149.9946
 X219.9911 Y149.9963
 X219.9905 Y149.9981
 X219.9903 Y150.0000
G0 Z10.0000
 Y-0.0000
G1 Z-1.6667
 X219.9905 Y0.0019
 X219.9911 Y0.0037
 X219.9920 Y0.0054
 X219.9932 Y0.0068
 X219.9946 Y0.0080
 X219.9963 Y0.0089
 X219.9981 Y0.0095
 X220.0000 Y0.0097
 X220.0019 Y0.0095
 X220.0037 Y0.0089
 X220.0054 Y0.0080
 X220.0068 Y0.0068
 X220.0080 Y0.0054
 X220.0089 Y0.0037
 X220.0095 Y0.0019
 X220.0097 Y-0.0000
 X220.0095 Y-0.0019
 X220.0089 Y-0.0037
 X220.0080 Y-0.0054
 X220.0068 Y-0.0068
 X220.0054 Y-0.0080
 X220.0037 Y-0.0089
 X220.0019 Y-0.0095
 X220.0000 Y-0.0097
 X219.9981 Y-0.0095
 X219.9963 Y-0.0089
 X219.9946 Y-0.0080
 X219.9932 Y-0.0068
 X219.9920 Y-0.0054
 X219.9911 Y-0.0037
 X219.9905 Y-0.0019
 X219.9903 Y-0.0000
G0 Z10.0000
 X-0.0097 Y150.0000
G1 Z-3.3333
 X-0.0095 Y150.0019
 X-0.0089 Y150.0037
 X-0.0080 Y150.0054
 X-0.0068 Y150.0068
 X-0.0054 Y150.0080
 X-0.0037 Y150.0089
 X-0.0019 Y150.0095
 X-0.0000 Y150.0097
 X0.0019 Y150.0095
 X0.0037 Y150.0089
 X0.0054 Y150.0080
 X0.0068 Y150.0068
 X0.0080 Y150.0054
 X0.0089 Y150.0037
 X0.0095 Y150.0019
 X0.0097 Y150.0000
 X0.0095 Y149.9981
 X0.0089 Y149.9963
 X0.0080 Y149.9946
 X0.0068 Y149.9932
 X0.0054 Y149.9920
 X0.0037 Y149.9911
 X0.0019 Y149.9905
 X0.0000 Y149.9903
 X-0.0019 Y149.9905
 X-0.0037 Y149.9911
 X-0.0054 Y149.9920
 X-0.0068 Y149.9932
 X-0.0080 Y149.9946
 X-0.0089 Y149.9963
 X-0.0095 Y149.9981
 X-0.0097 Y150.0000
G0 Z10.0000
 X219.9903
G1 Z-3.3333
 X219.9905 Y150.0019
 X219.9911 Y150.0037
 X219.9920 Y150.0054
 X219.9932 Y150.0068
 X219.9946 Y150.0080
 X219.9963 Y150.0089
 X219.9981 Y150.0095
 X220.0000 Y150.0097
 X220.0019 Y150.0095
 X220.0037 Y150.0089
 X220.0054 Y150.0080
 X220.0068 Y150.0068
 X220.0080 Y150.0054
 X220.0089 Y150.0037
 X220.0095 Y150.0019
 X220.0097 Y150.0000
 X220.0095 Y149.9981
 X220.0089 Y149.9963
 X220.0080 Y149.9946
 X220.0068 Y149.9932
 X220.0054 Y149.9920
 X220.0037 Y149.9911
 X220.0019 Y149.9905
 X220.0000 Y149.9903
 X219.9981 Y149.9905
 X219.9963 Y149.9911
 X219.9946 Y149.9920
 X219.9932 Y149.9932
 X219.9920 Y149.9946
 X219.9911 Y149.9963
 X219.9905 Y149.9981
 X219.9903 Y150.0000
G0 Z10.0000
 Y-0.0000
G1 Z-3.3333
 X219.9905 Y0.0019
 X219.9911 Y0.0037
 X219.9920 Y0.0054
 X219.9932 Y0.0068
 X219.9946 Y0.0080
 X219.9963 Y0.0089
 X219.9981 Y0.0095
 X220.0000 Y0.0097
 X220.0019 Y0.0095
 X220.0037 Y0.0089
 X220.0054 Y0.0080
 X220.0068 Y0.0068
 X220.0080 Y0.0054
 X220.0089 Y0.0037
 X220.0095 Y0.0019
 X220.0097 Y-0.0000
 X220.0095 Y-0.0019
 X220.0089 Y-0.0037
 X220.0080 Y-0.0054
 X220.0068 Y-0.0068
 X220.0054 Y-0.0080
 X220.0037 Y-0.0089
 X220.0019 Y-0.0095
 X220.0000 Y-0.0097
 X219.9981 Y-0.0095
 X219.9963 Y-0.0089
 X219.9946 Y-0.0080
 X219.9932 Y-0.0068
 X219.9920 Y-0.0054
 X219.9911 Y-0.0037
 X219.9905 Y-0.0019
 X219.9903 Y-0.0000
G0 Z10.0000
 X-0.0097 Y150.0000
G1 Z-5.0000
 X-0.0095 Y150.0019
 X-0.0089 Y150.0037
 X-0.0080 Y150.0054
 X-0.0068 Y150.0068
 X-0.0054 Y150.0080
 X-0.0037 Y150.0089
 X-0.0019 Y150.0095
 X-0.0000 Y150.0097
 X0.0019 Y150.0095
 X0.0037 Y150.0089
 X0.0054 Y150.0080
 X0.0068 Y150.0068
 X0.0080 Y150.0054
 X0.0089 Y150.0037
 X0.0095 Y150.0019
 X0.0097 Y150.0000
 X0.0095 Y149.9981
 X0.0089 Y149.9963
 X0.0080 Y149.9946
 X0.0068 Y149.9932
 X0.0054 Y149.9920
 X0.0037 Y149.9911
 X0.0019 Y149.9905
 X0.0000 Y149.9903
 X-0.0019 Y149.9905
 X-0.0037 Y149.9911
 X-0.0054 Y149.9920
 X-0.0068 Y149.9932
 X-0.0080 Y149.9946
 X-0.0089 Y149.9963
 X-0.0095 Y149.9981
 X-0.0097 Y150.0000
G0 Z10.0000
 X219.9903
G1 Z-5.0000
 X219.9905 Y150.0019
 X219.9911 Y150.0037
 X219.9920 Y150.0054
 X219.9932 Y150.0068
 X219.9946 Y150.0080
 X219.9963 Y150.0089
 X219.9981 Y150.0095
 X220.0000 Y150.0097
 X220.0019 Y150.0095
 X220.0037 Y150.0089
 X220.0054 Y150.0080
 X220.0068 Y150.0068
 X220.0080 Y150.0054
 X220.0089 Y150.0037
 X220.0095 Y150.0019
 X220.0097 Y150.0000
 X220.0095 Y149.9981
 X220.0089 Y149.9963
 X220.0080 Y149.9946
 X220.0068 Y149.9932
 X220.0054 Y149.9920
 X220.0037 Y149.9911
 X220.0019 Y149.9905
 X220.0000 Y149.9903
 X219.9981 Y149.9905
 X219.9963 Y149.9911
 X219.9946 Y149.9920
 X219.9932 Y149.9932
 X219.9920 Y149.9946
 X219.9911 Y149.9963
 X219.9905 Y149.9981
 X219.9903 Y150.0000
G0 Z10.0000
 Y-0.0000
G1 Z-5.0000
 X219.9905 Y0.0019
 X219.9911 Y0.0037
 X219.9920 Y0.0054
 X219.9932 Y0.0068
 X219.9946 Y0.0080
 X219.9963 Y0.0089
 X219.9981 Y0.0095
 X220.0000 Y0.0097
 X220.0019 Y0.0095
 X220.0037 Y0.0089
 X220.0054 Y0.0080
 X220.0068 Y0.0068
 X220.0080 Y0.0054
 X220.0089 Y0.0037
 X220.0095 Y0.0019
 X220.0097 Y-0.0000
 X220.0095 Y-0.0019
 X220.0089 Y-0.0037
 X220.0080 Y-0.0054
 X220.0068 Y-0.0068
 X220.0054 Y-0.0080
 X220.0037 Y-0.0089
 X220.0019 Y-0.0095
 X220.0000 Y-0.0097
 X219.9981 Y-0.0095
 X219.9963 Y-0.0089
 X219.9946 Y-0.0080
 X219.9932 Y-0.0068
 X219.9920 Y-0.0054
 X219.9911 Y-0.0037
 X219.9905 Y-0.0019
 X219.9903 Y-0.0000
G0 Z10.0000
M5 (stop spindle)
G04 P3 (wait for 3 seconds)
G0 Z10.0000
M2 (end program)
