;PYCAM-META-DATA: Filename: /home/matt/cad/pcb mount/pcb mount outline.dxf
;PYCAM-META-DATA: Timestamp: 2012-01-21 13:07:45.975832
;PYCAM-META-DATA: Version: 0.5.1
;Estimated machine time: 23 minutes
G40 (disable tool radius compensation)
G49 (disable tool length compensation)
G80 (cancel modal motion)
G54 (select coordinate system 1)
G90 (disable incremental moves)
G21 (metric)
G61 (exact path mode)
F400.00000
S1000.00000
;PYCAM_TOOLPATH_SETTINGS: START
;[Bounds]
;maxz = 0.0
;maxx = 242.0
;maxy = 165.0
;minx = -42.0
;miny = -35.0
;minz = -9.1
;
;[Tool]
;torus_radius = 0.25
;speed = 1000.0
;shape = CylindricalCutter
;tool_radius = 2.0
;feedrate = 400.0
;
;[SupportGrid]
;height = 1.0
;distance_x = 150.0
;distance_y = 150.0
;adjustments_x = 0,0,0,0,0,0,0,0,0,0,0,0,0,0,0,0,0,0,0,0,0,0,0,0,0,0,0,0,0
;adjustments_y = 0,0,0,0,0,0,0,0,0,0,0,0,0,0,0,0,0,0,0,0,0
;thickness = 1.0
;offset_x = 0.0
;offset_y = 0.0
;type = grid
;
;[Process]
;engrave_offset = 2.0
;step_down = 2.0
;generator = EngraveCutter
;postprocessor = SimpleCutter
;milling_style = conventional
;material_allowance = 0.0
;pocketing_type = none
;path_direction = x
;
;PYCAM_TOOLPATH_SETTINGS: END
T1 M6
G0 Z10.0000
M3 (start spindle)
G04 P3 (wait for 3 seconds)
 X224.9903 Y150.0000
G1 Z-1.8200
 X224.9905 Y150.0019
 X224.9911 Y150.0037
 X224.9920 Y150.0054
 X224.9932 Y150.0068
 X224.9946 Y150.0080
 X224.9963 Y150.0089
 X224.9981 Y150.0095
 X225.0000 Y150.0097
 X225.0019 Y150.0095
 X225.0037 Y150.0089
 X225.0054 Y150.0080
 X225.0068 Y150.0068
 X225.0080 Y150.0054
 X225.0089 Y150.0037
 X225.0095 Y150.0019
 X225.0097 Y150.0000
 X225.0095 Y149.9981
 X225.0089 Y149.9963
 X225.0080 Y149.9946
 X225.0068 Y149.9932
 X225.0054 Y149.9920
 X225.0037 Y149.9911
 X225.0019 Y149.9905
 X225.0000 Y149.9903
 X224.9981 Y149.9905
 X224.9963 Y149.9911
 X224.9946 Y149.9920
 X224.9932 Y149.9932
 X224.9920 Y149.9946
 X224.9911 Y149.9963
 X224.9905 Y149.9981
 X224.9903 Y150.0000
G0 Z10.0000
 Y0.0000
G1 Z-1.8200
 X224.9905 Y0.0019
 X224.9911 Y0.0037
 X224.9920 Y0.0054
 X224.9932 Y0.0068
 X224.9946 Y0.0080
 X224.9963 Y0.0089
 X224.9981 Y0.0095
 X225.0000 Y0.0097
 X225.0019 Y0.0095
 X225.0037 Y0.0089
 X225.0054 Y0.0080
 X225.0068 Y0.0068
 X225.0080 Y0.0054
 X225.0089 Y0.0037
 X225.0095 Y0.0019
 X225.0097 Y0.0000
 X225.0095 Y-0.0019
 X225.0089 Y-0.0037
 X225.0080 Y-0.0054
 X225.0068 Y-0.0068
 X225.0054 Y-0.0080
 X225.0037 Y-0.0089
 X225.0019 Y-0.0095
 X225.0000 Y-0.0097
 X224.9981 Y-0.0095
 X224.9963 Y-0.0089
 X224.9946 Y-0.0080
 X224.9932 Y-0.0068
 X224.9920 Y-0.0054
 X224.9911 Y-0.0037
 X224.9905 Y-0.0019
 X224.9903 Y0.0000
G0 Z10.0000
 X4.9903
G1 Z-1.8200
 X4.9905 Y0.0019
 X4.9911 Y0.0037
 X4.9920 Y0.0054
 X4.9932 Y0.0068
 X4.9946 Y0.0080
 X4.9963 Y0.0089
 X4.9981 Y0.0095
 X5.0000 Y0.0097
 X5.0019 Y0.0095
 X5.0037 Y0.0089
 X5.0054 Y0.0080
 X5.0068 Y0.0068
 X5.0080 Y0.0054
 X5.0089 Y0.0037
 X5.0095 Y0.0019
 X5.0097 Y0.0000
 X5.0095 Y-0.0019
 X5.0089 Y-0.0037
 X5.0080 Y-0.0054
 X5.0068 Y-0.0068
 X5.0054 Y-0.0080
 X5.0037 Y-0.0089
 X5.0019 Y-0.0095
 X5.0000 Y-0.0097
 X4.9981 Y-0.0095
 X4.9963 Y-0.0089
 X4.9946 Y-0.0080
 X4.9932 Y-0.0068
 X4.9920 Y-0.0054
 X4.9911 Y-0.0037
 X4.9905 Y-0.0019
 X4.9903 Y0.0000
G0 Z10.0000
 Y150.0000
G1 Z-1.8200
 X4.9905 Y150.0019
 X4.9911 Y150.0037
 X4.9920 Y150.0054
 X4.9932 Y150.0068
 X4.9946 Y150.0080
 X4.9963 Y150.0089
 X4.9981 Y150.0095
 X5.0000 Y150.0097
 X5.0019 Y150.0095
 X5.0037 Y150.0089
 X5.0054 Y150.0080
 X5.0068 Y150.0068
 X5.0080 Y150.0054
 X5.0089 Y150.0037
 X5.0095 Y150.0019
 X5.0097 Y150.0000
 X5.0095 Y149.9981
 X5.0089 Y149.9963
 X5.0080 Y149.9946
 X5.0068 Y149.9932
 X5.0054 Y149.9920
 X5.0037 Y149.9911
 X5.0019 Y149.9905
 X5.0000 Y149.9903
 X4.9981 Y149.9905
 X4.9963 Y149.9911
 X4.9946 Y149.9920
 X4.9932 Y149.9932
 X4.9920 Y149.9946
 X4.9911 Y149.9963
 X4.9905 Y149.9981
 X4.9903 Y150.0000
G0 Z10.0000
 X-3.0000 Y0.0983
G1 Z-1.8200
 Y149.9017
 X-2.8368 Y151.5588
 X-2.3821 Y153.0578
 X-1.6437 Y154.4392
 X-0.6500 Y155.6500
 X0.5608 Y156.6437
 X1.9422 Y157.3821
 X3.4412 Y157.8368
 X5.0983 Y158.0000
 X224.9017
 X226.5588 Y157.8368
 X228.0578 Y157.3821
 X229.4392 Y156.6437
 X230.6500 Y155.6500
 X231.6437 Y154.4392
 X232.3821 Y153.0578
 X232.8368 Y151.5588
 X233.0000 Y149.9017
 Y0.0983
 X232.8368 Y-1.5588
 X232.3821 Y-3.0578
 X231.6437 Y-4.4392
 X230.6500 Y-5.6500
 X229.4392 Y-6.6437
 X228.0578 Y-7.3821
 X226.5588 Y-7.8368
 X224.9017 Y-8.0000
 X5.0983
 X3.4412 Y-7.8368
 X1.9422 Y-7.3821
 X0.5608 Y-6.6437
 X-0.6500 Y-5.6500
 X-1.6437 Y-4.4392
 X-2.3821 Y-3.0578
 X-2.8368 Y-1.5588
 X-3.0000 Y0.0983
G0 Z10.0000
 X224.9903 Y150.0000
G1 Z-3.6400
 X224.9905 Y150.0019
 X224.9911 Y150.0037
 X224.9920 Y150.0054
 X224.9932 Y150.0068
 X224.9946 Y150.0080
 X224.9963 Y150.0089
 X224.9981 Y150.0095
 X225.0000 Y150.0097
 X225.0019 Y150.0095
 X225.0037 Y150.0089
 X225.0054 Y150.0080
 X225.0068 Y150.0068
 X225.0080 Y150.0054
 X225.0089 Y150.0037
 X225.0095 Y150.0019
 X225.0097 Y150.0000
 X225.0095 Y149.9981
 X225.0089 Y149.9963
 X225.0080 Y149.9946
 X225.0068 Y149.9932
 X225.0054 Y149.9920
 X225.0037 Y149.9911
 X225.0019 Y149.9905
 X225.0000 Y149.9903
 X224.9981 Y149.9905
 X224.9963 Y149.9911
 X224.9946 Y149.9920
 X224.9932 Y149.9932
 X224.9920 Y149.9946
 X224.9911 Y149.9963
 X224.9905 Y149.9981
 X224.9903 Y150.0000
G0 Z10.0000
 Y0.0000
G1 Z-3.6400
 X224.9905 Y0.0019
 X224.9911 Y0.0037
 X224.9920 Y0.0054
 X224.9932 Y0.0068
 X224.9946 Y0.0080
 X224.9963 Y0.0089
 X224.9981 Y0.0095
 X225.0000 Y0.0097
 X225.0019 Y0.0095
 X225.0037 Y0.0089
 X225.0054 Y0.0080
 X225.0068 Y0.0068
 X225.0080 Y0.0054
 X225.0089 Y0.0037
 X225.0095 Y0.0019
 X225.0097 Y0.0000
 X225.0095 Y-0.0019
 X225.0089 Y-0.0037
 X225.0080 Y-0.0054
 X225.0068 Y-0.0068
 X225.0054 Y-0.0080
 X225.0037 Y-0.0089
 X225.0019 Y-0.0095
 X225.0000 Y-0.0097
 X224.9981 Y-0.0095
 X224.9963 Y-0.0089
 X224.9946 Y-0.0080
 X224.9932 Y-0.0068
 X224.9920 Y-0.0054
 X224.9911 Y-0.0037
 X224.9905 Y-0.0019
 X224.9903 Y0.0000
G0 Z10.0000
 X4.9903
G1 Z-3.6400
 X4.9905 Y0.0019
 X4.9911 Y0.0037
 X4.9920 Y0.0054
 X4.9932 Y0.0068
 X4.9946 Y0.0080
 X4.9963 Y0.0089
 X4.9981 Y0.0095
 X5.0000 Y0.0097
 X5.0019 Y0.0095
 X5.0037 Y0.0089
 X5.0054 Y0.0080
 X5.0068 Y0.0068
 X5.0080 Y0.0054
 X5.0089 Y0.0037
 X5.0095 Y0.0019
 X5.0097 Y0.0000
 X5.0095 Y-0.0019
 X5.0089 Y-0.0037
 X5.0080 Y-0.0054
 X5.0068 Y-0.0068
 X5.0054 Y-0.0080
 X5.0037 Y-0.0089
 X5.0019 Y-0.0095
 X5.0000 Y-0.0097
 X4.9981 Y-0.0095
 X4.9963 Y-0.0089
 X4.9946 Y-0.0080
 X4.9932 Y-0.0068
 X4.9920 Y-0.0054
 X4.9911 Y-0.0037
 X4.9905 Y-0.0019
 X4.9903 Y0.0000
G0 Z10.0000
 Y150.0000
G1 Z-3.6400
 X4.9905 Y150.0019
 X4.9911 Y150.0037
 X4.9920 Y150.0054
 X4.9932 Y150.0068
 X4.9946 Y150.0080
 X4.9963 Y150.0089
 X4.9981 Y150.0095
 X5.0000 Y150.0097
 X5.0019 Y150.0095
 X5.0037 Y150.0089
 X5.0054 Y150.0080
 X5.0068 Y150.0068
 X5.0080 Y150.0054
 X5.0089 Y150.0037
 X5.0095 Y150.0019
 X5.0097 Y150.0000
 X5.0095 Y149.9981
 X5.0089 Y149.9963
 X5.0080 Y149.9946
 X5.0068 Y149.9932
 X5.0054 Y149.9920
 X5.0037 Y149.9911
 X5.0019 Y149.9905
 X5.0000 Y149.9903
 X4.9981 Y149.9905
 X4.9963 Y149.9911
 X4.9946 Y149.9920
 X4.9932 Y149.9932
 X4.9920 Y149.9946
 X4.9911 Y149.9963
 X4.9905 Y149.9981
 X4.9903 Y150.0000
G0 Z10.0000
 X-3.0000 Y0.0983
G1 Z-3.6400
 Y149.9017
 X-2.8368 Y151.5588
 X-2.3821 Y153.0578
 X-1.6437 Y154.4392
 X-0.6500 Y155.6500
 X0.5608 Y156.6437
 X1.9422 Y157.3821
 X3.4412 Y157.8368
 X5.0983 Y158.0000
 X224.9017
 X226.5588 Y157.8368
 X228.0578 Y157.3821
 X229.4392 Y156.6437
 X230.6500 Y155.6500
 X231.6437 Y154.4392
 X232.3821 Y153.0578
 X232.8368 Y151.5588
 X233.0000 Y149.9017
 Y0.0983
 X232.8368 Y-1.5588
 X232.3821 Y-3.0578
 X231.6437 Y-4.4392
 X230.6500 Y-5.6500
 X229.4392 Y-6.6437
 X228.0578 Y-7.3821
 X226.5588 Y-7.8368
 X224.9017 Y-8.0000
 X5.0983
 X3.4412 Y-7.8368
 X1.9422 Y-7.3821
 X0.5608 Y-6.6437
 X-0.6500 Y-5.6500
 X-1.6437 Y-4.4392
 X-2.3821 Y-3.0578
 X-2.8368 Y-1.5588
 X-3.0000 Y0.0983
G0 Z10.0000
 X224.9903 Y150.0000
G1 Z-5.4600
 X224.9905 Y150.0019
 X224.9911 Y150.0037
 X224.9920 Y150.0054
 X224.9932 Y150.0068
 X224.9946 Y150.0080
 X224.9963 Y150.0089
 X224.9981 Y150.0095
 X225.0000 Y150.0097
 X225.0019 Y150.0095
 X225.0037 Y150.0089
 X225.0054 Y150.0080
 X225.0068 Y150.0068
 X225.0080 Y150.0054
 X225.0089 Y150.0037
 X225.0095 Y150.0019
 X225.0097 Y150.0000
 X225.0095 Y149.9981
 X225.0089 Y149.9963
 X225.0080 Y149.9946
 X225.0068 Y149.9932
 X225.0054 Y149.9920
 X225.0037 Y149.9911
 X225.0019 Y149.9905
 X225.0000 Y149.9903
 X224.9981 Y149.9905
 X224.9963 Y149.9911
 X224.9946 Y149.9920
 X224.9932 Y149.9932
 X224.9920 Y149.9946
 X224.9911 Y149.9963
 X224.9905 Y149.9981
 X224.9903 Y150.0000
G0 Z10.0000
 Y0.0000
G1 Z-5.4600
 X224.9905 Y0.0019
 X224.9911 Y0.0037
 X224.9920 Y0.0054
 X224.9932 Y0.0068
 X224.9946 Y0.0080
 X224.9963 Y0.0089
 X224.9981 Y0.0095
 X225.0000 Y0.0097
 X225.0019 Y0.0095
 X225.0037 Y0.0089
 X225.0054 Y0.0080
 X225.0068 Y0.0068
 X225.0080 Y0.0054
 X225.0089 Y0.0037
 X225.0095 Y0.0019
 X225.0097 Y0.0000
 X225.0095 Y-0.0019
 X225.0089 Y-0.0037
 X225.0080 Y-0.0054
 X225.0068 Y-0.0068
 X225.0054 Y-0.0080
 X225.0037 Y-0.0089
 X225.0019 Y-0.0095
 X225.0000 Y-0.0097
 X224.9981 Y-0.0095
 X224.9963 Y-0.0089
 X224.9946 Y-0.0080
 X224.9932 Y-0.0068
 X224.9920 Y-0.0054
 X224.9911 Y-0.0037
 X224.9905 Y-0.0019
 X224.9903 Y0.0000
G0 Z10.0000
 X4.9903
G1 Z-5.4600
 X4.9905 Y0.0019
 X4.9911 Y0.0037
 X4.9920 Y0.0054
 X4.9932 Y0.0068
 X4.9946 Y0.0080
 X4.9963 Y0.0089
 X4.9981 Y0.0095
 X5.0000 Y0.0097
 X5.0019 Y0.0095
 X5.0037 Y0.0089
 X5.0054 Y0.0080
 X5.0068 Y0.0068
 X5.0080 Y0.0054
 X5.0089 Y0.0037
 X5.0095 Y0.0019
 X5.0097 Y0.0000
 X5.0095 Y-0.0019
 X5.0089 Y-0.0037
 X5.0080 Y-0.0054
 X5.0068 Y-0.0068
 X5.0054 Y-0.0080
 X5.0037 Y-0.0089
 X5.0019 Y-0.0095
 X5.0000 Y-0.0097
 X4.9981 Y-0.0095
 X4.9963 Y-0.0089
 X4.9946 Y-0.0080
 X4.9932 Y-0.0068
 X4.9920 Y-0.0054
 X4.9911 Y-0.0037
 X4.9905 Y-0.0019
 X4.9903 Y0.0000
G0 Z10.0000
 Y150.0000
G1 Z-5.4600
 X4.9905 Y150.0019
 X4.9911 Y150.0037
 X4.9920 Y150.0054
 X4.9932 Y150.0068
 X4.9946 Y150.0080
 X4.9963 Y150.0089
 X4.9981 Y150.0095
 X5.0000 Y150.0097
 X5.0019 Y150.0095
 X5.0037 Y150.0089
 X5.0054 Y150.0080
 X5.0068 Y150.0068
 X5.0080 Y150.0054
 X5.0089 Y150.0037
 X5.0095 Y150.0019
 X5.0097 Y150.0000
 X5.0095 Y149.9981
 X5.0089 Y149.9963
 X5.0080 Y149.9946
 X5.0068 Y149.9932
 X5.0054 Y149.9920
 X5.0037 Y149.9911
 X5.0019 Y149.9905
 X5.0000 Y149.9903
 X4.9981 Y149.9905
 X4.9963 Y149.9911
 X4.9946 Y149.9920
 X4.9932 Y149.9932
 X4.9920 Y149.9946
 X4.9911 Y149.9963
 X4.9905 Y149.9981
 X4.9903 Y150.0000
G0 Z10.0000
 X-3.0000 Y0.0983
G1 Z-5.4600
 Y149.9017
 X-2.8368 Y151.5588
 X-2.3821 Y153.0578
 X-1.6437 Y154.4392
 X-0.6500 Y155.6500
 X0.5608 Y156.6437
 X1.9422 Y157.3821
 X3.4412 Y157.8368
 X5.0983 Y158.0000
 X224.9017
 X226.5588 Y157.8368
 X228.0578 Y157.3821
 X229.4392 Y156.6437
 X230.6500 Y155.6500
 X231.6437 Y154.4392
 X232.3821 Y153.0578
 X232.8368 Y151.5588
 X233.0000 Y149.9017
 Y0.0983
 X232.8368 Y-1.5588
 X232.3821 Y-3.0578
 X231.6437 Y-4.4392
 X230.6500 Y-5.6500
 X229.4392 Y-6.6437
 X228.0578 Y-7.3821
 X226.5588 Y-7.8368
 X224.9017 Y-8.0000
 X5.0983
 X3.4412 Y-7.8368
 X1.9422 Y-7.3821
 X0.5608 Y-6.6437
 X-0.6500 Y-5.6500
 X-1.6437 Y-4.4392
 X-2.3821 Y-3.0578
 X-2.8368 Y-1.5588
 X-3.0000 Y0.0983
G0 Z10.0000
 X224.9903 Y150.0000
G1 Z-7.2800
 X224.9905 Y150.0019
 X224.9911 Y150.0037
 X224.9920 Y150.0054
 X224.9932 Y150.0068
 X224.9946 Y150.0080
 X224.9963 Y150.0089
 X224.9981 Y150.0095
 X225.0000 Y150.0097
 X225.0019 Y150.0095
 X225.0037 Y150.0089
 X225.0054 Y150.0080
 X225.0068 Y150.0068
 X225.0080 Y150.0054
 X225.0089 Y150.0037
 X225.0095 Y150.0019
 X225.0097 Y150.0000
 X225.0095 Y149.9981
 X225.0089 Y149.9963
 X225.0080 Y149.9946
 X225.0068 Y149.9932
 X225.0054 Y149.9920
 X225.0037 Y149.9911
 X225.0019 Y149.9905
 X225.0000 Y149.9903
 X224.9981 Y149.9905
 X224.9963 Y149.9911
 X224.9946 Y149.9920
 X224.9932 Y149.9932
 X224.9920 Y149.9946
 X224.9911 Y149.9963
 X224.9905 Y149.9981
 X224.9903 Y150.0000
G0 Z10.0000
 Y0.0000
G1 Z-7.2800
 X224.9905 Y0.0019
 X224.9911 Y0.0037
 X224.9920 Y0.0054
 X224.9932 Y0.0068
 X224.9946 Y0.0080
 X224.9963 Y0.0089
 X224.9981 Y0.0095
 X225.0000 Y0.0097
 X225.0019 Y0.0095
 X225.0037 Y0.0089
 X225.0054 Y0.0080
 X225.0068 Y0.0068
 X225.0080 Y0.0054
 X225.0089 Y0.0037
 X225.0095 Y0.0019
 X225.0097 Y0.0000
 X225.0095 Y-0.0019
 X225.0089 Y-0.0037
 X225.0080 Y-0.0054
 X225.0068 Y-0.0068
 X225.0054 Y-0.0080
 X225.0037 Y-0.0089
 X225.0019 Y-0.0095
 X225.0000 Y-0.0097
 X224.9981 Y-0.0095
 X224.9963 Y-0.0089
 X224.9946 Y-0.0080
 X224.9932 Y-0.0068
 X224.9920 Y-0.0054
 X224.9911 Y-0.0037
 X224.9905 Y-0.0019
 X224.9903 Y0.0000
G0 Z10.0000
 X4.9903
G1 Z-7.2800
 X4.9905 Y0.0019
 X4.9911 Y0.0037
 X4.9920 Y0.0054
 X4.9932 Y0.0068
 X4.9946 Y0.0080
 X4.9963 Y0.0089
 X4.9981 Y0.0095
 X5.0000 Y0.0097
 X5.0019 Y0.0095
 X5.0037 Y0.0089
 X5.0054 Y0.0080
 X5.0068 Y0.0068
 X5.0080 Y0.0054
 X5.0089 Y0.0037
 X5.0095 Y0.0019
 X5.0097 Y0.0000
 X5.0095 Y-0.0019
 X5.0089 Y-0.0037
 X5.0080 Y-0.0054
 X5.0068 Y-0.0068
 X5.0054 Y-0.0080
 X5.0037 Y-0.0089
 X5.0019 Y-0.0095
 X5.0000 Y-0.0097
 X4.9981 Y-0.0095
 X4.9963 Y-0.0089
 X4.9946 Y-0.0080
 X4.9932 Y-0.0068
 X4.9920 Y-0.0054
 X4.9911 Y-0.0037
 X4.9905 Y-0.0019
 X4.9903 Y0.0000
G0 Z10.0000
 Y150.0000
G1 Z-7.2800
 X4.9905 Y150.0019
 X4.9911 Y150.0037
 X4.9920 Y150.0054
 X4.9932 Y150.0068
 X4.9946 Y150.0080
 X4.9963 Y150.0089
 X4.9981 Y150.0095
 X5.0000 Y150.0097
 X5.0019 Y150.0095
 X5.0037 Y150.0089
 X5.0054 Y150.0080
 X5.0068 Y150.0068
 X5.0080 Y150.0054
 X5.0089 Y150.0037
 X5.0095 Y150.0019
 X5.0097 Y150.0000
 X5.0095 Y149.9981
 X5.0089 Y149.9963
 X5.0080 Y149.9946
 X5.0068 Y149.9932
 X5.0054 Y149.9920
 X5.0037 Y149.9911
 X5.0019 Y149.9905
 X5.0000 Y149.9903
 X4.9981 Y149.9905
 X4.9963 Y149.9911
 X4.9946 Y149.9920
 X4.9932 Y149.9932
 X4.9920 Y149.9946
 X4.9911 Y149.9963
 X4.9905 Y149.9981
 X4.9903 Y150.0000
G0 Z10.0000
 X-3.0000 Y0.0983
G1 Z-7.2800
 Y149.9017
 X-2.8368 Y151.5588
 X-2.3821 Y153.0578
 X-1.6437 Y154.4392
 X-0.6500 Y155.6500
 X0.5608 Y156.6437
 X1.9422 Y157.3821
 X3.4412 Y157.8368
 X5.0983 Y158.0000
 X224.9017
 X226.5588 Y157.8368
 X228.0578 Y157.3821
 X229.4392 Y156.6437
 X230.6500 Y155.6500
 X231.6437 Y154.4392
 X232.3821 Y153.0578
 X232.8368 Y151.5588
 X233.0000 Y149.9017
 Y0.0983
 X232.8368 Y-1.5588
 X232.3821 Y-3.0578
 X231.6437 Y-4.4392
 X230.6500 Y-5.6500
 X229.4392 Y-6.6437
 X228.0578 Y-7.3821
 X226.5588 Y-7.8368
 X224.9017 Y-8.0000
 X5.0983
 X3.4412 Y-7.8368
 X1.9422 Y-7.3821
 X0.5608 Y-6.6437
 X-0.6500 Y-5.6500
 X-1.6437 Y-4.4392
 X-2.3821 Y-3.0578
 X-2.8368 Y-1.5588
 X-3.0000 Y0.0983
G0 Z10.0000
 X224.9903 Y150.0000
G1 Z-9.1000
 X224.9905 Y150.0019
 X224.9911 Y150.0037
 X224.9920 Y150.0054
 X224.9932 Y150.0068
 X224.9946 Y150.0080
 X224.9963 Y150.0089
 X224.9981 Y150.0095
 X225.0000 Y150.0097
 X225.0019 Y150.0095
 X225.0037 Y150.0089
 X225.0054 Y150.0080
 X225.0068 Y150.0068
 X225.0080 Y150.0054
 X225.0089 Y150.0037
 X225.0095 Y150.0019
 X225.0097 Y150.0000
 X225.0095 Y149.9981
 X225.0089 Y149.9963
 X225.0080 Y149.9946
 X225.0068 Y149.9932
 X225.0054 Y149.9920
 X225.0037 Y149.9911
 X225.0019 Y149.9905
 X225.0000 Y149.9903
 X224.9981 Y149.9905
 X224.9963 Y149.9911
 X224.9946 Y149.9920
 X224.9932 Y149.9932
 X224.9920 Y149.9946
 X224.9911 Y149.9963
 X224.9905 Y149.9981
 X224.9903 Y150.0000
G0 Z10.0000
 Y0.0000
G1 Z-9.1000
 X224.9905 Y0.0019
 X224.9911 Y0.0037
 X224.9920 Y0.0054
 X224.9932 Y0.0068
 X224.9946 Y0.0080
 X224.9963 Y0.0089
 X224.9981 Y0.0095
 X225.0000 Y0.0097
 X225.0019 Y0.0095
 X225.0037 Y0.0089
 X225.0054 Y0.0080
 X225.0068 Y0.0068
 X225.0080 Y0.0054
 X225.0089 Y0.0037
 X225.0095 Y0.0019
 X225.0097 Y0.0000
 X225.0095 Y-0.0019
 X225.0089 Y-0.0037
 X225.0080 Y-0.0054
 X225.0068 Y-0.0068
 X225.0054 Y-0.0080
 X225.0037 Y-0.0089
 X225.0019 Y-0.0095
 X225.0000 Y-0.0097
 X224.9981 Y-0.0095
 X224.9963 Y-0.0089
 X224.9946 Y-0.0080
 X224.9932 Y-0.0068
 X224.9920 Y-0.0054
 X224.9911 Y-0.0037
 X224.9905 Y-0.0019
 X224.9903 Y0.0000
G0 Z10.0000
 X4.9903
G1 Z-9.1000
 X4.9905 Y0.0019
 X4.9911 Y0.0037
 X4.9920 Y0.0054
 X4.9932 Y0.0068
 X4.9946 Y0.0080
 X4.9963 Y0.0089
 X4.9981 Y0.0095
 X5.0000 Y0.0097
 X5.0019 Y0.0095
 X5.0037 Y0.0089
 X5.0054 Y0.0080
 X5.0068 Y0.0068
 X5.0080 Y0.0054
 X5.0089 Y0.0037
 X5.0095 Y0.0019
 X5.0097 Y0.0000
 X5.0095 Y-0.0019
 X5.0089 Y-0.0037
 X5.0080 Y-0.0054
 X5.0068 Y-0.0068
 X5.0054 Y-0.0080
 X5.0037 Y-0.0089
 X5.0019 Y-0.0095
 X5.0000 Y-0.0097
 X4.9981 Y-0.0095
 X4.9963 Y-0.0089
 X4.9946 Y-0.0080
 X4.9932 Y-0.0068
 X4.9920 Y-0.0054
 X4.9911 Y-0.0037
 X4.9905 Y-0.0019
 X4.9903 Y0.0000
G0 Z10.0000
 Y150.0000
G1 Z-9.1000
 X4.9905 Y150.0019
 X4.9911 Y150.0037
 X4.9920 Y150.0054
 X4.9932 Y150.0068
 X4.9946 Y150.0080
 X4.9963 Y150.0089
 X4.9981 Y150.0095
 X5.0000 Y150.0097
 X5.0019 Y150.0095
 X5.0037 Y150.0089
 X5.0054 Y150.0080
 X5.0068 Y150.0068
 X5.0080 Y150.0054
 X5.0089 Y150.0037
 X5.0095 Y150.0019
 X5.0097 Y150.0000
 X5.0095 Y149.9981
 X5.0089 Y149.9963
 X5.0080 Y149.9946
 X5.0068 Y149.9932
 X5.0054 Y149.9920
 X5.0037 Y149.9911
 X5.0019 Y149.9905
 X5.0000 Y149.9903
 X4.9981 Y149.9905
 X4.9963 Y149.9911
 X4.9946 Y149.9920
 X4.9932 Y149.9932
 X4.9920 Y149.9946
 X4.9911 Y149.9963
 X4.9905 Y149.9981
 X4.9903 Y150.0000
G0 Z10.0000
 X-3.0000 Y0.0983
G1 Z-9.1000
 Y62.4998
 Y62.5003 Z-8.1000
 Y67.5000
 Z-9.1000
 Y149.9017
 X-2.8368 Y151.5588
 X-2.3821 Y153.0578
 X-1.6437 Y154.4392
 X-0.6500 Y155.6500
 X0.5608 Y156.6437
 X1.9422 Y157.3821
 X3.4412 Y157.8368
 X5.0983 Y158.0000
 X97.5000
 Z-8.1000
 X102.4995
 X102.5004 Z-9.1000
 X224.9017
 X226.5588 Y157.8368
 X228.0578 Y157.3821
 X229.4392 Y156.6437
 X230.6500 Y155.6500
 X231.6437 Y154.4392
 X232.3821 Y153.0578
 X232.8368 Y151.5588
 X233.0000 Y149.9017
 Y67.5001
 Y67.4991 Z-8.1000
 Y62.5008
 Y62.4998 Z-9.1000
 Y0.0983
 X232.8368 Y-1.5588
 X232.3821 Y-3.0578
 X231.6437 Y-4.4392
 X230.6500 Y-5.6500
 X229.4392 Y-6.6437
 X228.0578 Y-7.3821
 X226.5588 Y-7.8368
 X224.9017 Y-8.0000
 X102.5004
 X102.4999 Z-8.1000
 X97.5000
 X97.4990 Z-9.1000
 X5.0983
 X3.4412 Y-7.8368
 X1.9422 Y-7.3821
 X0.5608 Y-6.6437
 X-0.6500 Y-5.6500
 X-1.6437 Y-4.4392
 X-2.3821 Y-3.0578
 X-2.8368 Y-1.5588
 X-3.0000 Y0.0983
G0 Z10.0000
M5 (stop spindle)
G04 P3 (wait for 3 seconds)
G0 Z10.0000
M2 (end program)
