;PYCAM-META-DATA: Filename: /home/matt/cad/inkscape/rosie.svg
;PYCAM-META-DATA: Timestamp: 2012-01-21 16:17:45.852286
;PYCAM-META-DATA: Version: 0.5.1
;Estimated machine time: 1 minutes
G40 (disable tool radius compensation)
G49 (disable tool length compensation)
G80 (cancel modal motion)
G54 (select coordinate system 1)
G90 (disable incremental moves)
G21 (metric)
G61 (exact path mode)
F400.00000
S1000.00000
;PYCAM_TOOLPATH_SETTINGS: START
;[Bounds]
;maxz = 0.0
;maxx = 24.517706
;maxy = 10.643235
;minx = 0.638764
;miny = -0.010805
;minz = -0.2
;
;[Tool]
;torus_radius = 0.25
;speed = 1000.0
;shape = CylindricalCutter
;tool_radius = 2.0
;feedrate = 400.0
;
;[Process]
;engrave_offset = 0.0
;step_down = 2.0
;generator = EngraveCutter
;postprocessor = SimpleCutter
;milling_style = conventional
;material_allowance = 0.0
;pocketing_type = none
;path_direction = x
;
;PYCAM_TOOLPATH_SETTINGS: END
T1 M6
G0 Z10.0000
M3 (start spindle)
G04 P3 (wait for 3 seconds)
 X5.3489 Y5.0716
G1 Z-0.2000
 X5.5959 Y4.9387
 X5.8362 Y4.7095
 X6.0736 Y4.3802
 X6.3120 Y3.9468
 X7.1017 Y2.3750
 X6.2657
 X5.5299 Y3.8504
 X5.3885 Y4.1151
 X5.2492 Y4.3311
 X5.1121 Y4.4984
 X4.9771 Y4.6170
 X4.8311 Y4.6997
 X4.6608 Y4.7586
 X4.4661 Y4.7941
 X4.2472 Y4.8058
 X3.3996
 Y2.3750
 X2.6215
 Y8.1265
 X4.3781
 X4.6168 Y8.1201
 X4.8399 Y8.1007
 X5.0473 Y8.0685
 X5.2391 Y8.0234
 X5.4152 Y7.9654
 X5.5757 Y7.8946
 X5.7205 Y7.8109
 X5.8497 Y7.7142
 X5.9634 Y7.6047
 X6.0620 Y7.4819
 X6.1455 Y7.3461
 X6.2137 Y7.1971
 X6.2668 Y7.0350
 X6.3047 Y6.8598
 X6.3275 Y6.6715
 X6.3351 Y6.4700
 X6.3193 Y6.2100
 X6.2720 Y5.9731
 X6.1931 Y5.7593
 X6.0827 Y5.5686
 X5.9422 Y5.4032
 X5.7731 Y5.2652
 X5.5753 Y5.1547
 X5.3489 Y5.0716
G0 Z10.0000
 X9.4015 Y6.7936
G1 Z-0.2000
 X9.6264 Y6.7842
 X9.8389 Y6.7560
 X10.0390 Y6.7091
 X10.2268 Y6.6433
 X10.4021 Y6.5589
 X10.5651 Y6.4556
 X10.7156 Y6.3335
 X10.8537 Y6.1926
 X10.9774 Y6.0351
 X11.0846 Y5.8633
 X11.1753 Y5.6769
 X11.2495 Y5.4761
 X11.3072 Y5.2608
 X11.3485 Y5.0312
 X11.3732 Y4.7871
 X11.3815 Y4.5284
 X11.3732 Y4.2707
 X11.3485 Y4.0273
 X11.3072 Y3.7981
 X11.2495 Y3.5832
 X11.1753 Y3.3825
 X11.0846 Y3.1962
 X10.9774 Y3.0241
 X10.8537 Y2.8662
 X10.7156 Y2.7249
 X10.5651 Y2.6024
 X10.4021 Y2.4988
 X10.2268 Y2.4141
 X10.0390 Y2.3481
 X9.8389 Y2.3010
 X9.6264 Y2.2727
 X9.4015 Y2.2633
 X9.1756 Y2.2727
 X8.9624 Y2.3010
 X8.7617 Y2.3481
 X8.5737 Y2.4141
 X8.3982 Y2.4988
 X8.2353 Y2.6024
 X8.0850 Y2.7249
 X7.9472 Y2.8662
 X7.8239 Y3.0241
 X7.7171 Y3.1962
 X7.6268 Y3.3825
 X7.5529 Y3.5832
 X7.4953 Y3.7981
 X7.4542 Y4.0273
 X7.4296 Y4.2707
 X7.4214 Y4.5284
 X7.4296 Y4.7871
 X7.4542 Y5.0312
 X7.4953 Y5.2608
 X7.5529 Y5.4761
 X7.6268 Y5.6769
 X7.7171 Y5.8633
 X7.8239 Y6.0351
 X7.9472 Y6.1926
 X8.0850 Y6.3335
 X8.2353 Y6.4556
 X8.3982 Y6.5589
 X8.5737 Y6.6433
 X8.7617 Y6.7091
 X8.9624 Y6.7560
 X9.1756 Y6.7842
 X9.4015 Y6.7936
G0 Z10.0000
 X15.2996 Y6.5624
G1 Z-0.2000
 Y5.8921
 X14.9933 Y6.0270
 X14.6754 Y6.1233
 X14.3461 Y6.1811
 X14.0051 Y6.2003
 X13.7577 Y6.1902
 X13.5433 Y6.1599
 X13.3619 Y6.1093
 X13.2135 Y6.0385
 X13.0980 Y5.9475
 X13.0156 Y5.8363
 X12.9661 Y5.7049
 X12.9497 Y5.5532
 X12.9614 Y5.4365
 X12.9968 Y5.3331
 X13.0558 Y5.2429
 X13.1384 Y5.1660
 X13.2566 Y5.0966
 X13.4225 Y5.0287
 X13.6360 Y4.9627
 X13.8974 Y4.8983
 X14.1400 Y4.8444
 X14.4901 Y4.7552
 X14.7857 Y4.6494
 X15.0265 Y4.5269
 X15.2128 Y4.3879
 X15.3519 Y4.2260
 X15.4511 Y4.0349
 X15.5107 Y3.8147
 X15.5307 Y3.5654
 X15.5008 Y3.2806
 X15.4117 Y3.0271
 X15.2631 Y2.8048
 X15.0549 Y2.6139
 X14.7947 Y2.4605
 X14.4900 Y2.3510
 X14.1408 Y2.2852
 X13.7471 Y2.2633
 X13.3931 Y2.2802
 X13.0248 Y2.3307
 X12.6391 Y2.4150
 X12.2331 Y2.5330
 Y3.2649
 X12.6232 Y3.0863
 X13.0074 Y2.9587
 X13.3868 Y2.8821
 X13.7625 Y2.8566
 X13.9983 Y2.8673
 X14.2054 Y2.8994
 X14.3836 Y2.9530
 X14.5329 Y3.0280
 X14.6508 Y3.1225
 X14.7351 Y3.2346
 X14.7857 Y3.3643
 X14.8026 Y3.5114
 X14.7904 Y3.6475
 X14.7539 Y3.7666
 X14.6932 Y3.8690
 X14.6081 Y3.9545
 X14.4818 Y4.0308
 X14.2975 Y4.1056
 X14.0551 Y4.1791
 X13.7548 Y4.2511
 X13.5083 Y4.3089
 X13.2017 Y4.3875
 X12.9409 Y4.4847
 X12.7259 Y4.6003
 X12.5567 Y4.7345
 X12.4286 Y4.8914
 X12.3371 Y5.0750
 X12.2822 Y5.2853
 X12.2639 Y5.5224
 X12.2909 Y5.8094
 X12.3718 Y6.0616
 X12.5066 Y6.2793
 X12.6954 Y6.4623
 X12.9337 Y6.6073
 X13.2173 Y6.7108
 X13.5462 Y6.7729
 X13.9204 Y6.7936
 X14.3018 Y6.7791
 X14.6600 Y6.7358
 X14.9932 Y6.6636
 X15.2996 Y6.5624
 X16.6639 Y7.4716
 Y8.3691
 X17.3728
 Y7.4716
 X16.6639
G0 Z10.0000
 Y2.3750
G1 Z-0.2000
 Y6.6896
 X17.3728
 Y2.3750
 X16.6639
G0 Z10.0000
 X22.5350 Y4.7095
G1 Z-0.2000
 Y4.3628
 X19.2760
 X19.3208 Y4.0187
 X19.4093 Y3.7180
 X19.5414 Y3.4610
 X19.7171 Y3.2476
 X19.9339 Y3.0799
 X20.1894 Y2.9601
 X20.4837 Y2.8882
 X20.8169 Y2.8643
 X21.2189 Y2.8893
 X21.6085 Y2.9644
 X21.9903 Y3.0896
 X22.3693 Y3.2649
 Y2.5946
 X21.9832 Y2.4521
 X21.5874 Y2.3480
 X21.1837 Y2.2845
 X20.7746 Y2.2633
 X20.5231 Y2.2727
 X20.2851 Y2.3009
 X20.0606 Y2.3478
 X19.8494 Y2.4136
 X19.6518 Y2.4981
 X19.4675 Y2.6014
 X19.2967 Y2.7235
 X19.1392 Y2.8643
 X18.9979 Y3.0212
 X18.8754 Y3.1913
 X18.7718 Y3.3746
 X18.6869 Y3.5712
 X18.6211 Y3.7810
 X18.5740 Y4.0041
 X18.5457 Y4.2404
 X18.5364 Y4.4899
 X18.5453 Y4.7479
 X18.5721 Y4.9923
 X18.6168 Y5.2230
 X18.6793 Y5.4400
 X18.7597 Y5.6433
 X18.8582 Y5.8331
 X18.9743 Y6.0091
 X19.1083 Y6.1714
 X19.2576 Y6.3173
 X19.4193 Y6.4436
 X19.5935 Y6.5506
 X19.7801 Y6.6380
 X19.9792 Y6.7061
 X20.1907 Y6.7547
 X20.4147 Y6.7839
 X20.6513 Y6.7936
 X20.8632 Y6.7848
 X21.0637 Y6.7586
 X21.2529 Y6.7148
 X21.4308 Y6.6535
 X21.5972 Y6.5747
 X21.7524 Y6.4783
 X21.8961 Y6.3645
 X22.0285 Y6.2331
 X22.1471 Y6.0867
 X22.2500 Y5.9277
 X22.3371 Y5.7561
 X22.4083 Y5.5719
 X22.4638 Y5.3752
 X22.5033 Y5.1658
 X22.5271 Y4.9440
 X22.5350 Y4.7095
G0 Z10.0000
 X4.3781 Y7.4870
G1 Z-0.2000
 X3.3996
 Y5.4453
 X4.3781
 X4.6421 Y5.4615
 X4.8717 Y5.5103
 X5.0668 Y5.5916
 X5.2275 Y5.7053
 X5.3531 Y5.8506
 X5.4428 Y6.0265
 X5.4966 Y6.2330
 X5.5145 Y6.4700
 X5.4966 Y6.7068
 X5.4428 Y6.9125
 X5.3531 Y7.0872
 X5.2275 Y7.2308
 X5.0668 Y7.3429
 X4.8717 Y7.4230
 X4.6421 Y7.4710
 X4.3781 Y7.4870
G0 Z10.0000
 X9.4015 Y6.1926
G1 Z-0.2000
 X9.1313 Y6.1648
 X8.8910 Y6.0814
 X8.6806 Y5.9424
 X8.5000 Y5.7477
 X8.3550 Y5.5047
 X8.2515 Y5.2204
 X8.1894 Y4.8950
 X8.1687 Y4.5284
 X8.1893 Y4.1619
 X8.2510 Y3.8365
 X8.3540 Y3.5523
 X8.4981 Y3.3092
 X8.6781 Y3.1146
 X8.8886 Y2.9755
 X9.1297 Y2.8921
 X9.4015 Y2.8643
 X9.6699 Y2.8922
 X9.9090 Y2.9760
 X10.1187 Y3.1157
 X10.2990 Y3.3111
 X10.4440 Y3.5548
 X10.5475 Y3.8389
 X10.6096 Y4.1634
 X10.6303 Y4.5284
 X10.6096 Y4.8919
 X10.5475 Y5.2156
 X10.4440 Y5.4996
 X10.2990 Y5.7438
 X10.1187 Y5.9402
 X9.9090 Y6.0804
 X9.6699 Y6.1646
 X9.4015 Y6.1926
G0 Z10.0000
 X19.2992 Y4.9137
G1 Z-0.2000
 X21.8261 Y4.9175
 X21.8029 Y5.1937
 X21.7410 Y5.4405
 X21.6401 Y5.6579
 X21.5007 Y5.8459
 X21.3289 Y5.9976
 X21.1312 Y6.1060
 X20.9081 Y6.1710
 X20.6590 Y6.1926
 X20.3771 Y6.1716
 X20.1249 Y6.1088
 X19.9022 Y6.0041
 X19.7093 Y5.8575
 X19.5501 Y5.6729
 X19.4286 Y5.4540
 X19.3450 Y5.2010
 X19.2992 Y4.9137
G0 Z10.0000
M5 (stop spindle)
G04 P3 (wait for 3 seconds)
G0 Z10.0000
M2 (end program)
